<?xml version="1.0" encoding="UTF-8"?>
<map version="1.10" tiledversion="1.12.2" orientation="orthogonal" renderorder="right-down" width="80" height="60" tilewidth="16" tileheight="16" infinite="0" nextlayerid="23" nextobjectid="1">
 <editorsettings>
  <export target="../assets/maps/town.json" format="json"/>
 </editorsettings>
 <tileset firstgid="1" name="tilemap_packed" tilewidth="16" tileheight="16" tilecount="132" columns="12">
  <image source="../../../../../../Downloads/kenney_tiny-town/Tilemap/tilemap_packed.png" width="192" height="176"/>
  <tile id="4">
   <properties>
    <property name="collide" type="bool" value="true"/>
   </properties>
  </tile>
  <tile id="6">
   <properties>
    <property name="collide" type="bool" value="false"/>
   </properties>
  </tile>
  <tile id="7">
   <properties>
    <property name="collide" type="bool" value="false"/>
   </properties>
  </tile>
  <tile id="8">
   <properties>
    <property name="collide" type="bool" value="false"/>
   </properties>
  </tile>
  <tile id="16">
   <properties>
    <property name="collide" type="bool" value="true"/>
   </properties>
  </tile>
  <tile id="18">
   <properties>
    <property name="collide" type="bool" value="false"/>
   </properties>
  </tile>
  <tile id="19">
   <properties>
    <property name="collide" type="bool" value="false"/>
   </properties>
  </tile>
  <tile id="20">
   <properties>
    <property name="collide" type="bool" value="false"/>
   </properties>
  </tile>
  <tile id="28">
   <properties>
    <property name="collide" type="bool" value="false"/>
   </properties>
  </tile>
  <tile id="30">
   <properties>
    <property name="collide" type="bool" value="false"/>
   </properties>
  </tile>
  <tile id="31">
   <properties>
    <property name="collide" type="bool" value="false"/>
   </properties>
  </tile>
  <tile id="32">
   <properties>
    <property name="collide" type="bool" value="false"/>
   </properties>
  </tile>
  <tile id="44">
   <properties>
    <property name="collide" type="bool" value="true"/>
   </properties>
  </tile>
  <tile id="45">
   <properties>
    <property name="collide" type="bool" value="true"/>
   </properties>
  </tile>
  <tile id="46">
   <properties>
    <property name="collide" type="bool" value="true"/>
   </properties>
  </tile>
  <tile id="47">
   <properties>
    <property name="collide" type="bool" value="true"/>
   </properties>
  </tile>
  <tile id="48">
   <properties>
    <property name="collide" type="bool" value="true"/>
   </properties>
  </tile>
  <tile id="49">
   <properties>
    <property name="collide" type="bool" value="true"/>
   </properties>
  </tile>
  <tile id="50">
   <properties>
    <property name="collide" type="bool" value="true"/>
   </properties>
  </tile>
  <tile id="51">
   <properties>
    <property name="collide" type="bool" value="true"/>
   </properties>
  </tile>
  <tile id="52">
   <properties>
    <property name="collide" type="bool" value="true"/>
   </properties>
  </tile>
  <tile id="53">
   <properties>
    <property name="collide" type="bool" value="true"/>
   </properties>
  </tile>
  <tile id="54">
   <properties>
    <property name="collide" type="bool" value="true"/>
   </properties>
  </tile>
  <tile id="55">
   <properties>
    <property name="collide" type="bool" value="true"/>
   </properties>
  </tile>
  <tile id="56">
   <properties>
    <property name="collide" type="bool" value="true"/>
   </properties>
  </tile>
  <tile id="57">
   <properties>
    <property name="collide" type="bool" value="true"/>
   </properties>
  </tile>
  <tile id="58">
   <properties>
    <property name="collide" type="bool" value="true"/>
   </properties>
  </tile>
  <tile id="59">
   <properties>
    <property name="collide" type="bool" value="true"/>
   </properties>
  </tile>
  <tile id="60">
   <properties>
    <property name="collide" type="bool" value="true"/>
   </properties>
  </tile>
  <tile id="61">
   <properties>
    <property name="collide" type="bool" value="true"/>
   </properties>
  </tile>
  <tile id="62">
   <properties>
    <property name="collide" type="bool" value="true"/>
   </properties>
  </tile>
  <tile id="63">
   <properties>
    <property name="collide" type="bool" value="true"/>
   </properties>
  </tile>
  <tile id="64">
   <properties>
    <property name="collide" type="bool" value="true"/>
   </properties>
  </tile>
  <tile id="65">
   <properties>
    <property name="collide" type="bool" value="true"/>
   </properties>
  </tile>
  <tile id="66">
   <properties>
    <property name="collide" type="bool" value="true"/>
   </properties>
  </tile>
  <tile id="67">
   <properties>
    <property name="collide" type="bool" value="true"/>
   </properties>
  </tile>
  <tile id="68">
   <properties>
    <property name="collide" type="bool" value="true"/>
   </properties>
  </tile>
  <tile id="69">
   <properties>
    <property name="collide" type="bool" value="true"/>
   </properties>
  </tile>
  <tile id="70">
   <properties>
    <property name="collide" type="bool" value="true"/>
   </properties>
  </tile>
  <tile id="71">
   <properties>
    <property name="collide" type="bool" value="true"/>
   </properties>
  </tile>
  <tile id="72">
   <properties>
    <property name="collide" type="bool" value="true"/>
   </properties>
  </tile>
  <tile id="73">
   <properties>
    <property name="collide" type="bool" value="true"/>
   </properties>
  </tile>
  <tile id="74">
   <properties>
    <property name="collide" type="bool" value="true"/>
   </properties>
  </tile>
  <tile id="75">
   <properties>
    <property name="collide" type="bool" value="true"/>
   </properties>
  </tile>
  <tile id="76">
   <properties>
    <property name="collide" type="bool" value="true"/>
   </properties>
  </tile>
  <tile id="77">
   <properties>
    <property name="collide" type="bool" value="true"/>
   </properties>
  </tile>
  <tile id="78">
   <properties>
    <property name="collide" type="bool" value="true"/>
   </properties>
  </tile>
  <tile id="79">
   <properties>
    <property name="collide" type="bool" value="true"/>
   </properties>
  </tile>
  <tile id="80">
   <properties>
    <property name="collide" type="bool" value="true"/>
   </properties>
  </tile>
  <tile id="81">
   <properties>
    <property name="collide" type="bool" value="true"/>
   </properties>
  </tile>
  <tile id="82">
   <properties>
    <property name="collide" type="bool" value="true"/>
   </properties>
  </tile>
  <tile id="83">
   <properties>
    <property name="collide" type="bool" value="true"/>
   </properties>
  </tile>
  <tile id="84">
   <properties>
    <property name="collide" type="bool" value="true"/>
   </properties>
  </tile>
  <tile id="85">
   <properties>
    <property name="collide" type="bool" value="true"/>
   </properties>
  </tile>
  <tile id="86">
   <properties>
    <property name="collide" type="bool" value="true"/>
   </properties>
  </tile>
  <tile id="87">
   <properties>
    <property name="collide" type="bool" value="true"/>
   </properties>
  </tile>
  <tile id="88">
   <properties>
    <property name="collide" type="bool" value="true"/>
   </properties>
  </tile>
  <tile id="89">
   <properties>
    <property name="collide" type="bool" value="true"/>
   </properties>
  </tile>
  <tile id="90">
   <properties>
    <property name="collide" type="bool" value="true"/>
   </properties>
  </tile>
  <tile id="91">
   <properties>
    <property name="collide" type="bool" value="true"/>
   </properties>
  </tile>
  <tile id="92">
   <properties>
    <property name="collide" type="bool" value="true"/>
   </properties>
  </tile>
  <tile id="93">
   <properties>
    <property name="collide" type="bool" value="true"/>
   </properties>
  </tile>
  <tile id="94">
   <properties>
    <property name="collide" type="bool" value="true"/>
   </properties>
  </tile>
  <tile id="95">
   <properties>
    <property name="collide" type="bool" value="true"/>
   </properties>
  </tile>
  <tile id="96">
   <properties>
    <property name="collide" type="bool" value="true"/>
   </properties>
  </tile>
  <tile id="97">
   <properties>
    <property name="collide" type="bool" value="true"/>
   </properties>
  </tile>
  <tile id="98">
   <properties>
    <property name="collide" type="bool" value="true"/>
   </properties>
  </tile>
  <tile id="99">
   <properties>
    <property name="collide" type="bool" value="true"/>
   </properties>
  </tile>
  <tile id="100">
   <properties>
    <property name="collide" type="bool" value="true"/>
   </properties>
  </tile>
  <tile id="101">
   <properties>
    <property name="collide" type="bool" value="true"/>
   </properties>
  </tile>
  <tile id="102">
   <properties>
    <property name="collide" type="bool" value="true"/>
   </properties>
  </tile>
  <tile id="103">
   <properties>
    <property name="collide" type="bool" value="true"/>
   </properties>
  </tile>
  <tile id="104">
   <properties>
    <property name="collide" type="bool" value="true"/>
   </properties>
  </tile>
  <tile id="105">
   <properties>
    <property name="collide" type="bool" value="true"/>
   </properties>
  </tile>
  <tile id="106">
   <properties>
    <property name="collide" type="bool" value="true"/>
   </properties>
  </tile>
  <tile id="107">
   <properties>
    <property name="collide" type="bool" value="true"/>
   </properties>
  </tile>
  <tile id="108">
   <properties>
    <property name="collide" type="bool" value="true"/>
   </properties>
  </tile>
  <tile id="109">
   <properties>
    <property name="collide" type="bool" value="true"/>
   </properties>
  </tile>
  <tile id="110">
   <properties>
    <property name="collide" type="bool" value="true"/>
   </properties>
  </tile>
  <tile id="111">
   <properties>
    <property name="collide" type="bool" value="true"/>
   </properties>
  </tile>
  <tile id="112">
   <properties>
    <property name="collide" type="bool" value="true"/>
   </properties>
  </tile>
  <tile id="113">
   <properties>
    <property name="collide" type="bool" value="true"/>
   </properties>
  </tile>
  <tile id="114">
   <properties>
    <property name="collide" type="bool" value="true"/>
   </properties>
  </tile>
  <tile id="115">
   <properties>
    <property name="collide" type="bool" value="true"/>
   </properties>
  </tile>
  <tile id="116">
   <properties>
    <property name="collide" type="bool" value="true"/>
   </properties>
  </tile>
  <tile id="117">
   <properties>
    <property name="collide" type="bool" value="true"/>
   </properties>
  </tile>
  <tile id="118">
   <properties>
    <property name="collide" type="bool" value="true"/>
   </properties>
  </tile>
  <tile id="119">
   <properties>
    <property name="collide" type="bool" value="true"/>
   </properties>
  </tile>
  <tile id="120">
   <properties>
    <property name="collide" type="bool" value="true"/>
   </properties>
  </tile>
  <tile id="121">
   <properties>
    <property name="collide" type="bool" value="true"/>
   </properties>
  </tile>
  <tile id="122">
   <properties>
    <property name="collide" type="bool" value="true"/>
   </properties>
  </tile>
  <tile id="123">
   <properties>
    <property name="collide" type="bool" value="true"/>
   </properties>
  </tile>
  <tile id="124">
   <properties>
    <property name="collide" type="bool" value="true"/>
   </properties>
  </tile>
  <tile id="125">
   <properties>
    <property name="collide" type="bool" value="true"/>
   </properties>
  </tile>
  <tile id="126">
   <properties>
    <property name="collide" type="bool" value="true"/>
   </properties>
  </tile>
  <tile id="127">
   <properties>
    <property name="collide" type="bool" value="true"/>
   </properties>
  </tile>
  <tile id="128">
   <properties>
    <property name="collide" type="bool" value="true"/>
   </properties>
  </tile>
  <tile id="129">
   <properties>
    <property name="collide" type="bool" value="true"/>
   </properties>
  </tile>
  <tile id="130">
   <properties>
    <property name="collide" type="bool" value="true"/>
   </properties>
  </tile>
  <tile id="131">
   <properties>
    <property name="collide" type="bool" value="true"/>
   </properties>
  </tile>
 </tileset>
 <layer id="1" name="land" width="80" height="60">
  <data encoding="csv">
2,2,1,2,1,2,1,2,1,1,2,1,2,1,2,1,2,2,1,1,1,1,2,2,1,1,1,2,1,2,2147483650,2147483649,2147483650,2147483649,2147483649,2147483649,2147483650,2147483650,2147483649,2147483649,2147483649,2147483649,2147483650,2147483650,2147483649,2147483650,2147483649,2147483650,2147483649,2147483650,2147483649,2147483649,2147483650,2147483649,2147483650,2147483649,2147483650,2147483649,2147483650,2147483650,2,2,1,2,1,2,1,2147483650,2147483649,2147483650,2147483650,2147483650,2147483650,2147483650,2147483650,2147483649,2147483650,2147483649,2147483650,2147483650,
2,1,2,3,1,1,2,1,1,3,2,2,1,1,2,3,2,1,2,2,1,1,2,1,1,1,1,1,2,2,2147483650,2147483650,2147483649,2147483649,2147483649,2147483649,2147483649,2147483650,2147483649,2147483649,2147483650,2147483650,2147483649,2147483650,2147483651,2147483650,2147483649,2147483649,2147483650,2147483650,2147483651,2147483649,2147483649,2147483650,2147483649,2147483649,2147483651,2147483650,2147483649,2147483650,2,1,2,3,1,1,2,2,1,3,1,2,1,2147483650,2147483649,2147483649,2147483651,2147483650,2147483649,2147483650,
1,3,3,2,1,1,2,1,1,2,1,2,3,1,2,2,2,2,3,1,2,3,1,2,3,3,3,2,1,1,2147483649,2147483649,2147483650,2147483651,2147483651,2147483651,2147483650,2147483649,2147483651,2147483650,2147483649,2147483651,2147483650,2147483650,2147483650,2147483650,2147483649,2147483651,2147483650,2147483649,2147483650,2147483649,2147483649,2147483650,2147483649,2147483649,2147483650,2147483651,2147483651,2147483649,1,3,3,2,1,1,2,2,1,2,2,2,3,2147483650,2147483649,2147483649,2147483650,2147483651,2147483651,2147483649,
1,2,1,1,1,1,2,1,2,3,1,2,3,2,1,2,3,3,1,1,2,2,2,2,3,1,3,2,1,1,2147483649,2147483649,2147483650,2147483651,2147483649,2147483651,2147483650,2147483650,2147483650,2147483650,2147483649,2147483649,2147483651,2147483651,2147483650,2147483649,2147483650,2147483651,2147483650,2147483649,2147483651,2147483650,2147483649,2147483650,2147483649,2147483649,2147483649,2147483649,2147483650,2147483649,1,2,1,1,1,1,2,2,1,2,1,2,1,2147483650,2147483649,2147483649,2147483649,2147483649,2147483650,2147483649,
2,2,3,1,2,2,1,2,2,1,2,1,1,2,2,1,1,1,2,2,2,3,3,1,1,2,1,2,2,3,2147483651,2147483650,2147483650,2147483649,2147483650,2147483649,2147483649,2147483651,2147483651,2147483650,2147483650,2147483650,2147483649,2147483649,2147483649,2147483650,2147483650,2147483649,2147483649,2147483650,2147483649,2147483650,2147483650,2147483649,2147483650,2147483650,2147483649,2147483651,2147483650,2147483650,2,2,3,1,2,2,1,2,1,1,2,3,2,2147483649,2147483650,2147483650,2147483649,2147483651,2147483650,2147483650,
1,2,2,1,2,1,1,2,2,1,1,2,2,1,2,1,2,1,2,1,2,3,2,1,2,1,1,1,2,3,2147483651,2147483650,2147483649,2147483649,2147483649,2147483650,2147483649,2147483650,2147483651,2147483650,2147483649,2147483650,2147483649,2147483650,2147483649,2147483650,2147483649,2147483650,2147483650,2147483649,2147483649,2147483650,2147483650,2147483649,2147483649,2147483650,2147483649,2147483650,2147483650,2147483649,1,2,2,1,2,1,1,2,1,2,3,3,2,2147483649,2147483649,2147483650,2147483649,2147483650,2147483650,2147483649,
2,2,1,2,2,3,1,2,2,3,3,1,2,2,1,2,2,2,2,2,2,2,1,1,2,1,1,2,2,2,2147483650,2147483650,2147483650,2147483649,2147483649,2147483650,2147483649,2147483649,2147483650,2147483650,2147483650,2147483650,2147483650,2147483650,2147483650,2147483649,2147483650,2147483650,2147483649,2147483651,2147483651,2147483650,2147483650,2147483649,2147483651,2147483650,2147483650,2147483649,2147483650,2147483650,2,2,1,2,2,3,1,2,1,2,1,2,2,2147483649,2147483651,2147483650,2147483650,2147483649,2147483650,2147483650,
2,3,1,2,2,3,2,1,1,2,1,2,1,2,2,2,2,1,2,3,2,2,1,2,1,1,1,2,3,2,2147483650,2147483651,2147483650,2147483649,2147483649,2147483649,2147483650,2147483649,2147483650,2147483650,2147483651,2147483650,2147483649,2147483650,2147483650,2147483650,2147483650,2147483649,2147483650,2147483649,2147483650,2147483649,2147483649,2147483650,2147483651,2147483650,2147483650,2147483649,2147483651,2147483650,2,3,1,2,2,3,2,2,1,2,1,2,2,2147483650,2147483651,2147483650,2147483650,2147483649,2147483651,2147483650,
2,1,3,1,2,1,1,2,1,1,2,3,1,2,1,1,2,2,1,1,2,3,2,1,1,3,1,2,2,1,2147483649,2147483650,2147483650,2147483649,2147483651,2147483649,2147483649,2147483650,2147483651,2147483650,2147483649,2147483649,2147483650,2147483650,2147483649,2147483649,2147483650,2147483649,2147483651,2147483650,2147483649,2147483649,2147483650,2147483649,2147483649,2147483650,2147483649,2147483651,2147483649,2147483650,2,1,3,1,2,1,1,1,2,3,1,2,1,2147483649,2147483649,2147483650,2147483649,2147483651,2147483649,2147483650,
2,1,2,2,2,3,1,1,2,1,1,2,2,1,2,1,2,3,3,1,3,3,2,3,1,3,1,2,1,1,2147483649,2147483649,2147483650,2147483649,2147483651,2147483649,2147483651,2147483650,2147483651,2147483651,2147483649,2147483651,2147483651,2147483650,2147483649,2147483650,2147483649,2147483650,2147483650,2147483649,2147483649,2147483650,2147483649,2147483649,2147483651,2147483650,2147483650,2147483650,2147483649,2147483650,2,1,1,2,1,1,2,1,1,2,2,1,2,0,0,0,0,0,0,0,
2,1,2,1,2,1,2,1,2,1,2,2,1,1,2,1,2,1,2,3,3,3,2,2,2,1,2,2,2,2,2147483650,2147483650,2147483650,2147483650,2147483649,2147483650,2147483650,2147483650,2147483651,2147483651,2147483651,2147483650,2147483649,2147483650,2147483649,2147483650,2147483649,2147483649,2147483650,2147483650,2147483649,2147483650,2147483649,2147483650,2147483649,2147483650,2147483649,2147483650,2147483649,2147483650,2,3,3,1,2,1,2,1,2,2,1,1,2,0,0,0,0,0,0,0,
2,1,1,2,3,2,2,3,1,2,2,2,1,1,2,1,2,1,2,2,2,2,2,2,2,2,1,3,1,2,2147483650,2147483649,2147483651,2147483649,2147483650,2147483650,2147483650,2147483650,2147483650,2147483650,2147483650,2147483650,2147483649,2147483650,2147483649,2147483650,2147483649,2147483649,2147483650,2147483650,2147483650,2147483649,2147483651,2147483650,2147483650,2147483651,2147483650,2147483649,2147483649,2147483650,1,2,1,2,2,3,1,2,2,2,1,1,2,0,0,0,0,0,0,0,
2,1,2,3,3,2,2,2,2,2,2,3,1,2,3,3,3,1,1,1,2,1,2,2,1,3,3,2,1,1,2147483649,2147483649,2147483650,2147483651,2147483651,2147483649,2147483650,2147483650,2147483649,2147483650,2147483649,2147483649,2147483649,2147483651,2147483651,2147483651,2147483650,2147483649,2147483651,2147483650,2147483650,2147483650,2147483650,2147483650,2147483650,2147483651,2147483651,2147483650,2147483649,2147483650,1,1,2,3,2,2,2,2,2,3,1,2,2147483649,2147483649,2147483649,2147483651,2147483651,2147483651,2147483650,0,
2,1,2,1,2,2,2,2,2,2,1,2,2,1,3,1,2,1,1,2,2,1,1,2,1,1,3,1,1,1,2147483649,2147483649,2147483649,2147483651,2147483649,2147483649,2147483650,2147483649,2147483649,2147483650,2147483650,2147483649,2147483649,2147483650,2147483649,2147483651,2147483649,2147483650,2147483650,2147483649,2147483650,2147483650,2147483650,2147483650,2147483650,2147483650,2147483649,2147483650,2147483649,2147483650,2,1,1,2,2,2,2,2,1,2,2,1,2147483650,2147483649,2147483649,2147483650,2147483649,2147483651,2147483649,0,
1,1,1,2,3,2,1,3,2,2,1,1,1,2,2,1,1,1,2,2,1,2,3,2,1,2,1,1,1,2,2147483650,2147483649,2147483649,2147483649,2147483650,2147483649,2147483650,2147483651,2147483650,2147483649,2147483650,2147483650,2147483649,2147483649,2147483649,2147483650,2147483650,2147483649,2147483649,2147483649,2147483650,2147483650,2147483651,2147483649,2147483650,2147483651,2147483650,2147483649,2147483649,2147483649,2,1,1,2,1,3,2,2,1,1,1,2,2147483650,2147483650,2147483649,2147483649,2147483649,2147483650,2147483650,0,
2,1,1,1,2,2,2,1,1,1,2,2,2,1,2,2,2,3,1,1,2,3,3,1,1,1,2,2,1,1,2147483649,2147483649,2147483650,2147483650,2147483649,2147483649,2147483649,2147483651,2147483651,2147483650,2147483649,2147483649,2147483651,2147483650,2147483650,2147483650,2147483649,2147483650,2147483650,2147483650,2147483649,2147483649,2147483649,2147483650,2147483650,2147483650,2147483649,2147483649,2147483649,2147483650,2,1,1,1,2,2,2,1,0,0,0,0,2147483649,2147483649,2147483651,2147483650,2147483650,2147483650,2147483649,0,
1,1,2,1,3,3,1,1,1,1,2,1,1,1,1,3,3,1,2,3,3,1,1,2,1,2,1,1,2,3,2147483651,2147483650,2147483649,2147483649,2147483650,2147483649,2147483650,2147483649,2147483649,2147483651,2147483651,2147483650,2147483649,2147483651,2147483651,2147483649,2147483649,2147483649,2147483649,2147483650,2147483649,2147483649,2147483649,2147483649,2147483651,2147483651,2147483649,2147483650,2147483649,2147483649,1,1,2,1,3,3,1,1,0,0,0,0,2147483651,2147483650,2147483649,2147483651,2147483651,2147483649,2147483649,0,
1,1,1,2,3,1,2,1,2,3,3,2,1,2,2,2,2,2,1,2,1,1,2,1,2,1,1,1,3,3,2147483651,2147483651,2147483649,2147483649,2147483649,2147483650,2147483649,2147483650,2147483649,2147483649,2147483650,2147483649,2147483650,2147483650,2147483650,2147483650,2147483650,2147483649,2147483650,2147483651,2147483651,2147483650,2147483649,2147483650,2147483649,2147483651,2147483650,2147483649,2147483649,2147483649,1,1,1,2,3,1,2,1,0,0,0,0,2147483650,2147483649,2147483650,2147483650,2147483650,2147483650,2147483650,0,
1,1,1073741825,1073741825,1073741825,1073741826,1073741825,2,2,1,2,2,2,2,2,3,3,3,3,2,2,2,2,1,3,1,1,1,3,2,2147483650,2147483651,2147483649,2147483649,2147483649,2147483651,2147483649,2147483650,2147483650,2147483650,2147483650,2147483651,2147483651,2147483651,2147483651,2147483650,2147483650,2147483650,2147483650,2147483650,2147483649,2147483650,2147483650,2147483649,2147483651,2147483651,2147483651,2147483651,2147483649,2147483649,1,1,3,3,3,3,1,2,0,0,0,0,2147483650,2147483651,2147483651,2147483651,2147483651,2147483650,2147483650,0,
1,1,1073741825,1073741825,1073741827,1073741827,1073741827,1,2,2,2,1,1,1,1,1,1,1,1,1,1,1,1,2,1,1,2,2,1,2,2147483650,2147483649,2147483650,2147483650,2147483649,2147483649,2147483650,2147483649,2147483649,2147483649,2147483649,2147483649,2147483649,2147483649,2147483649,2147483649,2147483649,2147483649,2147483649,2147483650,2147483650,2147483650,2147483649,2147483650,2147483650,2147483649,2147483650,2147483649,2147483649,2147483649,1,1,1,1,2,2,2,1,0,0,0,0,0,0,0,0,0,0,0,0,
1073741825,1073741825,1073741825,1073741825,1073741825,1073741826,1073741827,2,1,1,2,1,2,1,2,1,2,2,1,1,1,1,2,2,1,1,1,2,1,2,2,2,1,2,1,2,1,2,1,1,2,1,2,1,2,1,2,2,1,1,1,1,2,2,1,1,2147483649,2147483649,2147483650,2147483650,2147483650,1,1,3,3,2147483649,2147483650,2147483650,2147483649,2147483649,2147483649,2147483649,2147483650,2147483650,2147483649,2147483650,2147483649,2147483650,2147483649,2147483650,
1073741825,1073741825,1073741825,1073741825,1073741826,1073741825,1073741827,1,1,3,2,2,1,1,2,3,2,1,2,2,1,1,2,1,1,1,1,1,2,2,2,1,2,3,1,1,2,1,1,3,2,2,1,1,2,3,2,1,2,2,1,1,2,1,1,1,2147483649,2147483649,2147483649,2147483651,2147483651,1,1,1,2,2147483649,2147483649,2147483650,2147483649,2147483649,2147483650,2147483650,2147483649,2147483650,2147483651,2147483650,2147483649,2147483649,2147483650,2147483650,
1073741825,1073741825,1073741826,1073741825,1073741825,1073741825,1073741826,1,1,2,1,2,3,1,2,2,2,2,3,1,2,3,1,2,3,3,3,2,1,1,1,3,3,2,1,1,2,1,1,2,1,2,3,1,2,2,2,2,3,1,2,3,1,2,3,3,2147483649,2147483650,2147483650,2147483650,2147483649,2147483649,2147483649,2147483650,2147483649,2147483651,2147483650,2147483649,2147483651,2147483650,2147483649,2147483651,2147483650,2147483650,2147483650,2147483650,2147483649,2147483651,2147483650,2147483649,
1073741825,1073741825,1073741825,1073741825,1073741825,1073741826,1073741825,1,2,3,1,2,3,2,1,2,3,3,1,1,2,2,2,2,3,1,3,2,1,1,1,2,1,1,1,1,2,1,2,3,1,2,3,2,1,2,3,3,1,1,2,2,2,2,3,1,2147483649,2147483649,2147483651,2147483651,2147483649,2147483650,2147483649,2147483649,2147483649,2147483651,2147483650,2147483650,2147483650,2147483650,2147483649,2147483649,2147483651,2147483651,2147483650,2147483649,2147483650,2147483651,2147483650,2147483649,
1073741826,1073741825,1073741825,1073741825,1073741825,1073741825,1073741826,1073741825,2,1,2,1,1,2,2,1,1,1,2,2,2,3,3,1,1,2,1,2,2,3,2,2,3,1,2,2,1,2,2,1,2,1,1,2,2,1,1,1,2,2,2,3,3,1,1,2,2147483649,2147483650,2147483649,2147483651,2147483650,2147483649,2147483649,2147483649,2147483649,2147483649,2147483649,2147483651,2147483651,2147483650,2147483650,2147483650,2147483649,2147483649,2147483649,2147483650,2147483650,2147483649,2147483649,2147483650,
1,2,1073741825,1073741825,1073741825,1073741825,1073741825,1073741826,1073741825,1,1,2,2,1,2,1,2,1,2,1,2,3,2,1,2,1,1,1,2,3,1,2,2,1,2,1,1,2,2,1,1,2,2,1,2,1,2,1,2,1,2,3,2,1,2,1,2147483650,2147483649,2147483651,2147483651,2147483651,2147483651,2147483649,2147483649,2147483649,2147483650,2147483649,2147483650,2147483651,2147483650,2147483649,2147483650,2147483649,2147483650,2147483649,2147483650,2147483649,2147483650,2147483650,2147483649,
2,2,1073741825,1073741825,1073741825,1073741825,1073741825,1073741825,1073741825,1073741826,1073741825,1,2,2,1,2,2,2,2,2,2,2,1,1,2,1,1,2,2,2,2,2,1,2,2,3,1,2,2,3,3,1,2,2,1,2,2,2,2,2,2,2,1,1,2,1,2147483649,2147483650,2147483650,2147483649,2147483650,2147483649,2147483649,2147483649,2147483649,2147483650,2147483649,2147483649,2147483650,2147483650,2147483650,2147483650,2147483650,2147483650,2147483650,2147483649,2147483650,2147483650,2147483649,2147483651,
2,3,1073741825,1073741825,1073741825,1073741825,1073741825,1073741825,1073741827,1073741827,1073741827,2,1,2,2,2,2,1,2,3,2,2,1,2,1,1,1,2,3,2,2,3,1,2,2,3,2,1,1,2,1,2,1,2,2,2,2,1,2,3,2,2,1,2,1,1,2147483649,2147483650,2147483650,2147483649,2147483650,2147483649,2147483649,2147483649,2147483649,2147483649,2147483650,2147483649,2147483650,2147483650,2147483651,2147483650,2147483649,2147483650,2147483650,2147483650,2147483650,2147483649,2147483650,2147483649,
2,1,1073741826,1073741826,1073741825,1073741825,1073741825,1073741825,1073741825,1073741826,1073741827,3,1,2,1,1,2,2,1,1,2,3,2,1,1,3,1,2,2,1,2,1,3,1,2,1,1,2,1,1,2,3,1,2,1,1,2,2,1,1,2,3,2,1,1,3,1,2,2,1,2147483649,2147483650,2147483650,2147483649,2147483651,2147483649,2147483649,2147483650,2147483651,2147483650,2147483649,2147483649,2147483650,2147483650,2147483649,2147483649,2147483650,2147483649,2147483651,2147483650,
2,1,2,2,1073741826,1073741825,1073741825,1073741825,1073741826,1073741825,1073741827,2,2,1,2,1,2,3,3,1,3,3,2,3,1,3,1,2,1,1,2,1,2,2,2,3,1,1,2,1,1,2,2,1,2,1,2,3,3,1,3,3,2,3,1,3,1,2,1,1,2147483649,2147483649,2147483650,2147483649,2147483651,2147483649,2147483651,2147483650,2147483651,2147483651,2147483649,2147483651,2147483651,2147483650,2147483649,2147483650,2147483649,2147483650,2147483650,2147483649,
2,1,2,1,2,1,1073741826,1073741825,1073741825,1073741825,1073741826,2,1,1,2,1,2,1,2,3,3,3,2,2,2,1,2,2,2,2,2,1,2,1,2,1,2,1,2,1,2,2,1,1,2,1,2,1,2,3,3,3,2,2,2,1,2,2,2,2,2147483650,2147483650,2147483650,2147483650,2147483649,2147483650,2147483650,2147483650,2147483651,2147483651,2147483651,2147483650,2147483649,2147483650,2147483649,2147483650,2147483649,2147483649,2147483650,2147483650,
2,1,1,2,3,2,2,3,1,2,2,2,1,1,2,1,2,1,2,2,2,2,2,2,2,2,1,3,1,2,2,1,1,2,3,2,2,3,1,2,2,2,1,1,2,1,2,1,2,2,2,2,2,2,2,2,1,3,1,2,2147483650,2147483649,2147483651,2147483649,2147483650,2147483650,2147483650,2147483650,2147483650,2147483650,2147483650,2147483650,2147483649,2147483650,2147483649,2147483650,2147483649,2147483649,2147483650,2147483650,
2,1,2,3,3,2,2,2,2,2,2,3,1,2,3,3,3,1,1,1,2,1,2,2,1,3,3,2,1,1,2,1,2,3,3,2,2,2,2,2,2,3,1,2,3,3,3,1,1,1,2,1,2,2,1,3,3,2,1,1,2147483649,2147483649,2147483650,2147483651,2147483651,2147483649,2147483650,2147483650,2147483649,2147483650,2147483649,2147483649,2147483649,2147483651,2147483651,2147483651,2147483650,2147483649,2147483651,2147483650,
2,1,2,1,2,2,2,2,2,2,1,2,2,1,3,1,2,1,1,2,2,1,1,2,1,1,3,1,1,1,2,1,2,1,2,2,2,2,2,2,1,2,2,1,3,1,2,1,1,2,2,1,1,2,1,1,3,1,1,1,2147483649,2147483649,2147483649,2147483651,2147483649,2147483649,2147483650,2147483649,2147483649,2147483650,2147483650,2147483649,2147483649,2147483650,2147483649,2147483651,2147483649,2147483650,2147483650,2147483649,
1,1,1,2,3,2,1,3,2,2,1,1,1,2,2,1,1,1,2,2,1,2,3,2,1,2,1,1,1,2,1,1,1,2,3,2,1,3,2,2,1,1,1,2,2,1,1,1,2,2,1,2,3,2,1,2,1,1,1,2,2147483650,2147483649,2147483649,2147483649,2147483650,2147483649,2147483650,2147483651,2147483650,2147483649,2147483650,2147483650,2147483649,2147483649,2147483649,2147483650,2147483650,2147483649,2147483649,2147483649,
2,1,1,1,2,2,2,1,1,1,2,2,2,1,2,2,2,3,1,1,2,3,3,1,1,1,2,2,1,1,2,1,1,1,2,2,2,1,1,1,2,2,2,1,2,2,2,3,1,1,2,3,3,1,1,1,2,2,1,1,2147483649,2147483649,2147483650,2147483650,2147483649,2147483649,2147483649,2147483651,2147483651,2147483650,2147483649,2147483649,2147483651,2147483650,2147483650,2147483650,2147483649,2147483650,2147483650,2147483650,
1,1,2,1,3,3,1,1,1,1,2,1,1,1,1,3,3,1,2,3,3,2147483649,2147483650,2147483651,2147483650,2147483649,2147483649,2147483650,2147483650,2147483651,2147483649,2147483649,2,1,3,3,1,1,1,1,2,1,1,1,1,3,3,1,2,3,3,1,1,2,1,2,1,1,2,3,2147483651,2147483650,2147483649,2147483649,2147483650,2147483649,2147483650,2147483649,2147483649,2147483651,2147483651,2147483650,2147483649,2147483651,2147483651,2147483649,2147483649,2147483649,2147483649,2147483650,
1,1,1,2,3,1,2,1,2,3,3,2,1,2,2,2,2,2,1,2,1,2147483650,2147483650,2147483650,2147483650,2147483649,2147483651,2147483650,2147483649,2147483650,2147483649,2147483649,1,2,3,1,2,1,2,3,3,2,1,2,2,2,2,2,1,2,1,1,2,1,2,1,1,1,3,3,2147483651,2147483651,2147483649,2147483649,2147483649,2147483650,2147483649,2147483650,2147483649,2147483649,2147483650,2147483649,2147483650,2147483650,2147483650,2147483650,2147483650,2147483649,2147483650,2147483651,
1,1,3,3,3,3,1,2,2,1,2,2,2,2,2,3,3,3,3,2,2,2147483651,2147483651,2147483650,2147483649,2147483650,2147483651,2147483650,2147483649,2147483651,2147483650,2147483649,3,3,3,3,1,2,2,1,2,2,2,2,2,3,3,3,3,2,2,2,2,1,3,1,1,1,3,2,2147483650,2147483651,2147483649,2147483649,2147483649,2147483651,2147483649,2147483650,2147483650,2147483650,2147483650,2147483651,2147483651,2147483651,2147483651,2147483650,2147483650,2147483650,2147483650,2147483650,
1,1,1,2,1,2,2,1,2,2,2,1,1,1,2147483650,2147483650,2147483650,1,1,1,1,2147483649,2147483649,2147483649,2147483650,2147483650,2147483649,2147483649,2147483650,2147483649,2147483650,2147483650,1,2,1,2,2,1,2,2,2,1,1,1,1,1,1,1,1,1,1,1,1,2,1,1,2,2,1,2,2147483650,2147483649,2147483650,2147483650,2147483649,2147483649,2147483650,2147483649,2147483649,2147483649,2147483649,2147483649,2147483649,2147483649,2147483649,2147483649,2147483649,2147483649,2147483649,2147483650,
2147483650,2147483649,2147483651,2147483650,2147483649,2147483649,2147483650,2147483649,2147483649,2147483650,2147483649,2147483651,2147483649,2147483650,2147483650,2147483650,2147483650,2147483650,2147483650,2147483650,2147483650,2147483650,2147483650,2147483650,2147483650,2147483650,2147483650,2147483650,2147483650,2147483650,0,2147483650,2147483649,2147483650,2147483649,2147483649,2147483649,2147483650,2147483650,2147483649,2147483649,2147483649,2147483649,2147483650,2147483650,2147483649,2147483650,2147483649,2147483650,2147483649,2147483650,2147483649,2147483649,2147483650,2147483649,2147483650,2147483649,2147483650,2147483649,2147483650,2147483650,2,2,1,2,1,2,1,0,0,0,0,0,0,0,0,0,0,0,0,
2147483649,2147483650,2147483650,2147483649,2147483649,2147483650,2147483649,2147483649,2147483651,2147483650,2147483650,2147483650,2147483649,2147483650,2147483649,2147483649,2147483649,2147483649,2147483649,2147483649,2147483649,2147483649,2147483649,2147483649,2147483649,2147483649,2147483649,2147483649,2147483650,2147483650,2147483650,2147483650,2147483650,2147483649,2147483649,2147483649,2147483649,2147483649,2147483650,2147483649,2147483649,2147483650,2147483650,2147483649,2147483650,2147483651,2147483650,2147483649,2147483649,2147483650,2147483650,2147483651,2147483649,2147483649,2147483650,2147483649,2147483649,2147483651,2147483650,2147483649,2147483650,2,1,2,3,1,1,2,0,0,0,0,0,0,0,0,0,0,0,0,
2147483649,2147483649,2147483650,2147483650,2147483649,2147483650,2147483649,2147483650,2147483649,2147483650,2147483649,2147483650,2147483649,2147483650,2147483650,2147483650,2147483650,2147483650,2147483650,2147483650,2147483650,2147483650,2147483650,2147483650,2147483650,2147483650,2147483650,2147483650,2147483649,2147483650,2147483650,2147483649,2147483649,2147483650,2147483651,2147483651,2147483651,2147483650,2147483649,2147483651,2147483650,2147483649,2147483651,2147483650,2147483650,2147483650,2147483650,2147483649,2147483651,2147483650,2147483649,2147483650,2147483649,2147483649,2147483650,2147483649,2147483649,2147483650,2147483651,2147483651,2147483649,1,3,3,2,1,1,2,0,0,0,0,0,0,0,0,0,0,0,0,
2147483649,2147483649,2147483650,2147483650,2147483650,2147483649,2147483651,2147483650,2147483650,2147483651,2147483650,2147483649,2147483649,2147483650,2147483650,2147483650,2147483650,2147483650,2147483650,2147483650,2147483650,2147483650,2147483650,2147483650,2147483650,2147483650,2147483650,2147483650,2147483650,2147483650,2147483650,2147483649,2147483649,2147483650,2147483651,2147483649,2147483651,2147483650,2147483650,2147483650,2147483650,2147483649,2147483649,2147483651,2147483651,2147483650,2147483649,2147483650,2147483651,2147483650,2147483649,2147483651,2147483650,2147483649,2147483650,2147483649,2147483649,2147483649,2147483649,2147483650,2147483649,1,2,1,1,1,1,1,1,2,1,2,2,2,3,1,1,2,1,1,
2147483650,2147483649,2147483651,2147483650,2147483650,2147483650,2147483650,2147483649,2147483651,2147483650,2147483649,2147483649,2147483649,2147483650,2147483649,2147483650,2147483650,2147483650,2147483650,2147483650,2147483650,2147483650,2147483650,2147483650,2147483650,2147483650,2147483650,2147483650,2147483650,2147483650,2147483650,2147483651,2147483650,2147483650,2147483649,2147483650,2147483649,2147483649,2147483651,2147483651,2147483650,2147483650,2147483650,2147483649,2147483649,2147483649,2147483650,2147483650,2147483649,2147483649,2147483650,2147483649,2147483650,2147483650,2147483649,2147483650,2147483650,2147483649,2147483651,2147483650,2147483650,2,2,3,1,2,2,2,2,2,1,2,1,2,1,2,1,2,1,2,
2,2,2,2147483650,2147483650,2147483650,2147483649,2147483650,2147483650,2147483649,2147483649,2147483650,2147483649,2147483650,2147483650,2147483650,2147483650,2147483649,2147483649,2147483650,2147483650,2147483649,2147483650,2147483651,2147483651,2147483651,2147483651,2147483651,2147483651,2147483650,2147483650,2147483651,2147483650,2147483649,2147483649,2147483649,2147483650,2147483649,2147483650,2147483651,2147483650,2147483649,2147483650,2147483649,2147483650,2147483649,2147483650,2147483649,2147483650,2147483650,2147483649,2147483649,2147483650,2147483650,2147483649,2147483649,2147483650,2147483649,2147483650,2147483650,2147483649,1,2,2,1,2,2,2,2,2,1,1,2,3,2,2,3,1,2,2,
3,1,2,2147483649,2147483651,2147483649,2147483650,2147483649,2147483650,2147483650,2147483649,2147483650,2147483649,2147483649,2147483650,2147483650,2147483650,2147483650,2147483650,2147483650,2147483650,2147483650,2147483651,2147483650,2147483650,2147483650,2147483650,2147483650,2147483650,2147483650,2147483650,2147483650,2147483650,2147483650,2147483649,2147483649,2147483650,2147483649,2147483649,2147483650,2147483650,2147483650,2147483650,2147483650,2147483650,2147483650,2147483649,2147483650,2147483650,2147483649,2147483651,2147483651,2147483650,2147483650,2147483649,2147483651,2147483650,2147483650,2147483649,2147483650,2147483650,2,2,1,2,2,2,2,1,2,1,1,1,2,3,1,2,2,2,2,
2,1,1,2147483649,2147483650,2147483651,2147483651,2147483649,2147483650,2147483650,2147483649,2147483651,2147483650,2147483649,2147483650,2147483650,2147483650,2147483650,2147483650,2147483649,2147483650,2147483650,2147483650,2147483651,2147483651,2147483650,2147483650,2147483650,2147483650,2147483650,2147483650,2147483650,2147483651,2147483650,2147483649,2147483649,2147483649,2147483650,2147483649,2147483650,2147483650,2147483651,2147483650,2147483649,2147483650,2147483650,2147483650,2147483650,2147483649,2147483650,2147483649,2147483650,2147483649,2147483649,2147483650,2147483651,2147483650,2147483650,2147483649,2147483651,2147483650,2,3,1,2,2,2,2,2,2,1,2,1,1,2,2,1,2,2,2,
1,1,1,2147483649,2147483649,2147483651,2147483649,2147483649,2147483651,2147483650,2147483650,2147483650,2147483649,2147483649,2147483650,2147483650,2147483651,2147483651,2147483650,2147483650,2147483650,2147483650,2147483650,2147483650,2147483650,2147483651,2147483651,2147483651,2147483651,2147483651,2147483651,2147483649,2147483650,2147483650,2147483649,2147483651,2147483649,2147483649,2147483650,2147483651,2147483650,2147483649,2147483649,2147483650,2147483650,2147483649,2147483649,2147483650,2147483649,2147483651,2147483650,2147483649,2147483649,2147483650,2147483649,2147483649,2147483650,2147483649,2147483651,2147483649,2147483650,2,1,3,1,2,2,2,2,1,1,2,1,2,2,1,2,1,3,1,
1,1,2,2147483649,2147483649,2147483649,2147483650,2147483650,2147483650,2147483649,2147483649,2147483650,2147483650,2147483649,2147483650,2147483650,2147483650,2147483650,2147483650,2147483650,2147483649,2147483650,2147483650,2147483650,2147483650,2147483650,2147483650,2147483650,2147483650,2147483650,2147483650,2147483649,2147483649,2147483650,2147483649,2147483651,2147483649,2147483651,2147483650,2147483651,2147483651,2147483649,2147483651,2147483651,2147483650,2147483649,2147483650,2147483649,2147483650,2147483650,2147483649,2147483649,2147483650,2147483649,2147483649,2147483651,2147483650,2147483650,2147483650,2147483649,2147483650,0,0,0,0,0,2,2,2,1,2,3,1,2,2,1,3,3,2,1,
2,1,1,2147483649,2147483650,2147483650,2147483649,2147483649,2147483649,2147483651,2147483649,2147483650,2147483650,2147483650,2147483649,0,0,2147483650,2147483649,2147483650,2147483650,2147483650,2147483650,3,2,2,2,1,2,2,2,2,2147483650,2147483650,2147483650,2147483649,2147483650,2147483650,2147483650,2147483651,2147483651,2147483651,2147483650,2147483649,2147483650,2147483649,2147483650,2147483649,2147483649,2147483650,2147483650,2147483649,2147483650,2147483649,2147483650,2147483649,2147483650,2147483649,2147483650,2147483649,2147483650,0,0,0,0,0,3,2,2,1,1,2,2,2,3,1,1,3,1,1,
1,2,3,2147483650,2147483649,2147483649,2147483650,2147483649,2147483650,2147483649,2147483649,2147483651,2147483649,2147483649,2147483651,2147483650,2147483650,2147483649,2147483650,2147483650,2147483650,2147483650,2147483650,2,2,2,2,2,1,3,1,2,2147483649,2147483651,2147483649,2147483650,2147483650,2147483650,2147483650,2147483650,2147483650,2147483650,2147483650,2147483649,2147483650,2147483649,2147483650,2147483649,2147483649,2147483650,2147483650,2147483650,2147483649,2147483651,2147483650,2147483650,2147483651,2147483650,2147483649,2147483649,2147483650,0,0,0,0,0,2,2,2,1,2,2,1,1,2,2,2,1,1,1,
1,3,3,2147483651,2147483649,2147483649,2147483649,2147483650,2147483649,2147483650,2147483650,2147483650,2147483650,2147483650,2147483650,2147483649,2147483649,2147483650,2147483650,2147483649,2147483650,2147483650,2,1,2,2,1,3,3,2,1,1,2147483649,2147483650,2147483651,2147483651,2147483649,2147483650,2147483650,2147483649,2147483650,2147483649,2147483649,2147483649,2147483651,2147483651,2147483651,2147483650,2147483649,2147483651,2147483650,2147483650,2147483650,2147483650,2147483650,2147483650,2147483651,2147483651,2147483650,2147483649,2147483650,0,0,0,0,0,0,0,1,2,2,2,1,3,1,1,1,2,2,1,
1,3,2,2147483651,2147483649,2147483649,2147483649,2147483651,2147483649,2147483650,2147483650,2147483650,2147483650,2147483649,2147483650,2147483650,2147483650,2147483650,2147483650,2147483650,2147483650,2147483650,2,1,1,2,1,1,3,1,1,1,2147483649,2147483649,2147483651,2147483649,2147483649,2147483650,2147483649,2147483649,2147483650,2147483650,2147483649,2147483649,2147483650,2147483649,2147483651,2147483649,2147483650,2147483650,2147483649,2147483650,2147483650,2147483650,2147483650,2147483650,2147483650,2147483649,2147483650,2147483649,2147483650,0,0,0,0,0,2,2,3,1,1,3,1,1,2,1,2,1,1,2,
2,1,2,2147483649,2147483650,2147483650,2147483649,2147483649,2147483650,2147483649,2147483649,2147483650,2147483650,2147483650,2147483649,2147483650,2147483650,2147483650,2147483650,2147483650,2147483650,2147483650,1,2,3,2,1,2,1,1,1,2,2147483649,2147483649,2147483649,2147483650,2147483649,2147483650,2147483651,2147483650,2147483649,2147483650,2147483650,2147483649,2147483649,2147483649,2147483650,2147483650,2147483649,2147483649,2147483649,2147483650,2147483650,2147483651,2147483649,2147483650,2147483651,2147483650,2147483649,2147483649,2147483649,0,0,0,0,0,1,1,2,2,2,2,2,2,1,2,1,1,1,3,
1,3,3,2147483651,2147483649,2147483649,2147483649,2147483650,2147483649,2147483650,2147483650,2147483649,2147483649,2147483649,2147483650,2147483650,2147483650,2147483651,2147483649,2147483650,2147483650,2147483650,2,3,3,1,1,1,2,2,1,1,2147483649,2147483650,2147483650,2147483649,2147483649,2147483649,2147483651,2147483651,2147483650,2147483649,2147483649,2147483651,2147483650,2147483650,2147483650,2147483649,2147483650,2147483650,2147483650,2147483649,2147483649,2147483649,2147483650,2147483650,2147483650,2147483649,2147483649,2147483649,2147483650,0,0,0,0,0,2,2,2,1,2,2,2,2,1,3,1,1,1,3,
1,3,3,2147483651,2147483649,2147483649,2147483649,2147483650,2147483649,2147483650,2147483649,2147483650,2147483650,2147483650,2147483649,2147483650,2147483650,2147483650,2147483650,2147483650,2147483650,2147483650,3,1,1,2,1,2,1,1,2,3,2147483650,2147483649,2147483649,2147483650,2147483649,2147483650,2147483649,2147483649,2147483651,2147483651,2147483650,2147483649,2147483651,2147483651,2147483649,2147483649,2147483649,2147483649,2147483650,2147483649,2147483649,2147483649,2147483649,2147483651,2147483651,2147483649,2147483650,2147483649,2147483649,0,0,0,0,0,2,2,1,2,2,2,1,1,2,1,1,2,2,1,
1,3,3,2147483651,2147483649,2147483649,2147483649,2147483650,2147483649,2147483649,2147483650,2147483650,2147483650,2147483650,2147483650,2147483649,2147483650,2147483650,2147483650,2147483650,2147483650,2147483650,1,1,2,1,2,1,1,1,3,3,2147483651,2147483649,2147483649,2147483649,2147483650,2147483649,2147483650,2147483649,2147483649,2147483650,2147483649,2147483650,2147483650,2147483650,2147483650,2147483650,2147483649,2147483650,2147483651,2147483651,2147483650,2147483649,2147483650,2147483649,2147483651,2147483650,2147483649,2147483649,2147483649,0,0,0,0,0,2,2,2,1,1,1,2,2,1,2,1,1,1,3,
1,3,2,2147483651,2147483649,2147483649,2147483649,2147483651,2147483649,2147483650,2147483650,2147483650,2147483650,2147483650,2147483650,2147483650,2147483650,2147483650,2147483650,2147483650,2147483650,2147483651,2,2,2,1,3,1,1,1,3,2,2147483651,2147483649,2147483649,2147483649,2147483651,2147483649,2147483650,2147483650,2147483650,2147483650,2147483651,2147483651,2147483651,2147483651,2147483650,2147483650,2147483650,2147483650,2147483650,2147483649,2147483650,2147483650,2147483649,2147483651,2147483651,2147483651,2147483651,2147483649,2147483649,0,0,0,0,0,2,2,1,2,2,2,1,2,1,2,1,1,1,3,
2,1,2,2147483649,2147483650,2147483650,2147483649,2147483649,2147483650,2147483650,2147483650,2147483649,2147483650,2147483650,2147483651,2147483650,2147483650,2147483650,2147483650,2147483650,2147483650,2147483650,1,1,1,2,1,1,2,2,1,2,2147483649,2147483650,2147483650,2147483649,2147483649,2147483650,2147483649,2147483649,2147483649,2147483649,2147483649,2147483649,2147483649,2147483649,2147483649,2147483649,2147483649,2147483649,2147483650,2147483650,2147483650,2147483649,2147483650,2147483650,2147483649,2147483650,2147483649,2147483649,2147483649,0,0,0,0,0,2,1,2,2,2,2,2,1,1,2,1,1,1,3
</data>
 </layer>
 <layer id="6" name="road" width="80" height="60">
  <data encoding="csv">
0,0,0,0,0,0,0,0,0,0,0,0,0,0,0,0,0,0,0,0,0,0,0,0,0,0,0,0,0,0,0,0,0,0,0,0,0,0,0,0,0,0,0,0,0,0,0,0,0,0,0,0,0,0,0,0,0,0,0,0,0,0,0,0,0,0,0,0,0,0,0,0,0,0,0,0,0,0,0,0,
0,0,0,0,0,0,0,0,0,0,0,0,0,0,0,0,0,0,0,0,0,0,0,0,0,0,0,0,0,0,0,0,0,0,0,0,0,0,0,0,0,0,0,0,0,0,0,0,0,0,0,0,0,0,0,0,0,0,0,0,0,0,0,0,0,0,0,0,0,0,0,0,0,0,0,0,0,0,0,0,
0,0,0,0,0,0,0,0,0,0,0,0,0,0,0,0,0,0,0,0,0,0,0,0,0,0,0,0,0,0,0,0,0,0,0,0,0,0,0,0,0,0,0,0,0,0,0,0,0,0,0,0,0,0,0,0,0,0,0,0,0,0,0,0,0,0,0,0,0,0,0,0,0,0,0,0,0,0,0,0,
0,0,0,0,0,0,0,0,0,0,0,0,0,0,0,0,0,0,0,0,0,0,0,0,0,0,0,0,0,0,0,0,0,0,0,0,0,0,0,0,0,0,0,0,0,0,0,0,0,0,0,0,0,0,0,0,0,0,0,0,0,0,0,0,0,0,0,0,0,0,0,0,0,0,0,0,0,0,0,0,
0,0,0,0,0,0,0,0,0,0,0,0,0,0,0,0,0,0,0,0,0,0,0,0,0,0,0,0,0,0,0,0,0,0,0,0,0,0,0,0,0,0,0,0,0,0,0,0,0,0,0,0,0,0,0,0,0,0,0,0,0,0,0,0,0,0,0,0,0,0,0,0,0,0,0,0,0,0,0,0,
0,0,0,0,0,0,0,0,0,0,0,0,0,0,0,0,0,0,0,41,0,0,0,0,0,0,0,0,0,0,0,0,0,0,0,0,0,0,0,0,2147483689,0,0,0,0,0,0,0,0,0,0,0,0,0,0,0,0,0,0,0,0,0,0,0,0,0,0,0,0,0,0,0,0,0,0,0,0,0,0,0,
0,0,0,0,0,0,0,0,0,0,0,0,0,40,40,40,0,0,0,0,0,0,0,0,0,0,0,0,0,0,0,0,0,0,0,0,0,0,0,0,0,0,0,0,2147483688,2147483688,2147483688,0,0,0,0,0,0,0,0,0,0,0,0,0,0,0,0,0,0,0,0,0,0,0,0,0,0,0,0,0,0,0,0,0,
0,0,0,0,0,0,0,0,0,0,0,0,0,0,41,41,41,41,41,0,43,41,41,41,0,0,0,0,41,41,2147483689,2147483689,0,0,0,0,2147483689,2147483689,2147483689,2147483691,0,2147483689,2147483689,2147483689,2147483689,2147483689,0,0,0,0,0,0,0,0,0,0,0,0,0,0,0,0,0,0,0,0,0,0,0,0,0,0,41,0,0,0,0,0,0,0,
0,0,0,0,0,0,0,0,0,0,0,43,41,43,41,41,41,41,0,43,41,0,41,0,41,41,41,40,41,0,0,2147483689,2147483688,2147483689,2147483689,2147483689,0,2147483689,0,2147483689,2147483691,0,2147483689,2147483689,2147483689,2147483689,2147483691,2147483689,2147483691,0,0,0,0,0,0,0,0,0,0,0,0,0,0,0,0,0,0,0,0,43,41,43,41,0,0,0,0,0,0,0,
0,0,0,0,0,0,0,0,0,43,0,41,41,41,41,41,43,0,41,41,0,0,0,0,0,0,41,0,0,0,0,0,0,2147483689,0,0,0,0,0,0,2147483689,2147483689,0,2147483691,2147483689,2147483689,2147483689,2147483689,2147483689,0,2147483691,0,0,0,0,0,0,0,0,0,0,0,0,0,0,0,0,43,0,41,41,41,41,0,0,0,0,0,0,0,
0,0,0,0,0,0,0,0,0,43,41,41,43,41,0,0,0,41,0,0,0,0,0,0,0,0,0,0,0,0,0,0,0,0,0,0,0,0,0,0,0,0,2147483689,0,0,0,2147483689,2147483691,2147483689,2147483689,2147483691,0,0,0,0,0,0,0,0,0,0,0,0,0,0,0,0,43,41,41,43,41,0,0,0,0,0,0,0,0,
0,0,0,0,0,0,0,43,43,41,40,41,41,41,0,0,0,0,0,0,0,0,0,0,0,0,0,0,0,0,0,0,0,0,0,0,0,0,0,0,0,0,0,0,0,0,2147483689,2147483689,2147483689,2147483688,2147483689,2147483691,2147483691,0,0,0,0,0,0,0,0,0,0,0,0,43,43,41,40,41,41,41,0,0,0,0,0,0,0,0,
0,0,0,0,0,0,43,40,41,43,43,43,0,0,0,0,0,0,0,0,0,0,0,0,0,0,0,0,0,0,0,0,0,0,0,0,0,0,0,0,0,0,0,0,0,0,0,0,2147483691,2147483691,2147483691,2147483689,2147483688,2147483691,0,0,0,0,0,0,0,0,0,43,43,40,41,43,43,43,0,0,0,0,0,0,0,0,0,0,
0,0,0,0,0,0,40,41,0,43,0,0,0,0,0,0,0,0,0,0,0,0,0,0,0,0,0,0,0,0,0,0,0,0,0,0,0,0,0,0,0,0,0,0,0,0,0,0,0,0,2147483691,0,2147483689,2147483688,0,0,0,0,0,0,0,43,0,41,40,41,0,43,0,0,0,0,0,0,0,0,0,0,0,0,
0,0,0,0,41,41,43,0,0,0,0,0,0,0,0,0,0,0,0,0,0,0,0,0,0,0,0,0,0,0,0,0,0,0,0,0,0,0,0,0,0,0,0,0,0,0,0,0,0,0,0,0,0,2147483691,2147483689,2147483689,0,0,0,0,0,43,0,41,43,0,0,0,0,0,0,0,0,0,0,0,0,0,0,0,
0,0,0,41,0,41,43,0,0,0,0,0,0,0,0,0,0,0,0,0,0,0,0,0,0,0,0,0,0,0,0,0,0,0,0,0,0,0,0,0,0,0,0,0,0,0,0,0,0,0,0,0,0,2147483691,2147483689,0,2147483689,0,0,0,0,0,0,41,0,41,43,0,0,0,0,0,0,0,0,0,0,0,0,0,
0,0,41,0,41,41,40,0,0,0,0,0,0,0,0,0,0,0,0,0,0,0,0,0,0,0,0,0,0,0,0,0,0,0,0,0,0,0,0,0,0,0,0,0,0,0,0,0,0,0,0,0,0,2147483688,2147483689,2147483689,0,2147483689,0,0,0,0,41,0,41,41,40,0,0,0,0,0,0,0,0,0,0,0,0,0,
0,0,0,41,41,40,0,0,0,0,0,0,0,0,0,0,0,0,0,0,0,0,0,0,0,0,0,0,0,0,0,0,0,0,0,0,0,0,0,0,0,0,0,0,0,0,0,0,0,0,0,0,0,0,2147483688,2147483689,2147483689,0,0,0,0,0,0,41,41,40,0,0,0,0,0,0,0,0,0,0,0,0,0,0,
0,0,43,1073741867,0,1073741865,1073741865,0,0,0,0,0,0,0,0,0,0,0,0,0,0,0,0,0,0,0,0,0,0,0,0,0,0,0,0,0,0,0,0,0,0,0,0,0,0,0,0,0,0,0,0,0,0,0,0,0,2147483691,2147483691,0,0,0,0,43,43,0,0,0,0,0,0,0,0,0,0,0,0,0,0,0,0,
0,43,0,41,1073741867,1073741867,0,0,0,0,0,0,0,0,0,0,0,0,0,0,0,0,0,0,0,0,0,0,0,0,0,0,0,0,0,0,0,0,0,0,0,0,0,0,0,0,0,0,0,0,0,0,0,0,0,2147483689,2147483689,0,2147483691,0,0,43,0,41,41,0,0,0,0,0,0,0,0,0,0,0,0,0,0,0,
0,1073741867,0,1073741865,1073741865,1073741865,1073741865,0,0,0,0,0,0,0,0,0,0,0,0,0,0,0,0,0,0,0,0,0,0,0,0,0,0,0,0,0,0,0,0,0,0,0,0,0,0,0,0,0,0,0,0,0,0,0,0,0,0,2147483691,2147483691,2147483689,2147483689,2147483689,43,43,43,0,0,0,0,0,0,0,0,0,0,0,0,0,0,0,
0,0,1073741867,1073741867,1073741865,1073741865,1073741865,0,0,0,0,0,0,0,0,0,0,0,0,0,0,0,0,0,0,0,0,0,0,0,0,0,0,0,0,0,0,0,0,0,0,0,0,0,0,0,0,0,0,0,0,0,0,0,0,0,0,2147483688,2147483688,2147483689,2147483689,43,43,41,41,0,0,0,0,0,0,0,0,0,0,0,0,0,0,0,
0,0,0,1073741867,1073741867,1073741865,1073741865,0,0,0,0,0,0,0,0,0,0,0,0,0,0,0,0,0,0,0,0,0,0,0,0,0,0,0,0,0,0,0,0,0,0,0,0,0,0,0,0,0,0,0,0,0,0,0,0,0,0,2147483691,2147483689,2147483688,2147483689,2147483689,0,0,0,0,0,0,0,0,0,0,0,0,0,0,0,0,0,0,
0,0,1073741865,1073741867,1073741867,1073741865,1073741865,0,0,0,0,0,0,0,0,0,0,0,0,0,0,0,0,0,0,0,0,0,0,0,0,0,0,0,0,0,0,0,0,0,0,0,0,0,0,0,0,0,0,0,0,0,0,0,0,0,0,2147483688,2147483689,2147483689,2147483689,2147483689,2147483691,0,0,0,0,0,0,0,0,0,0,0,0,0,0,0,0,0,
0,0,0,1073741867,1073741867,1073741865,1073741865,1073741865,0,0,0,0,0,0,0,0,0,0,0,0,0,0,0,0,0,0,0,0,0,0,0,0,0,0,0,0,0,0,0,0,0,0,0,0,0,0,0,0,0,0,0,0,0,0,0,0,0,2147483688,2147483688,2147483689,2147483689,2147483689,2147483691,2147483691,0,0,0,0,0,0,0,0,0,0,0,0,0,0,0,0,
0,0,0,0,1073741867,1073741867,1073741867,1073741865,1073741865,0,0,0,0,0,0,0,0,0,0,41,0,0,0,0,0,0,0,0,0,0,0,0,0,0,0,0,0,0,0,0,0,0,0,0,0,0,0,0,0,41,0,0,0,0,0,0,0,0,2147483688,2147483689,2147483691,2147483691,0,0,0,0,0,0,0,0,2147483689,0,0,0,0,0,0,0,0,0,
0,0,0,0,1073741865,1073741865,1073741867,1073741867,0,1073741865,1073741865,0,0,40,40,40,0,0,0,0,0,0,0,0,0,0,0,0,0,0,0,0,0,0,0,0,0,0,0,0,0,0,0,40,40,40,0,0,0,0,0,0,0,0,0,0,0,0,0,2147483689,2147483689,2147483691,2147483691,0,0,0,0,0,0,0,0,0,0,0,2147483688,2147483688,2147483688,0,0,0,
0,0,0,0,1073741865,1073741865,1073741865,1073741865,1073741867,1073741867,0,0,0,0,41,41,41,41,41,0,43,41,41,41,0,0,0,0,41,41,0,0,0,0,0,0,0,0,0,0,0,0,0,0,41,41,41,41,41,0,43,41,41,41,0,0,0,0,41,2147483689,2147483689,2147483689,2147483691,0,0,0,2147483689,2147483689,2147483689,2147483691,0,2147483689,2147483689,2147483689,2147483689,2147483689,0,0,0,0,
0,0,0,0,0,1073741865,1073741865,0,1073741865,1073741865,1073741865,43,41,43,41,41,41,41,0,43,41,0,41,0,41,41,41,40,41,0,0,0,0,0,0,0,0,0,0,0,0,43,41,43,41,41,41,41,0,43,41,0,41,0,41,41,41,40,41,0,0,2147483689,2147483688,2147483689,2147483689,2147483689,0,2147483689,0,2147483689,2147483691,0,2147483689,2147483689,2147483689,2147483689,2147483691,2147483689,2147483691,0,
0,0,0,0,0,0,0,1073741865,1073741865,43,1073741865,41,41,41,41,41,43,0,41,41,0,0,0,0,0,0,41,0,0,0,0,0,0,0,0,0,0,0,0,43,0,41,41,41,41,41,43,0,41,41,0,0,0,0,0,0,41,0,0,0,0,0,0,2147483689,0,0,0,0,0,0,2147483689,2147483689,0,2147483691,2147483689,2147483689,2147483689,2147483689,2147483689,0,
0,0,0,0,0,0,0,0,0,1073741865,41,41,43,41,0,0,0,41,0,0,0,0,0,0,0,0,0,0,0,0,0,0,0,0,0,0,0,0,0,43,41,41,43,41,0,0,0,41,0,0,0,0,0,0,0,0,0,0,0,0,0,0,0,0,0,0,0,0,0,0,0,0,2147483689,0,0,0,2147483689,2147483691,2147483689,2147483689,
0,0,0,0,0,0,0,43,43,41,40,41,41,41,0,0,0,0,0,0,0,0,0,0,0,0,0,0,0,0,0,0,0,0,0,0,0,43,43,41,40,41,41,41,0,0,0,0,0,0,0,0,0,0,0,0,0,0,0,0,0,0,0,0,0,0,0,0,0,0,0,0,0,0,0,0,2147483689,2147483689,2147483689,2147483688,
0,0,0,0,0,0,43,40,41,43,43,43,0,0,0,0,0,0,0,0,0,0,0,0,0,0,0,0,0,0,0,0,0,0,0,0,43,40,41,43,43,43,0,0,0,0,0,0,0,0,0,0,0,0,0,0,0,0,0,0,0,0,0,0,0,0,0,0,0,0,0,0,0,0,0,0,0,0,2147483691,2147483691,
0,0,0,0,0,0,40,41,0,43,0,0,0,0,0,0,0,0,0,0,0,0,0,0,0,0,0,0,0,0,0,0,0,0,0,0,40,41,0,43,0,0,0,0,0,0,0,0,0,0,0,0,0,0,0,0,0,0,0,0,0,0,0,0,0,0,0,0,0,0,0,0,0,0,0,0,0,0,0,0,
0,0,0,0,41,41,43,0,0,0,0,0,0,0,0,0,0,0,0,0,0,0,0,0,0,0,0,0,0,0,0,0,0,0,41,41,43,0,0,0,0,0,0,0,0,0,0,0,0,0,0,0,0,0,0,0,0,0,0,0,0,0,0,0,0,0,0,0,0,0,0,0,0,0,0,0,0,0,0,0,
0,0,0,41,0,41,43,0,0,0,0,0,0,0,0,0,0,0,0,0,0,0,0,0,0,0,0,0,0,0,0,0,0,41,0,41,43,0,0,0,0,0,0,0,0,0,0,0,0,0,0,0,0,0,0,0,0,0,0,0,0,0,0,0,0,0,0,0,0,0,0,0,0,0,0,0,0,0,0,0,
0,0,41,0,41,41,40,0,0,0,0,0,0,0,0,0,0,0,0,0,0,0,0,0,0,0,0,0,0,0,0,0,41,0,41,41,40,0,0,0,0,0,0,0,0,0,0,0,0,0,0,0,0,0,0,0,0,0,0,0,0,0,0,0,0,0,0,0,0,0,0,0,0,0,0,0,0,0,0,0,
0,0,0,41,41,40,0,0,0,0,0,0,0,0,0,0,0,0,0,0,0,0,0,0,0,0,0,0,0,0,0,0,0,41,41,40,0,0,0,0,0,0,0,0,0,0,0,0,0,0,0,0,0,0,0,0,0,0,0,0,0,0,0,0,0,0,0,0,0,0,0,0,0,0,0,0,0,0,0,0,
0,0,43,43,0,0,0,0,0,0,0,0,0,0,0,0,0,0,0,0,0,0,0,0,0,0,0,0,0,0,0,0,43,43,0,0,0,0,0,0,0,0,0,0,0,0,0,0,0,0,0,0,0,0,0,0,0,0,0,0,0,0,0,0,0,0,0,0,0,0,0,0,0,0,0,0,0,0,0,0,
0,43,0,41,41,0,0,0,0,0,0,0,0,0,0,0,0,0,0,0,0,0,0,0,0,0,0,0,0,0,0,43,0,41,41,0,0,0,0,0,0,0,0,0,0,0,0,0,0,0,0,0,0,0,0,0,0,0,0,0,0,0,0,0,0,0,0,0,0,0,0,0,0,0,0,0,0,0,0,0,
2147483691,2147483689,2147483691,0,0,0,0,0,0,0,0,0,0,0,0,0,0,0,0,0,0,0,0,0,0,0,0,0,0,0,0,0,0,0,0,0,0,0,0,0,0,0,0,0,0,0,0,0,0,0,0,0,0,0,0,0,0,0,0,0,0,0,0,0,0,0,0,0,0,0,0,0,0,0,0,0,0,0,0,0,
2147483689,2147483689,2147483689,0,2147483691,0,0,0,0,0,0,0,0,0,0,0,0,0,0,0,0,0,0,0,0,0,0,0,0,0,0,0,0,0,0,0,0,0,0,0,0,0,0,0,0,0,0,0,0,0,0,0,0,0,0,0,0,0,0,0,0,0,0,0,0,0,0,0,0,0,0,0,0,0,0,0,0,0,0,0,
2147483689,2147483691,2147483689,2147483689,2147483691,0,0,0,0,0,0,0,0,0,0,0,0,0,0,0,0,0,0,0,0,0,0,0,0,0,0,0,0,0,0,0,0,0,0,0,0,0,0,0,0,0,0,0,0,0,0,0,0,0,0,0,0,0,0,0,0,0,0,0,0,0,0,0,0,0,0,0,0,0,0,0,0,0,0,0,
2147483689,2147483689,2147483689,2147483688,2147483689,2147483691,2147483691,0,0,0,0,0,0,0,0,0,0,0,0,0,0,0,0,0,0,0,0,0,0,0,0,0,0,0,0,0,0,0,0,0,0,0,0,0,0,0,0,0,0,0,0,0,0,0,0,0,0,0,0,0,0,0,0,0,0,0,0,0,0,0,0,0,0,0,0,0,0,0,43,0,
0,0,2147483691,2147483691,2147483691,2147483689,2147483688,2147483689,2147483691,0,0,0,0,0,0,0,0,0,0,0,0,0,0,0,0,0,0,0,0,0,0,0,0,0,0,0,0,0,0,0,0,0,0,0,0,0,0,0,0,0,0,0,0,0,0,0,0,0,0,0,0,0,0,0,0,0,0,0,0,0,0,0,0,0,0,0,0,0,43,41,
0,0,0,0,2147483691,0,2147483689,2147483689,2147483689,0,2147483691,0,0,0,0,0,0,0,0,0,0,0,0,0,0,0,0,0,0,0,0,0,0,0,0,0,0,0,0,0,0,2147483689,0,0,0,0,0,0,0,0,0,0,0,0,0,0,0,0,0,0,0,0,0,0,0,0,0,0,0,0,0,0,0,0,0,0,43,43,41,40,
0,0,0,0,0,0,0,2147483691,2147483689,2147483689,2147483691,0,0,0,0,0,0,0,0,0,0,0,0,0,0,0,0,0,0,0,0,0,0,0,0,0,0,0,0,0,0,0,0,0,0,2147483688,2147483688,2147483688,0,0,0,0,0,0,0,0,0,0,0,0,0,0,0,0,0,0,0,0,0,0,0,0,0,0,43,41,40,41,43,43,
0,0,0,0,0,0,0,2147483689,2147483689,2147483688,2147483689,2147483691,0,0,0,0,0,0,0,0,0,0,0,0,0,0,0,0,0,0,0,2147483689,2147483689,0,0,0,0,2147483689,2147483689,2147483689,2147483691,0,2147483689,2147483689,2147483689,2147483689,2147483689,0,0,0,0,0,0,0,0,0,0,0,0,0,0,0,0,0,0,0,0,0,0,0,0,0,43,0,41,41,41,0,43,0,
0,0,0,0,0,0,0,0,2147483691,2147483691,2147483689,2147483689,0,2147483691,0,0,0,0,0,0,0,0,0,0,0,0,0,0,0,0,0,0,2147483689,2147483688,2147483689,2147483689,2147483689,0,2147483689,0,2147483689,2147483691,0,2147483689,2147483689,2147483689,2147483689,2147483691,2147483689,2147483691,0,0,0,0,0,0,0,0,0,0,0,0,0,0,0,0,0,0,0,0,0,0,43,41,41,43,0,0,0,0,
0,0,0,0,0,0,0,0,0,0,2147483691,2147483689,2147483689,2147483691,0,0,0,0,0,0,0,0,0,0,0,0,0,0,0,0,0,0,0,0,2147483689,0,0,0,0,0,0,2147483689,2147483689,0,2147483691,2147483689,2147483689,2147483689,2147483689,2147483689,0,2147483691,0,0,0,0,0,0,0,0,0,0,0,0,0,0,0,0,0,0,0,43,41,40,41,41,0,0,0,0,
0,0,0,0,0,0,0,0,0,0,2147483689,2147483689,2147483688,2147483689,2147483691,0,0,0,0,0,0,0,0,0,0,0,0,0,0,0,0,0,0,0,0,0,0,0,0,0,0,0,0,2147483689,0,0,0,2147483689,2147483691,2147483689,2147483689,2147483691,0,0,0,0,0,0,0,0,0,0,0,0,0,0,0,0,0,43,0,41,41,43,43,0,0,0,0,0,
0,0,0,0,0,0,0,0,0,0,0,2147483691,2147483689,2147483689,2147483691,0,0,0,0,0,0,0,0,0,0,0,0,0,0,0,0,0,0,0,0,0,0,0,0,0,0,0,0,0,0,0,0,2147483689,2147483689,2147483689,2147483688,2147483689,2147483691,2147483691,0,0,0,0,0,0,0,0,0,0,0,0,0,0,0,43,41,41,43,0,0,0,0,0,0,0,
0,0,0,0,0,0,0,0,0,0,0,0,2147483689,2147483689,2147483689,2147483691,2147483691,0,0,0,0,0,0,0,0,0,0,0,0,0,0,0,0,0,0,0,0,0,0,0,0,0,0,0,0,0,0,0,0,2147483691,2147483691,2147483691,2147483689,2147483688,2147483691,0,0,0,0,0,0,0,0,0,0,0,0,0,43,41,40,41,41,0,0,0,0,0,0,0,
0,0,0,0,0,0,0,0,0,0,0,0,2147483691,2147483691,2147483689,2147483689,2147483691,0,0,0,0,0,0,0,0,0,0,0,0,0,0,0,0,0,0,0,0,0,0,0,0,0,0,0,0,0,0,0,0,0,0,2147483691,0,2147483689,2147483688,0,0,0,0,0,0,0,0,0,0,0,0,0,43,41,41,43,0,0,0,0,0,0,0,0,
0,0,0,0,0,0,0,0,0,0,0,2147483689,2147483691,2147483689,2147483689,2147483688,2147483689,2147483691,0,0,0,0,0,0,0,0,0,0,0,0,0,0,0,0,0,0,0,0,0,0,0,0,0,0,0,0,0,0,0,0,0,0,0,0,2147483691,2147483689,2147483689,0,0,0,0,0,0,0,0,0,43,43,41,41,41,0,0,0,0,0,0,0,0,0,
0,0,0,0,0,0,0,0,0,0,0,2147483689,2147483689,2147483691,2147483689,2147483691,2147483691,2147483689,0,0,0,0,0,0,0,0,0,0,0,0,0,0,0,0,0,0,0,0,0,0,0,0,0,0,0,0,0,0,0,0,0,0,0,0,2147483691,2147483689,0,2147483689,0,0,0,0,0,0,0,0,43,41,41,43,43,0,0,0,0,0,0,0,0,0,
0,0,0,0,0,0,0,0,0,0,0,2147483691,2147483689,2147483689,2147483689,2147483689,2147483691,2147483691,0,0,0,0,0,0,0,0,0,0,0,0,0,0,0,0,0,0,0,0,0,0,0,0,0,0,0,0,0,0,0,0,0,0,0,0,2147483688,2147483689,2147483689,0,2147483689,0,0,0,0,0,0,0,41,40,41,41,43,41,0,0,0,0,0,0,0,0,
0,0,0,0,0,0,0,0,0,0,0,2147483689,2147483689,2147483688,2147483691,2147483689,2147483689,2147483691,0,0,0,0,0,0,0,0,0,0,0,0,0,0,0,0,0,0,0,0,0,0,0,0,0,0,0,0,0,0,0,0,0,0,0,0,0,2147483688,2147483689,2147483689,0,0,0,0,0,0,0,0,43,43,41,43,41,41,0,0,0,0,0,0,0,0,
0,0,0,0,0,0,0,0,0,0,0,0,2147483691,2147483691,2147483689,2147483689,2147483688,2147483689,2147483691,0,0,0,0,0,0,0,0,0,0,0,0,0,0,0,0,0,0,0,0,0,0,0,0,0,0,0,0,0,0,0,0,0,0,0,0,0,0,2147483691,2147483691,0,0,0,0,0,0,0,43,41,41,41,41,43,0,0,0,0,0,0,0,0,
0,0,0,0,0,0,0,0,0,0,0,0,0,0,2147483691,2147483691,2147483691,2147483691,2147483689,0,0,0,0,0,0,0,0,0,0,0,0,0,0,0,0,0,0,0,0,0,0,0,0,0,0,0,0,0,0,0,0,0,0,0,0,0,2147483689,2147483689,0,2147483691,0,0,0,0,0,0,41,41,43,40,41,41,0,0,0,0,0,0,0,0
</data>
 </layer>
 <layer id="7" name="fences" width="80" height="60">
  <data encoding="csv">
0,0,0,0,0,0,0,0,0,0,0,0,0,0,0,0,0,0,0,0,0,0,0,0,0,0,0,0,0,0,0,0,0,0,0,0,0,0,0,0,0,0,0,0,0,0,0,0,0,0,0,0,0,0,0,0,0,0,0,0,0,0,0,0,0,0,0,0,0,0,0,0,0,0,0,0,0,0,0,0,
0,0,0,0,0,0,0,0,0,0,0,0,0,0,0,0,0,0,0,0,0,0,0,0,0,0,0,0,0,0,0,0,0,0,0,0,0,0,0,0,0,0,0,0,0,0,0,0,0,0,0,0,0,0,0,0,0,0,0,0,0,0,0,0,0,0,0,0,0,0,0,0,0,0,0,0,0,0,0,0,
0,0,0,0,0,0,0,0,0,0,0,0,0,0,0,0,0,0,0,0,0,0,0,0,0,0,0,0,0,0,0,0,0,0,0,0,0,0,0,0,0,0,0,0,0,0,0,0,0,0,0,0,0,0,0,0,0,0,0,0,0,0,0,0,0,0,0,0,0,0,0,0,0,0,0,0,0,0,0,0,
0,0,0,0,0,0,0,0,0,0,0,0,0,0,0,0,0,0,0,0,0,0,0,0,0,0,0,0,0,0,0,0,0,0,0,0,0,0,0,0,0,0,0,0,0,0,0,0,0,0,0,0,0,0,0,0,0,0,0,0,0,0,0,0,0,0,0,0,0,0,0,0,0,0,0,0,0,0,0,0,
0,0,0,0,0,0,0,0,0,0,0,0,0,0,0,0,0,0,0,0,0,0,0,0,0,0,0,0,0,0,0,0,0,0,0,0,0,0,0,0,0,0,0,0,0,0,0,0,0,0,0,0,0,0,0,0,0,0,0,0,0,0,0,0,0,0,0,0,0,0,0,0,44,0,0,0,0,0,0,0,
0,0,0,0,0,0,0,0,0,0,0,0,0,0,0,0,0,0,0,0,0,0,0,0,0,0,0,0,0,0,0,0,0,0,0,0,0,0,0,0,0,0,0,0,0,0,0,0,0,0,0,0,0,0,0,0,0,0,0,0,0,0,0,0,0,0,0,0,0,0,0,0,0,0,0,0,0,0,0,0,
0,0,0,0,0,0,0,0,0,0,0,0,0,0,0,0,0,0,0,0,0,0,0,0,0,0,0,0,0,0,0,0,0,0,0,0,0,0,0,0,0,0,0,0,0,0,0,0,0,0,0,0,0,0,0,0,0,0,0,0,0,0,0,0,0,0,0,0,0,0,0,0,0,0,0,0,0,0,0,0,
0,0,0,0,0,0,0,0,44,0,0,0,0,0,0,0,0,0,0,0,0,0,0,0,0,0,0,0,0,0,0,0,0,0,0,0,0,0,0,0,0,0,0,0,0,0,0,0,0,0,0,2147483692,0,0,0,0,0,0,0,0,0,0,0,0,0,0,44,0,0,0,0,0,0,0,0,0,0,0,0,0,
0,0,0,0,0,0,0,0,44,0,0,0,0,0,0,0,0,0,0,0,0,0,0,0,0,0,0,0,0,0,0,0,0,0,0,0,0,0,0,0,0,0,0,0,0,0,0,0,0,0,0,2147483692,0,0,0,0,0,0,0,0,0,0,0,0,0,0,44,0,0,0,0,0,0,0,0,0,0,0,0,0,
0,0,0,0,0,0,0,0,0,0,0,0,0,0,0,0,0,0,0,0,0,0,0,0,0,0,0,0,0,0,0,0,0,0,0,0,0,0,0,0,0,0,0,0,0,0,0,0,0,0,0,0,0,0,0,0,0,0,0,0,0,0,0,0,0,0,0,0,0,0,0,0,0,0,0,0,0,0,0,0,
0,0,0,0,0,0,0,0,0,0,0,0,0,0,0,0,0,0,0,0,0,0,0,0,0,0,0,44,44,0,0,2147483692,2147483692,0,0,0,0,0,0,0,0,0,0,0,0,0,0,0,0,0,0,0,0,0,0,0,0,0,0,0,0,0,0,0,0,0,0,0,0,0,0,0,0,0,0,0,0,0,0,0,
0,0,0,0,0,44,0,0,0,0,0,0,0,44,0,0,0,0,0,0,0,0,0,0,0,0,45,70,46,47,2147483695,2147483694,2147483718,2147483693,0,0,0,0,0,0,0,0,0,0,0,0,2147483692,0,0,0,0,0,0,0,2147483692,0,0,0,0,0,44,0,0,0,0,0,0,0,0,0,0,44,0,0,0,0,0,0,0,0,
0,0,0,0,0,0,0,0,0,0,0,0,0,0,0,0,0,0,0,0,0,0,0,0,0,0,57,58,58,60,2147483708,2147483706,2147483706,2147483705,0,0,0,0,0,0,0,0,0,0,0,0,0,0,0,0,0,0,0,0,0,0,0,0,0,0,44,0,0,0,0,0,0,0,0,0,0,0,0,0,0,0,0,0,0,0,
0,0,0,0,0,0,0,0,0,0,44,0,0,0,0,0,0,0,0,0,0,0,0,0,44,45,71,0,0,72,2147483720,0,0,2147483719,2147483693,2147483692,0,0,0,0,0,0,0,0,0,0,0,0,0,2147483692,0,0,0,0,0,0,0,0,0,0,44,0,0,0,0,0,0,0,44,0,0,0,0,0,0,0,0,0,0,0,
0,0,44,44,0,0,0,0,0,0,0,0,0,0,0,0,0,0,0,0,0,0,0,0,45,71,0,0,0,0,0,0,0,0,2147483719,2147483693,0,0,0,0,0,0,0,0,0,0,0,0,0,0,0,0,0,0,0,0,2147483692,2147483692,0,0,0,0,0,0,0,0,0,0,0,0,0,0,0,0,0,0,0,0,0,0,
0,44,44,0,0,0,0,0,0,0,0,0,0,0,0,0,0,0,0,0,0,0,0,45,71,0,0,0,0,0,0,0,0,0,0,2147483719,2147483693,0,0,0,0,0,0,0,0,0,0,0,0,0,0,0,0,0,0,0,0,2147483692,2147483692,0,0,44,44,0,0,0,0,0,0,0,0,0,0,0,0,0,0,0,0,0,
0,0,0,0,0,0,0,0,0,0,0,0,0,0,0,0,0,0,0,0,0,0,44,57,0,0,0,0,0,0,0,0,0,0,0,0,2147483705,2147483692,0,0,0,0,0,0,0,0,0,0,0,0,0,0,0,0,0,0,0,0,0,0,0,0,0,0,0,0,0,0,0,0,0,0,0,0,0,0,0,0,0,0,
0,0,0,0,0,0,0,0,0,0,0,0,0,0,0,0,0,0,0,0,0,0,45,71,0,0,0,0,0,0,0,0,0,0,0,0,2147483719,2147483693,0,0,0,0,0,0,0,0,0,0,0,0,0,0,0,0,0,0,0,0,0,0,0,0,0,0,0,0,0,0,0,0,0,0,0,0,0,0,0,0,0,0,
0,0,0,0,0,44,44,0,0,0,0,0,0,0,0,0,0,0,0,0,0,44,1610612806,0,0,0,0,0,0,0,0,0,0,0,0,0,0,3758096454,2147483692,0,0,0,0,0,0,0,0,0,0,0,0,0,0,2147483692,2147483692,0,0,0,0,0,0,0,0,0,0,44,44,0,0,0,0,0,0,0,0,0,0,0,0,0,
0,0,0,0,0,0,0,0,0,0,0,0,0,0,0,0,0,0,0,0,0,44,72,0,0,0,0,0,0,0,0,0,0,0,0,0,0,2147483720,2147483692,0,0,0,0,0,0,0,0,0,0,0,0,0,0,0,0,0,0,0,0,0,0,0,0,0,0,0,0,0,0,0,0,0,0,0,0,0,0,0,0,0,
0,0,0,0,0,0,0,0,0,0,0,0,0,0,0,0,0,0,0,0,0,0,0,0,0,0,0,0,0,0,0,0,0,0,0,0,0,0,0,0,0,0,0,0,0,0,0,0,0,0,0,0,0,0,0,0,0,0,0,0,0,2147483692,2147483692,2147483692,0,0,0,0,0,0,0,0,0,0,0,0,0,0,0,0,
0,0,0,0,0,0,0,0,0,0,0,0,0,0,0,0,0,0,0,0,0,0,0,0,0,0,0,0,0,0,0,0,0,0,0,0,0,0,0,0,0,0,0,0,0,0,0,0,0,0,0,0,0,0,0,0,0,0,0,0,0,0,0,0,0,0,0,0,0,0,0,0,0,0,0,0,0,0,0,0,
0,0,0,1073741868,1073741868,0,0,0,0,0,0,0,0,0,0,0,0,0,0,0,0,0,0,0,0,0,0,0,0,0,0,0,0,0,0,0,0,0,0,0,0,0,0,0,0,0,0,0,0,0,0,0,0,0,0,0,0,0,0,0,0,2147483692,2147483692,0,0,0,0,0,0,0,0,0,0,0,0,0,0,0,0,0,
0,0,0,0,0,0,0,0,0,0,0,0,0,0,0,0,0,0,0,0,0,0,0,0,0,0,0,0,0,0,0,0,0,0,0,0,0,0,0,0,0,0,0,0,0,0,0,0,0,0,0,0,0,0,0,0,0,2147483692,2147483692,2147483692,0,2147483692,2147483692,0,0,0,0,0,0,0,0,0,0,0,0,0,0,0,0,0,
0,1073741868,1073741868,0,0,0,0,0,0,0,0,0,0,0,0,0,0,0,0,0,0,0,0,0,0,0,0,0,0,0,0,0,0,0,0,0,0,0,0,0,0,0,0,0,0,0,0,0,0,0,0,0,0,0,0,0,0,0,0,0,0,0,0,0,0,0,0,0,0,0,0,0,0,0,0,0,0,0,0,0,
0,0,0,1073741868,1073741868,0,0,0,0,0,0,0,0,0,0,0,0,0,0,0,0,0,0,0,0,0,0,0,0,0,0,0,0,0,0,0,0,0,0,0,0,0,0,0,0,0,0,0,0,0,0,0,0,0,0,0,0,2147483692,2147483692,0,0,0,0,0,0,0,0,0,0,0,0,0,0,0,0,0,0,0,0,0,
0,0,0,1073741868,1073741868,0,0,0,0,0,0,0,0,0,0,0,0,0,0,0,0,0,0,0,0,0,0,0,0,0,0,0,0,0,0,0,0,0,0,0,0,0,0,0,0,0,0,0,0,0,0,0,0,0,0,0,0,2147483692,2147483692,0,0,0,0,0,0,0,0,0,0,0,0,0,0,0,0,0,0,0,0,0,
0,0,0,1073741868,1073741868,0,0,0,44,0,0,0,0,0,0,0,0,0,0,0,0,0,0,0,0,0,0,0,0,0,0,0,0,0,0,0,0,0,44,0,0,0,0,0,0,0,0,0,0,0,0,0,0,0,0,0,0,0,0,0,0,0,0,0,0,0,0,0,0,0,0,0,0,0,0,0,0,0,0,0,
0,0,0,1073741868,1073741868,1073741868,0,0,44,0,0,0,0,0,0,0,0,0,0,0,0,0,0,0,0,0,0,0,0,0,0,0,0,0,0,0,0,0,44,0,0,0,0,0,0,0,0,0,0,0,0,0,0,0,0,0,0,0,0,0,0,0,0,0,0,0,0,0,0,0,0,0,0,0,0,0,0,0,0,0,
0,0,0,0,0,1073741868,1073741868,0,0,0,0,0,0,0,0,0,0,0,0,0,0,0,0,0,0,0,0,0,0,0,0,0,0,0,0,0,0,0,0,0,0,0,0,0,0,0,0,0,0,0,0,0,0,0,0,0,0,0,0,0,0,0,0,0,0,0,0,0,0,0,0,0,0,0,0,0,0,0,0,0,
0,0,0,0,0,0,0,1073741868,1073741868,0,0,0,0,0,0,0,0,0,0,0,0,0,0,0,0,0,0,44,44,0,0,0,0,0,0,0,0,0,0,0,0,0,0,0,0,0,0,0,0,0,0,0,0,0,0,0,0,44,44,0,0,2147483692,2147483692,0,0,0,0,0,0,0,0,0,0,0,0,0,0,0,0,0,
0,0,0,0,0,44,0,0,0,0,0,0,0,44,0,0,0,0,0,0,0,0,0,0,0,0,45,70,46,47,0,0,0,0,0,44,0,0,0,0,0,0,0,44,0,0,0,0,0,0,0,0,0,0,0,0,45,70,46,47,2147483695,2147483694,2147483718,2147483693,0,0,0,0,0,0,0,0,0,0,0,0,2147483692,0,0,0,
0,0,0,0,0,0,0,0,0,0,0,0,0,0,0,0,0,0,0,0,0,0,0,0,0,0,57,58,58,60,0,0,0,0,0,0,0,0,0,0,0,0,0,0,0,0,0,0,0,0,0,0,0,0,0,0,57,58,58,60,2147483708,2147483706,2147483706,2147483705,0,0,0,0,0,0,0,0,0,0,0,0,0,0,0,0,
0,0,0,0,0,0,0,0,0,0,44,0,0,0,0,0,0,0,0,0,0,0,0,0,44,45,71,0,0,72,0,0,0,0,0,0,0,0,0,0,44,0,0,0,0,0,0,0,0,0,0,0,0,0,44,45,71,0,0,72,2147483720,0,0,2147483719,2147483693,2147483692,0,0,0,0,0,0,0,0,0,0,0,0,0,2147483692,
0,0,44,44,0,0,0,0,0,0,0,0,0,0,0,0,0,0,0,0,0,0,0,0,45,71,0,0,0,0,0,0,44,44,0,0,0,0,0,0,0,0,0,0,0,0,0,0,0,0,0,0,0,0,45,71,0,0,0,0,0,0,0,0,2147483719,2147483693,0,0,0,0,0,0,0,0,0,0,0,0,0,0,
0,44,44,0,0,0,0,0,0,0,0,0,0,0,0,0,0,0,0,0,0,0,0,45,71,0,0,0,0,0,0,44,44,0,0,0,0,0,0,0,0,0,0,0,0,0,0,0,0,0,0,0,0,45,71,0,0,0,0,0,0,0,0,0,0,2147483719,2147483693,0,0,0,0,0,0,0,0,0,0,0,0,0,
0,0,0,0,0,0,0,0,0,0,0,0,0,0,0,0,0,0,0,0,0,0,44,57,0,0,0,0,0,0,0,0,0,0,0,0,0,0,0,0,0,0,0,0,0,0,0,0,0,0,0,0,44,57,0,0,0,0,0,0,0,0,0,0,0,0,2147483705,2147483692,0,0,0,0,0,0,0,0,0,0,0,0,
0,0,0,0,0,0,0,0,0,0,0,0,0,0,0,0,0,0,0,0,0,0,45,71,0,0,0,0,0,0,0,0,0,0,0,0,0,0,0,0,0,0,0,0,0,0,0,0,0,0,0,0,45,71,0,0,0,0,0,0,0,0,0,0,0,0,2147483719,2147483693,0,0,0,0,0,0,0,0,0,0,0,0,
0,0,0,0,0,44,44,0,0,0,0,0,0,0,0,0,0,0,0,0,0,44,1610612806,0,0,0,0,0,0,0,0,0,0,0,0,44,44,0,0,0,0,0,0,0,0,0,0,0,0,0,0,44,1610612806,0,0,0,0,0,0,0,0,0,0,0,0,0,0,3758096454,2147483692,0,0,0,0,0,0,0,0,0,0,0,
0,0,0,0,0,0,0,0,0,0,0,0,0,0,0,0,0,0,0,0,0,44,72,0,0,0,0,0,0,0,0,0,0,0,0,0,0,0,0,0,0,0,0,0,0,0,0,0,0,0,0,44,72,0,0,0,0,0,0,0,0,0,0,0,0,0,0,2147483720,2147483692,0,0,0,0,0,0,0,0,0,0,0,
0,0,0,0,0,2147483692,0,0,0,0,0,0,0,0,0,0,0,0,0,0,0,0,0,0,0,0,0,0,0,0,0,0,0,0,0,0,0,0,0,0,0,0,0,0,0,0,0,0,0,0,0,0,0,0,0,0,0,0,0,0,0,0,0,0,0,0,0,0,0,0,0,0,0,0,0,0,0,0,0,0,
0,0,0,0,0,0,0,0,0,0,0,0,0,0,0,0,0,0,0,0,0,0,0,0,0,0,0,0,0,0,0,0,0,0,0,0,0,0,0,0,0,0,0,0,0,0,0,0,0,0,0,0,0,0,0,0,0,0,0,0,0,0,0,0,0,0,0,0,0,0,0,0,0,0,0,0,0,0,0,0,
0,0,0,0,0,0,0,0,0,0,0,0,0,0,0,0,0,0,0,0,0,0,0,0,0,0,0,0,0,0,0,0,0,0,0,0,0,0,0,0,0,0,0,0,0,0,0,0,0,0,0,0,0,0,0,0,0,0,0,0,0,0,0,0,0,0,0,0,0,0,0,0,0,0,0,0,0,0,0,0,
2147483692,0,0,0,0,0,0,0,2147483692,0,0,0,0,0,0,0,0,0,0,0,0,0,0,0,0,0,0,0,0,0,0,0,0,0,0,0,0,0,0,0,0,0,0,0,0,0,0,0,0,0,0,0,0,0,0,0,0,0,0,0,0,0,0,0,0,0,0,0,0,0,0,0,0,0,0,0,0,0,0,0,
0,0,0,0,0,0,0,0,0,0,0,2147483692,0,0,0,0,0,0,0,0,0,0,0,0,0,0,0,0,0,0,0,0,0,0,0,0,0,0,0,0,0,0,0,0,0,0,0,0,0,0,0,0,0,0,0,0,0,0,0,0,0,0,0,0,0,0,0,0,0,0,0,0,0,0,0,0,0,0,0,0,
44,44,0,2147483692,2147483692,0,0,0,0,0,0,0,0,0,0,0,0,0,0,0,0,0,0,0,0,0,0,0,0,0,0,0,0,0,0,0,0,0,0,0,0,0,0,0,0,0,0,0,0,0,0,0,0,0,0,0,0,0,0,0,0,0,0,0,0,0,0,0,0,0,0,0,0,0,44,0,0,0,0,0,
70,46,47,2147483694,2147483718,2147483693,0,0,0,0,2147483692,2147483692,0,0,0,0,0,0,0,0,0,0,0,0,0,0,0,0,0,0,0,0,0,0,0,0,0,0,0,0,0,0,0,0,0,0,0,0,0,0,0,0,0,0,0,0,0,0,0,0,0,0,0,0,0,0,0,0,0,0,0,44,0,0,0,0,0,0,0,0,
58,58,60,2147483706,2147483706,2147483705,0,0,0,0,0,2147483692,2147483692,0,2147483692,0,0,0,0,0,0,0,0,0,0,0,0,0,0,0,0,0,0,0,0,0,0,0,0,0,0,0,0,0,0,0,0,0,0,0,0,0,2147483692,0,0,0,0,0,0,0,0,0,0,0,0,0,0,0,0,0,0,0,0,0,0,0,0,0,44,44,
0,0,72,0,0,2147483719,2147483693,2147483692,0,0,0,0,0,0,0,0,0,0,0,0,0,0,0,0,0,0,0,0,0,0,0,0,0,0,0,0,0,0,0,0,0,0,0,0,0,0,0,0,0,0,0,0,2147483692,0,0,0,0,0,0,0,0,0,0,0,0,0,0,0,0,0,0,44,44,0,0,0,0,45,70,46,
0,0,0,0,0,0,2147483719,2147483693,0,2147483692,0,0,0,0,0,0,0,0,0,0,0,0,0,0,0,0,0,0,0,0,0,0,0,0,0,0,0,0,0,0,0,0,0,0,0,0,0,0,0,0,0,0,0,0,0,0,0,0,0,0,0,0,0,0,0,0,0,0,44,0,44,44,0,0,0,0,0,57,58,58,
0,0,0,0,0,0,0,2147483719,2147483693,0,0,0,0,0,0,0,0,0,0,0,0,0,0,0,0,0,0,0,0,44,44,0,2147483692,2147483692,0,0,0,0,0,0,0,0,0,0,0,0,0,0,0,0,0,0,0,0,0,0,0,0,0,0,0,0,0,0,0,0,0,0,0,0,0,0,0,0,0,44,45,71,0,0,
0,0,0,0,0,0,0,0,2147483705,2147483692,0,0,0,0,0,0,2147483692,2147483692,0,0,0,0,0,0,0,0,0,0,45,70,46,47,2147483694,2147483718,2147483693,0,0,0,0,0,0,0,0,0,0,0,0,2147483692,0,0,0,0,0,0,0,2147483692,0,0,0,0,0,0,0,0,0,0,0,0,0,0,0,0,0,44,0,45,71,0,0,0,
0,0,0,0,0,0,0,0,2147483719,2147483693,0,0,2147483692,0,0,0,0,0,0,0,0,0,0,0,0,0,0,0,57,58,58,60,2147483706,2147483706,2147483705,0,0,0,0,0,0,0,0,0,0,0,0,0,0,0,0,0,0,0,0,0,0,0,0,0,0,0,0,0,0,0,0,0,0,0,0,0,0,0,45,71,0,0,0,0,
0,0,0,0,0,0,0,0,0,3758096454,0,0,0,0,0,0,0,0,0,0,0,0,0,0,0,0,44,45,71,0,0,72,0,0,2147483719,2147483693,2147483692,0,0,0,0,0,0,0,0,0,0,0,0,0,2147483692,0,0,0,0,0,0,0,0,0,0,0,0,0,0,0,44,0,0,0,0,0,0,44,57,0,0,0,0,0,
0,0,0,0,0,0,0,0,0,2147483720,0,0,0,0,0,2147483692,0,0,0,0,0,0,0,0,0,0,45,71,0,0,0,0,0,0,0,2147483719,2147483693,0,0,0,0,0,0,0,0,0,0,0,0,0,0,0,0,0,0,0,0,2147483692,2147483692,0,0,0,0,0,0,0,0,0,0,0,44,0,0,45,71,0,0,0,0,0,
0,0,0,0,0,0,0,0,2147483719,2147483693,0,0,0,0,0,0,0,0,2147483692,0,0,0,0,0,0,45,71,0,0,0,0,0,0,0,0,0,2147483719,2147483693,0,0,0,0,0,0,0,0,0,0,0,0,0,0,0,0,0,0,0,0,2147483692,2147483692,0,0,0,0,0,0,0,0,0,0,0,0,0,1610612806,0,0,0,0,0,0,
0,0,0,0,0,0,0,0,2147483719,2147483693,0,0,0,0,2147483692,2147483692,0,0,0,0,0,0,0,0,44,57,0,0,0,0,0,0,0,0,0,0,0,2147483705,2147483692,0,0,0,0,0,0,0,0,0,0,0,0,0,0,0,0,0,0,0,0,0,0,0,0,0,0,0,0,44,0,0,0,0,0,72,0,0,0,0,0,0,
0,0,0,0,0,0,0,0,2147483719,2147483693,0,0,0,0,0,0,0,0,0,0,0,0,0,0,45,71,0,0,0,0,0,0,0,0,0,0,0,2147483719,2147483693,0,0,0,0,0,0,0,0,0,0,0,0,0,0,0,0,0,0,0,0,0,0,0,0,0,0,0,0,0,0,0,0,0,0,45,71,0,0,0,0,0,
0,0,0,0,0,0,0,0,0,3758096454,0,0,0,0,0,0,0,0,0,0,0,0,0,44,1610612806,0,0,0,0,0,0,0,0,0,0,0,0,0,3758096454,2147483692,0,0,0,0,0,0,0,0,0,0,0,0,0,0,2147483692,2147483692,0,0,0,0,0,0,0,0,0,0,0,44,44,0,0,0,0,45,71,0,0,0,0,0,
0,0,0,0,0,0,0,0,0,2147483720,0,0,0,2147483692,0,0,0,0,0,0,0,0,0,44,72,0,0,0,0,0,0,0,0,0,0,0,0,0,2147483720,2147483692,0,0,0,0,0,0,0,0,0,0,0,0,0,0,0,0,0,0,0,0,0,0,0,0,0,0,0,0,0,0,0,0,0,45,71,0,0,0,0,0
</data>
 </layer>
 <layer id="4" name="grass" width="80" height="60">
  <data encoding="csv">
20,20,20,20,20,0,0,0,0,0,0,0,0,0,0,0,0,0,0,0,0,0,0,0,6,0,19,20,20,20,2147483668,2147483668,2147483668,2147483667,0,2147483654,0,0,0,0,0,0,0,0,0,0,0,0,0,0,0,0,0,0,0,2147483668,2147483668,2147483668,2147483668,2147483668,20,20,20,20,20,0,0,2147483668,2147483668,2147483668,2147483668,2147483668,2147483668,2147483668,0,2147483668,2147483668,2147483668,2147483668,2147483668,
0,20,20,20,0,0,30,0,0,0,0,0,0,0,0,0,0,0,0,0,0,0,0,0,0,30,19,20,20,20,2147483668,2147483668,2147483668,2147483667,2147483678,0,0,0,0,0,0,0,0,0,0,0,0,0,0,0,0,0,0,2147483678,0,0,2147483668,2147483668,2147483668,0,0,20,20,20,0,0,30,0,0,0,30,0,0,2147483678,0,0,2147483668,2147483668,2147483668,0,
20,20,20,0,30,0,30,0,0,0,0,0,0,0,0,0,0,0,0,0,0,0,0,0,0,0,19,20,20,20,2147483668,2147483668,2147483668,2147483667,0,0,0,0,0,0,0,0,0,0,0,0,0,0,0,0,0,0,0,2147483678,0,2147483678,0,2147483668,2147483668,2147483668,20,20,20,0,30,0,30,0,0,0,0,0,0,2147483678,0,2147483678,0,2147483668,2147483668,2147483668,
18,20,20,6,18,0,0,0,0,0,0,0,0,0,0,0,0,0,0,0,0,0,0,0,0,0,0,31,31,6,2147483654,2147483679,2147483679,0,0,0,0,0,0,0,0,0,0,0,0,0,0,0,0,0,0,0,0,0,0,2147483666,2147483654,2147483668,2147483668,2147483666,18,20,20,6,18,0,0,0,18,0,0,0,0,0,0,2147483666,2147483654,2147483668,2147483668,2147483666,
20,20,20,0,30,0,0,0,0,0,0,0,0,0,0,0,0,0,0,0,0,0,0,0,0,0,0,0,31,31,2147483679,2147483679,0,0,0,0,0,0,0,0,0,0,0,0,0,0,0,0,0,0,0,0,0,0,0,2147483678,0,2147483668,2147483668,2147483668,20,20,20,0,30,0,0,0,0,0,0,0,0,0,0,2147483678,0,2147483668,2147483668,2147483668,
20,20,20,18,30,0,0,0,0,0,0,0,0,0,0,0,0,0,0,0,0,0,0,0,0,0,0,6,0,0,0,0,2147483654,0,0,0,0,0,0,0,0,0,0,0,0,0,0,0,0,0,0,0,0,0,0,2147483678,2147483666,2147483668,2147483668,2147483668,20,20,20,18,30,0,0,0,0,0,0,0,0,0,0,2147483678,2147483666,2147483668,2147483668,2147483668,
20,20,20,18,20,0,0,0,0,0,0,0,0,0,0,0,0,0,0,0,0,0,0,0,0,0,0,0,0,0,0,0,0,0,0,0,0,0,0,0,0,0,0,0,0,0,0,0,0,0,0,0,0,0,0,2147483668,2147483666,2147483668,2147483668,2147483668,20,20,20,18,20,0,0,0,0,0,0,0,0,0,0,2147483668,2147483666,2147483668,2147483668,2147483668,
20,20,18,0,18,0,0,0,0,0,0,0,0,0,0,0,0,0,0,0,0,0,0,0,0,0,0,0,0,0,0,0,0,0,0,0,0,0,0,0,0,0,0,0,0,0,0,0,0,0,0,0,0,0,0,2147483666,0,2147483666,2147483668,2147483668,20,20,18,0,18,0,0,0,0,0,0,0,0,0,0,2147483666,0,2147483666,2147483668,2147483668,
0,0,0,30,0,0,0,0,0,0,0,0,0,0,0,0,0,0,0,0,0,0,0,0,0,0,0,0,0,0,0,0,0,0,0,0,0,0,0,0,0,0,0,0,0,0,0,0,0,0,0,0,0,0,0,0,2147483678,0,0,0,0,0,0,30,0,0,0,0,0,0,0,0,0,0,0,0,2147483678,0,0,0,
0,0,0,0,0,0,0,0,0,0,0,0,0,0,0,0,0,0,0,0,0,0,0,0,0,0,0,0,0,0,0,0,0,0,0,0,0,0,0,0,0,0,0,0,0,0,0,0,0,0,0,0,0,0,0,0,0,0,0,0,0,0,0,0,0,0,0,0,0,0,0,0,0,0,0,0,0,0,0,0,
0,18,0,0,0,0,0,0,0,0,0,0,0,0,0,0,0,0,0,0,0,0,0,0,0,0,0,0,0,0,0,0,0,0,0,0,0,0,0,0,0,0,0,0,0,0,0,0,0,0,0,0,0,0,0,0,0,0,2147483666,0,0,0,0,0,0,0,0,0,0,0,0,0,0,0,0,0,0,0,0,0,
0,0,0,0,0,0,0,0,0,0,0,0,0,0,0,0,0,0,0,0,0,0,0,0,0,0,0,0,0,0,0,0,0,0,0,0,0,0,0,0,0,0,0,0,0,0,0,0,0,0,0,0,0,0,0,0,0,0,0,0,0,0,0,0,0,0,0,0,0,0,0,0,0,0,0,0,0,0,0,0,
0,0,0,0,0,0,0,0,0,0,0,0,0,0,0,0,0,0,0,0,0,0,0,0,0,0,0,0,0,0,0,0,0,0,0,0,0,0,0,0,0,0,0,0,0,0,0,0,0,0,0,0,0,0,0,0,0,0,0,0,0,0,0,0,0,0,0,0,0,0,0,0,0,0,0,0,0,0,0,0,
0,0,0,0,0,0,0,0,0,0,0,0,0,0,0,0,0,0,0,0,0,0,0,0,0,0,0,0,0,7,2147483655,0,0,0,0,0,0,0,0,0,0,0,0,0,0,0,0,0,0,0,0,0,0,0,0,0,0,0,0,0,0,0,0,0,0,0,0,0,0,0,0,0,0,0,0,0,0,0,0,0,
0,0,0,0,0,0,0,0,0,0,0,0,0,0,0,0,0,0,0,0,0,0,0,0,0,0,0,0,7,7,2147483655,2147483655,0,0,0,0,0,0,0,0,0,0,0,0,0,0,0,0,0,0,0,0,0,0,0,0,0,0,0,0,0,0,0,0,0,0,0,0,0,0,0,0,0,0,0,0,0,0,0,0,
0,0,0,0,0,0,0,0,0,0,0,0,0,0,0,0,0,0,0,0,0,0,0,0,0,0,0,7,7,20,2147483668,2147483655,2147483655,0,0,0,0,0,0,0,0,0,0,0,0,0,0,0,0,0,0,0,0,0,0,0,0,0,0,0,0,0,0,0,0,0,0,0,0,0,0,0,0,0,0,0,0,0,0,0,
0,0,0,0,0,0,0,0,0,0,0,0,0,0,0,0,0,0,0,0,0,0,0,0,0,7,7,7,20,20,2147483668,2147483668,2147483655,2147483655,2147483655,0,0,0,0,0,0,0,0,0,0,0,0,0,0,0,0,0,0,0,0,0,0,0,0,0,0,0,0,0,0,0,0,0,0,0,0,0,0,0,0,0,0,0,0,0,
0,0,0,0,0,0,0,0,0,0,0,0,0,0,0,0,0,0,0,0,0,0,0,0,7,7,20,20,20,20,2147483668,2147483668,2147483668,2147483668,2147483655,2147483655,0,0,0,0,0,0,0,0,0,0,0,0,0,0,0,0,0,0,0,0,0,0,0,0,0,0,0,0,0,0,0,0,0,0,0,0,0,0,0,0,0,0,0,0,
0,0,0,0,0,0,0,0,0,0,0,0,0,0,0,0,0,0,0,0,0,0,0,0,7,20,20,20,20,20,2147483668,2147483668,2147483668,2147483668,2147483668,2147483655,0,0,0,0,0,0,0,0,0,0,0,0,0,0,0,0,0,0,0,0,0,0,0,0,0,0,0,0,0,0,0,0,0,0,0,0,0,0,0,0,0,0,0,0,
0,0,0,0,0,0,0,0,0,0,0,0,0,0,0,0,0,0,0,0,0,0,0,30,7,0,20,0,20,20,2147483668,2147483668,0,2147483668,0,2147483655,2147483678,0,0,0,0,0,0,0,0,0,0,0,0,0,0,0,0,0,0,0,0,0,0,0,0,0,0,0,0,0,0,0,0,0,0,0,0,0,0,0,0,0,0,0,
20,20,20,20,20,0,0,0,0,0,0,0,0,0,0,0,0,0,0,0,0,0,0,0,6,0,19,20,20,20,20,20,20,20,20,0,0,0,0,0,0,0,0,0,0,0,0,0,0,0,0,0,0,0,0,0,0,0,0,0,0,0,0,0,0,0,0,0,0,0,0,0,0,0,0,0,0,0,0,0,
0,20,20,20,0,0,30,0,0,0,0,0,0,0,0,0,0,0,0,0,0,0,0,0,0,30,19,20,20,20,0,20,20,20,0,0,30,0,0,0,0,0,0,0,0,0,0,0,0,0,0,0,0,0,0,0,0,0,0,0,0,0,0,0,0,0,0,0,0,0,0,0,0,0,0,0,0,0,0,0,
20,20,20,0,30,0,30,0,0,0,0,0,0,0,0,0,0,0,0,0,0,0,0,0,0,0,19,20,20,20,20,20,20,0,30,0,30,0,0,0,0,0,0,0,0,0,0,0,0,0,0,0,0,0,0,0,0,0,0,0,0,0,0,0,0,0,0,0,0,0,0,0,0,0,0,0,0,0,0,0,
18,20,20,6,18,0,0,0,0,0,0,0,0,0,0,0,0,0,0,0,0,0,0,0,0,0,0,31,31,6,18,20,20,6,18,0,0,0,0,0,0,0,0,0,0,0,0,0,0,0,0,0,0,0,0,0,0,0,0,0,0,0,0,0,0,0,0,0,0,0,0,0,0,0,0,0,0,0,0,0,
20,20,20,0,30,0,0,0,0,0,0,0,0,0,0,0,0,0,0,0,0,0,0,0,0,0,0,0,31,31,20,20,0,0,0,0,0,0,0,0,0,0,0,0,0,0,0,0,0,0,0,0,0,0,0,0,0,0,0,0,0,0,0,0,0,0,0,0,0,0,0,0,0,0,0,0,0,0,0,0,
20,20,20,18,30,0,0,0,0,0,0,0,0,0,0,0,0,0,0,0,0,0,0,0,0,0,0,0,0,0,0,0,0,0,0,0,0,0,0,0,0,0,0,0,0,0,0,0,0,0,0,0,0,0,0,0,0,0,0,0,0,0,0,0,0,0,0,0,0,0,0,0,0,0,0,0,0,0,0,0,
20,20,20,18,20,0,0,0,0,0,0,0,0,0,0,0,0,0,0,0,0,0,0,0,0,0,0,0,0,0,0,0,0,0,0,0,0,0,0,0,0,0,0,0,0,0,0,0,0,0,0,0,0,0,0,0,0,0,0,0,0,0,0,0,0,0,0,0,0,0,0,0,0,0,0,0,0,0,0,0,
20,20,18,0,18,0,0,0,0,0,0,0,0,0,0,0,0,0,0,0,0,0,0,0,0,0,0,0,0,0,0,0,0,0,0,0,0,0,0,0,0,0,0,0,0,0,0,0,0,0,0,0,0,0,0,0,0,0,0,0,0,0,0,0,0,0,0,0,0,0,0,0,0,0,0,0,0,0,0,0,
0,0,0,30,0,0,0,0,0,0,0,0,0,0,0,0,0,0,0,0,0,0,0,0,0,0,0,0,0,0,0,0,0,0,0,0,0,0,0,0,0,0,0,0,0,0,0,0,0,0,0,0,0,0,0,0,0,0,0,0,0,0,0,0,0,0,0,0,0,0,0,0,0,0,0,0,0,0,0,0,
0,0,0,0,0,0,0,0,0,0,0,0,0,0,0,0,0,0,0,0,0,0,0,0,0,0,0,0,0,0,0,0,0,0,0,0,0,0,0,0,0,0,0,0,0,0,0,0,0,0,0,0,0,0,0,0,0,0,0,0,0,0,0,0,0,0,0,0,0,0,0,0,0,0,0,0,0,0,0,0,
0,18,0,0,0,0,0,0,0,0,0,0,0,0,0,0,0,0,0,0,0,0,0,0,0,0,0,0,0,0,0,18,0,0,0,0,0,0,0,0,0,0,0,0,0,0,0,0,0,0,0,0,0,0,0,0,0,0,0,0,0,0,0,0,0,0,0,0,0,0,0,0,0,0,0,0,0,0,0,0,
0,0,0,0,0,0,0,0,0,0,0,0,0,0,0,0,0,0,0,0,0,0,0,0,0,0,0,0,0,0,0,0,0,0,0,0,0,0,0,0,0,0,0,0,0,0,0,0,0,0,0,0,0,0,0,0,0,0,0,0,0,0,0,0,0,0,0,0,0,0,0,0,0,0,0,0,0,0,0,0,
0,0,0,0,0,0,0,0,0,0,0,0,0,0,0,0,0,0,0,0,0,0,0,0,0,0,0,0,0,0,0,0,0,0,0,0,0,0,0,0,0,0,0,0,0,0,0,0,0,0,0,0,0,0,0,0,0,0,0,0,0,0,0,0,0,0,0,0,0,0,0,0,0,0,0,0,0,0,0,0,
0,0,0,0,0,0,0,0,0,0,0,0,0,0,0,0,0,0,0,0,0,0,0,0,0,0,0,0,0,7,0,0,0,0,0,0,0,0,0,0,0,0,0,0,0,0,0,0,0,0,0,0,0,0,0,0,0,0,0,7,2147483655,0,0,0,0,0,0,0,0,0,0,0,0,0,0,0,0,0,0,0,
0,0,0,0,0,0,0,0,0,0,0,0,0,0,0,0,0,0,0,0,0,0,0,0,0,0,0,0,7,7,0,0,0,0,0,0,0,0,0,0,0,0,0,0,0,0,0,0,0,0,0,0,0,0,0,0,0,0,7,7,2147483655,2147483655,0,0,0,0,0,0,0,0,0,0,0,0,0,0,0,0,0,0,
0,0,0,0,0,0,0,0,0,0,0,0,0,0,0,0,0,0,0,0,0,0,0,0,0,0,0,7,7,20,0,0,0,0,0,0,0,0,0,0,0,0,0,0,0,0,0,0,0,0,0,0,0,0,0,0,0,7,7,20,2147483668,2147483655,2147483655,0,0,0,0,0,0,0,0,0,0,0,0,0,0,0,0,0,
0,0,0,0,0,0,0,0,0,0,0,0,0,0,0,0,0,0,0,0,0,0,0,0,0,7,7,7,20,20,0,0,0,0,0,0,0,0,0,0,0,0,0,0,0,0,0,0,0,0,0,0,0,0,0,7,7,7,20,20,2147483668,2147483668,2147483655,2147483655,2147483655,0,0,0,0,0,0,0,0,0,0,0,0,0,0,0,
0,0,0,0,0,0,0,0,0,0,0,0,0,0,0,0,0,0,0,0,0,0,0,0,7,7,20,20,20,20,0,0,0,0,0,0,0,0,0,0,0,0,0,0,0,0,0,0,0,0,0,0,0,0,7,7,20,20,20,20,2147483668,2147483668,2147483668,2147483668,2147483655,2147483655,0,0,0,0,0,0,0,0,0,0,0,0,0,0,
0,0,0,0,0,0,0,0,0,0,0,0,0,0,0,0,0,0,0,0,0,0,0,0,7,20,20,20,20,20,0,0,0,0,0,0,0,0,0,0,0,0,0,0,0,0,0,0,0,0,0,0,0,0,7,20,20,20,20,20,2147483668,2147483668,2147483668,2147483668,2147483668,2147483655,0,0,0,0,0,0,0,0,0,0,0,0,0,0,
0,0,0,0,0,0,0,0,0,0,0,0,0,0,0,0,0,0,0,0,0,0,0,30,7,0,20,0,20,0,0,0,0,0,0,0,0,0,0,0,0,0,0,0,0,0,0,0,0,0,0,0,0,30,7,0,20,0,20,20,2147483668,2147483668,0,2147483668,0,2147483655,2147483678,0,0,0,0,0,0,0,0,0,0,0,0,0,
0,0,0,0,0,0,0,0,0,0,2147483678,0,0,0,0,0,0,0,0,0,0,0,0,0,0,0,0,0,0,0,0,0,0,0,0,0,0,0,0,0,0,0,0,0,0,0,0,0,0,0,0,0,0,0,0,0,2147483668,2147483668,2147483668,2147483668,2147483668,20,20,20,20,20,0,0,0,0,0,0,0,0,0,0,0,0,0,0,
0,0,0,0,0,0,0,0,0,30,0,0,0,0,0,0,0,0,0,0,0,0,0,0,0,0,0,0,0,0,0,0,0,0,0,0,0,0,0,0,0,0,0,0,0,0,0,0,0,0,0,0,0,0,2147483678,0,0,2147483668,2147483668,2147483668,0,0,20,20,20,0,0,30,0,0,0,0,0,0,0,0,0,0,0,0,
0,0,0,0,0,0,0,0,0,0,0,0,2147483666,0,0,0,0,0,0,0,0,0,0,0,0,0,0,0,0,0,0,0,0,0,0,0,0,0,0,0,0,0,0,0,0,0,0,0,0,0,0,0,0,0,2147483678,0,2147483678,0,2147483668,2147483668,2147483668,20,20,20,0,30,0,30,0,0,0,0,0,0,0,0,0,0,0,0,
0,0,0,0,0,0,0,18,0,0,0,0,0,0,0,0,0,0,0,0,0,0,0,0,0,0,0,0,0,0,0,0,0,0,0,0,0,0,0,0,0,0,0,0,0,0,0,0,0,0,0,0,0,0,0,0,2147483666,2147483654,2147483668,2147483668,2147483666,18,20,20,6,18,0,0,0,0,0,0,0,2147483678,0,0,0,0,0,0,
0,0,0,0,0,0,0,0,0,0,0,0,0,0,0,0,0,0,0,0,0,0,0,0,0,0,0,0,0,0,0,0,0,0,0,0,0,0,0,0,0,0,0,0,0,0,0,0,0,0,0,0,0,0,0,0,2147483678,0,2147483668,2147483668,2147483668,20,20,20,0,30,0,0,0,0,18,0,0,0,0,0,0,0,0,0,
0,0,0,0,0,0,0,0,0,0,0,0,0,0,0,0,0,0,0,0,0,0,0,0,0,0,0,0,0,0,0,0,0,0,0,0,0,0,0,0,0,0,0,0,0,0,0,0,0,0,0,0,0,0,0,0,2147483678,2147483666,2147483668,2147483668,2147483668,20,20,20,18,30,0,0,0,0,0,0,0,0,0,2147483666,0,0,0,0,
0,0,0,0,0,0,0,0,0,0,0,0,0,0,0,0,0,0,0,0,0,0,0,0,0,0,0,0,0,0,0,0,0,0,0,0,0,0,0,0,0,0,0,0,0,0,0,0,0,0,0,0,0,0,0,0,2147483668,2147483666,2147483668,2147483668,2147483668,20,20,20,18,20,0,0,0,0,0,0,0,0,0,0,0,0,0,0,
0,0,0,0,0,0,0,0,0,0,0,0,0,0,0,0,0,0,0,0,0,0,0,0,0,0,0,0,0,0,0,0,0,0,0,0,0,0,0,0,0,0,0,0,0,0,0,0,0,0,0,0,0,0,0,0,2147483666,0,2147483666,2147483668,2147483668,20,20,18,0,18,0,0,0,0,0,0,0,0,0,0,0,0,0,0,
0,0,7,0,0,0,0,0,0,0,0,0,0,0,0,0,0,0,0,0,0,0,0,0,0,0,0,0,0,0,0,0,0,0,0,0,0,0,0,0,0,0,0,0,0,0,0,0,0,0,0,0,0,0,0,0,0,2147483678,0,0,0,0,0,0,30,0,0,0,0,0,0,0,0,0,0,0,0,0,0,0,
0,7,7,2147483655,0,0,0,0,0,0,0,0,0,0,0,0,0,0,0,0,0,0,0,0,0,0,0,0,0,0,0,0,0,0,0,0,0,0,0,0,0,0,0,0,0,0,0,0,0,0,0,0,0,0,0,0,0,0,0,0,0,0,0,0,0,0,0,0,0,0,0,0,0,0,0,0,0,0,0,0,
7,7,20,2147483655,2147483655,0,0,0,0,0,0,0,0,0,0,0,0,0,0,0,0,0,0,0,0,0,0,0,0,0,0,0,0,0,0,0,0,0,0,0,0,0,0,0,0,0,0,0,0,0,0,0,0,0,0,0,0,0,0,2147483666,0,0,0,0,0,0,0,0,0,0,0,0,0,0,0,0,0,0,0,0,
7,20,20,2147483668,2147483655,2147483655,2147483655,0,0,0,0,0,0,0,0,0,0,0,0,0,0,0,0,0,0,0,0,0,0,0,0,0,0,0,0,0,0,0,0,0,0,0,0,0,0,0,0,0,0,0,0,0,0,0,0,0,0,0,0,0,0,0,0,0,0,0,0,0,0,0,0,0,30,0,0,0,0,0,0,7,
20,20,20,2147483668,2147483668,2147483668,2147483655,2147483655,0,0,0,0,0,0,0,0,0,0,0,0,0,0,0,0,0,0,0,0,0,0,0,0,0,0,0,0,0,0,0,0,0,0,0,0,0,0,0,0,0,0,0,0,0,0,0,0,0,0,0,0,0,0,0,0,0,0,0,0,0,0,0,0,0,0,0,0,0,0,7,7,
20,20,20,2147483668,2147483668,2147483668,2147483668,2147483655,0,0,0,0,0,0,0,0,0,0,0,0,0,0,0,0,0,0,0,0,0,0,0,7,0,0,0,0,0,0,0,0,0,0,0,0,0,0,0,0,0,0,0,0,0,0,0,0,0,0,0,0,0,0,0,0,0,0,0,0,0,0,18,0,0,0,0,0,7,7,7,20,
0,20,20,2147483668,0,2147483668,0,2147483655,2147483678,0,0,0,0,0,0,0,0,0,0,0,0,0,0,0,0,0,0,0,0,0,7,7,2147483655,0,0,0,0,0,0,0,0,0,0,0,0,0,0,0,0,0,0,0,0,0,0,0,0,0,0,0,0,0,0,0,0,0,0,0,0,0,0,0,0,0,0,7,7,20,20,20,
20,20,20,2147483668,2147483668,2147483668,2147483655,2147483655,0,0,0,0,0,0,0,0,0,0,0,0,0,0,0,0,0,0,0,0,0,7,7,20,2147483655,2147483655,0,0,0,0,0,0,0,0,0,0,0,0,0,0,0,0,0,0,0,0,0,0,0,0,0,0,0,0,0,0,0,0,0,0,0,0,0,0,0,0,0,7,20,20,20,20,
20,20,20,2147483668,2147483668,2147483668,2147483655,2147483655,0,0,0,0,0,0,0,0,0,0,0,0,0,0,0,0,0,0,0,7,7,7,20,20,2147483668,2147483655,2147483655,2147483655,0,0,0,0,0,0,0,0,0,0,0,0,0,0,0,0,0,0,0,0,0,0,0,0,0,0,0,0,0,0,0,0,0,0,0,0,0,0,30,7,0,20,0,20,
20,20,20,2147483668,2147483668,2147483668,2147483655,2147483655,2147483678,0,0,0,0,0,0,0,0,0,0,0,0,0,0,0,0,0,7,7,20,20,20,20,2147483668,2147483668,2147483668,2147483655,2147483655,0,0,0,0,0,0,0,0,0,0,0,0,0,0,0,0,0,0,0,0,0,0,0,0,0,0,0,0,0,0,0,0,0,0,0,0,0,0,7,7,20,20,20,
20,20,20,2147483668,2147483668,2147483668,2147483668,2147483655,2147483678,0,0,0,0,0,0,0,0,0,0,0,0,0,0,0,0,0,7,20,20,20,20,20,2147483668,2147483668,2147483668,2147483668,2147483655,0,0,0,0,0,0,0,0,0,0,0,0,0,0,0,0,0,0,0,0,0,0,0,0,0,0,0,0,0,0,0,0,0,0,0,0,0,0,7,7,20,20,20,
0,20,20,2147483668,0,2147483668,0,2147483655,2147483678,0,0,0,0,0,0,0,0,0,0,0,0,0,0,0,0,30,7,0,20,0,20,20,2147483668,0,2147483668,0,2147483655,2147483678,0,0,0,0,0,0,0,0,0,0,0,0,0,0,0,0,0,0,0,0,0,0,0,0,0,0,0,0,0,0,0,0,0,0,0,0,30,7,7,20,20,20
</data>
 </layer>
 <layer id="5" name="grass2" width="80" height="60">
  <data encoding="csv">
0,0,0,0,0,0,0,0,0,0,0,0,0,0,0,0,0,0,0,0,0,0,0,0,0,0,17,6,6,0,0,2147483654,2147483654,2147483665,0,0,0,0,0,0,0,0,0,0,0,0,0,0,0,0,0,0,0,0,0,0,0,0,0,0,0,0,0,0,0,0,0,0,0,0,0,0,0,0,0,0,0,0,0,0,
0,0,0,0,0,0,0,0,0,0,0,0,0,0,0,0,0,0,0,0,0,0,0,0,0,0,5,6,5,0,0,2147483653,2147483654,2147483653,0,0,0,0,0,0,0,0,0,0,0,0,0,0,0,0,0,0,0,0,0,0,0,0,0,0,0,0,0,0,0,0,0,0,0,0,0,0,0,0,0,0,0,0,0,0,
0,0,0,0,0,0,0,0,0,0,0,0,0,0,0,0,0,0,0,0,0,0,0,0,0,0,17,5,17,5,2147483653,2147483665,2147483653,2147483665,0,0,0,0,0,0,0,0,0,0,0,0,0,0,0,0,0,0,0,0,0,0,0,0,0,0,0,0,0,0,0,0,0,0,0,0,0,0,0,0,0,0,0,0,0,0,
0,0,0,0,0,0,0,0,0,0,0,0,0,0,0,0,0,0,0,0,0,0,0,0,0,0,0,5,5,17,2147483665,2147483653,2147483653,0,0,0,0,0,0,0,0,0,0,0,0,0,0,0,0,0,0,0,0,0,0,0,0,0,0,0,0,0,0,0,0,0,0,0,0,0,0,0,0,0,0,0,0,0,0,0,
0,0,0,0,0,0,0,0,0,0,0,0,0,0,0,0,0,0,0,0,0,0,0,0,0,0,0,17,17,0,0,2147483665,2147483665,0,0,0,0,0,0,0,0,0,0,0,0,0,0,0,0,0,0,0,0,0,0,0,0,0,0,0,0,0,0,0,0,0,0,0,0,0,0,0,0,0,0,0,0,0,0,0,
0,0,0,0,0,0,0,0,0,0,0,0,0,0,0,0,0,0,0,0,0,0,0,0,0,0,0,0,0,0,0,0,0,0,0,0,0,0,0,0,0,0,0,0,0,0,0,0,0,0,0,0,0,0,0,0,0,0,0,0,0,0,0,0,0,0,0,0,0,0,0,0,0,0,0,0,0,0,0,0,
0,0,0,0,0,0,0,0,0,0,0,0,0,0,0,0,0,0,0,0,0,0,0,0,0,0,0,0,0,0,0,0,0,0,0,0,0,0,0,0,0,0,0,0,0,0,0,0,0,0,0,0,0,0,0,0,0,0,0,0,0,0,0,0,0,0,0,0,0,0,0,0,0,0,0,0,0,0,0,0,
0,0,0,0,0,0,0,0,0,0,0,0,0,0,0,0,0,0,0,0,0,0,0,0,0,0,0,0,0,0,0,0,0,0,0,0,0,0,0,0,0,0,0,0,0,0,0,0,0,0,0,0,0,0,0,0,0,0,0,0,0,0,0,0,0,0,0,0,0,0,0,0,0,0,0,0,0,0,0,0,
0,0,0,0,0,0,0,0,0,0,0,0,0,0,0,0,0,0,0,0,0,0,0,0,0,0,0,0,0,0,0,0,0,0,0,0,0,0,0,0,0,0,0,0,0,0,0,0,0,0,0,0,0,0,0,0,0,0,0,0,0,0,0,0,0,0,0,0,0,0,0,0,0,0,0,0,0,0,0,0,
0,0,0,0,0,0,0,0,0,0,0,0,0,0,0,0,0,0,0,0,0,0,0,0,0,0,0,0,0,0,0,0,0,0,0,0,0,0,0,0,0,0,0,0,0,0,0,0,0,0,0,0,0,0,0,0,0,0,0,0,0,0,0,0,0,0,0,0,0,0,0,0,0,0,0,0,0,0,0,0,
0,0,0,0,0,0,0,0,0,0,0,0,0,0,0,0,0,0,0,0,0,0,0,0,0,0,0,0,0,0,0,0,0,0,0,0,0,0,0,0,0,0,0,0,0,0,0,0,0,0,0,0,0,0,0,0,0,0,0,0,0,0,0,0,0,0,0,0,0,0,0,0,0,0,0,0,0,0,0,0,
0,0,0,0,0,0,0,0,0,0,0,0,0,0,0,0,0,0,0,0,0,0,0,0,0,0,0,0,0,0,0,0,0,0,0,0,0,0,0,0,0,0,0,0,0,0,0,0,0,0,0,0,0,0,0,0,0,0,0,0,0,0,0,0,0,0,0,0,0,0,0,0,0,0,0,0,0,0,0,0,
0,0,0,0,0,0,0,0,0,0,0,0,0,0,0,0,0,0,0,0,0,0,0,0,0,0,0,0,0,0,0,0,0,0,0,0,0,0,0,0,0,0,0,0,0,0,0,0,0,0,0,0,0,0,0,0,0,0,0,0,0,0,0,0,0,0,0,0,0,0,0,0,0,0,0,0,0,0,0,0,
0,0,0,0,0,0,0,0,0,0,0,0,0,0,0,0,0,0,0,0,0,0,0,0,0,0,0,0,0,0,0,0,0,0,0,0,0,0,0,0,0,0,0,0,0,0,0,0,0,0,0,0,0,0,0,0,0,0,0,0,0,0,0,0,0,0,0,0,0,0,0,0,0,0,0,0,0,0,0,0,
0,0,0,0,0,0,0,0,0,0,0,0,0,0,0,0,0,0,0,0,0,0,0,0,0,0,0,0,0,0,0,0,0,0,0,0,0,0,0,0,0,0,0,0,0,0,0,0,0,0,0,0,0,0,0,0,0,0,0,0,0,0,0,0,0,0,0,0,0,0,0,0,0,0,0,0,0,0,0,0,
0,0,0,0,0,0,0,0,0,0,0,0,0,0,0,0,0,0,0,0,0,0,0,0,0,0,0,0,0,0,0,0,0,0,0,0,0,0,0,0,0,0,0,0,0,0,0,0,0,0,0,0,0,0,0,0,0,0,0,0,0,0,0,0,0,0,0,0,0,0,0,0,0,0,0,0,0,0,0,0,
0,0,0,0,0,0,0,0,0,0,0,0,0,0,0,0,0,0,0,0,0,0,0,0,0,0,0,0,0,0,0,0,0,0,0,0,0,0,0,0,0,0,0,0,0,0,0,0,0,0,0,0,0,0,0,0,0,0,0,0,0,0,0,0,0,0,0,0,0,0,0,0,0,0,0,0,0,0,0,0,
0,0,0,0,0,0,0,0,0,0,0,0,0,0,0,0,0,0,0,0,0,0,0,0,0,0,0,0,0,0,0,0,0,0,0,0,0,0,0,0,0,0,0,0,0,0,0,0,0,0,0,0,0,0,0,0,0,0,0,0,0,0,0,0,0,0,0,0,0,0,0,0,0,0,0,0,0,0,0,0,
0,0,0,0,0,0,0,0,0,0,0,0,0,0,0,0,0,0,0,0,0,0,0,0,0,0,0,0,0,0,0,0,0,0,0,0,0,0,0,0,0,0,0,0,0,0,0,0,0,0,0,0,0,0,0,0,0,0,0,0,0,0,0,0,0,0,0,0,0,0,0,0,0,0,0,0,0,0,0,0,
0,0,0,0,0,0,0,0,0,0,0,0,0,0,0,0,0,0,0,0,0,0,0,0,0,0,0,0,0,0,0,0,0,0,0,0,0,0,0,0,0,0,0,0,0,0,0,0,0,0,0,0,0,0,0,0,0,0,0,0,0,0,0,0,0,0,0,0,0,0,0,0,0,0,0,0,0,0,0,0,
0,0,0,0,0,0,0,0,0,0,0,0,0,0,0,0,0,0,0,0,0,0,0,0,0,0,17,6,6,0,0,0,0,0,0,0,0,0,0,0,0,0,0,0,0,0,0,0,0,0,0,0,0,0,0,0,0,0,0,0,0,0,0,0,0,0,0,0,0,0,0,0,0,0,0,0,0,0,0,0,
0,0,0,0,0,0,0,0,0,0,0,0,0,0,0,0,0,0,0,0,0,0,0,0,0,0,5,6,5,0,0,0,0,0,0,0,0,0,0,0,0,0,0,0,0,0,0,0,0,0,0,0,0,0,0,0,0,0,0,0,0,0,0,0,0,0,0,0,0,0,0,0,0,0,0,0,0,0,0,0,
0,0,0,0,0,0,0,0,0,0,0,0,0,0,0,0,0,0,0,0,0,0,0,0,0,0,17,5,17,5,0,0,0,0,0,0,0,0,0,0,0,0,0,0,0,0,0,0,0,0,0,0,0,0,0,0,0,0,0,0,0,0,0,0,0,0,0,0,0,0,0,0,0,0,0,0,0,0,0,0,
0,0,0,0,0,0,0,0,0,0,0,0,0,0,0,0,0,0,0,0,0,0,0,0,0,0,0,5,5,17,0,0,0,0,0,0,0,0,0,0,0,0,0,0,0,0,0,0,0,0,0,0,0,0,0,0,0,0,0,0,0,0,0,0,0,0,0,0,0,0,0,0,0,0,0,0,0,0,0,0,
0,0,0,0,0,0,0,0,0,0,0,0,0,0,0,0,0,0,0,0,0,0,0,0,0,0,0,17,17,0,0,0,0,0,0,0,0,0,0,0,0,0,0,0,0,0,0,0,0,0,0,0,0,0,0,0,0,0,0,0,0,0,0,0,0,0,0,0,0,0,0,0,0,0,0,0,0,0,0,0,
0,0,0,0,0,0,0,0,0,0,0,0,0,0,0,0,0,0,0,0,0,0,0,0,0,0,0,0,0,0,0,0,0,0,0,0,0,0,0,0,0,0,0,0,0,0,0,0,0,0,0,0,0,0,0,0,0,0,0,0,0,0,0,0,0,0,0,0,0,0,0,0,0,0,0,0,0,0,0,0,
0,0,0,0,0,0,0,0,0,0,0,0,0,0,0,0,0,0,0,0,0,0,0,0,0,0,0,0,0,0,0,0,0,0,0,0,0,0,0,0,0,0,0,0,0,0,0,0,0,0,0,0,0,0,0,0,0,0,0,0,0,0,0,0,0,0,0,0,0,0,0,0,0,0,0,0,0,0,0,0,
0,0,0,0,0,0,0,0,0,0,0,0,0,0,0,0,0,0,0,0,0,0,0,0,0,0,0,0,0,0,0,0,0,0,0,0,0,0,0,0,0,0,0,0,0,0,0,0,0,0,0,0,0,0,0,0,0,0,0,0,0,0,0,0,0,0,0,0,0,0,0,0,0,0,0,0,0,0,0,0,
0,0,0,0,0,0,0,0,0,0,0,0,0,0,0,0,0,0,0,0,0,0,0,0,0,0,0,0,0,0,0,0,0,0,0,0,0,0,0,0,0,0,0,0,0,0,0,0,0,0,0,0,0,0,0,0,0,0,0,0,0,0,0,0,0,0,0,0,0,0,0,0,0,0,0,0,0,0,0,0,
0,0,0,0,0,0,0,0,0,0,0,0,0,0,0,0,0,0,0,0,0,0,0,0,0,0,0,0,0,0,0,0,0,0,0,0,0,0,0,0,0,0,0,0,0,0,0,0,0,0,0,0,0,0,0,0,0,0,0,0,0,0,0,0,0,0,0,0,0,0,0,0,0,0,0,0,0,0,0,0,
0,0,0,0,0,0,0,0,0,0,0,0,0,0,0,0,0,0,0,0,0,0,0,0,0,0,0,0,0,0,0,0,0,0,0,0,0,0,0,0,0,0,0,0,0,0,0,0,0,0,0,0,0,0,0,0,0,0,0,0,0,0,0,0,0,0,0,0,0,0,0,0,0,0,0,0,0,0,0,0,
0,0,0,0,0,0,0,0,0,0,0,0,0,0,0,0,0,0,0,0,0,0,0,0,0,0,0,0,0,0,0,0,0,0,0,0,0,0,0,0,0,0,0,0,0,0,0,0,0,0,0,0,0,0,0,0,0,0,0,0,0,0,0,0,0,0,0,0,0,0,0,0,0,0,0,0,0,0,0,0,
0,0,0,0,0,0,0,0,0,0,0,0,0,0,0,0,0,0,0,0,0,0,0,0,0,0,0,0,0,0,0,0,0,0,0,0,0,0,0,0,0,0,0,0,0,0,0,0,0,0,0,0,0,0,0,0,0,0,0,0,0,0,0,0,0,0,0,0,0,0,0,0,0,0,0,0,0,0,0,0,
0,0,0,0,0,0,0,0,0,0,0,0,0,0,0,0,0,0,0,0,0,0,0,0,0,0,0,0,0,0,0,0,0,0,0,0,0,0,0,0,0,0,0,0,0,0,0,0,0,0,0,0,0,0,0,0,0,0,0,0,0,0,0,0,0,0,0,0,0,0,0,0,0,0,0,0,0,0,0,0,
0,0,0,0,0,0,0,0,0,0,0,0,0,0,0,0,0,0,0,0,0,0,0,0,0,0,0,0,0,0,0,0,0,0,0,0,0,0,0,0,0,0,0,0,0,0,0,0,0,0,0,0,0,0,0,0,0,0,0,0,0,0,0,0,0,0,0,0,0,0,0,0,0,0,0,0,0,0,0,0,
0,0,0,0,0,0,0,0,0,0,0,0,0,0,0,0,0,0,0,0,0,0,0,0,0,0,0,0,0,0,0,0,0,0,0,0,0,0,0,0,0,0,0,0,0,0,0,0,0,0,0,0,0,0,0,0,0,0,0,0,0,0,0,0,0,0,0,0,0,0,0,0,0,0,0,0,0,0,0,0,
0,0,0,0,0,0,0,0,0,0,0,0,0,0,0,0,0,0,0,0,0,0,0,0,0,0,0,0,0,0,0,0,0,0,0,0,0,0,0,0,0,0,0,0,0,0,0,0,0,0,0,0,0,0,0,0,0,0,0,0,0,0,0,0,0,0,0,0,0,0,0,0,0,0,0,0,0,0,0,0,
0,0,0,0,0,0,0,0,0,0,0,0,0,0,0,0,0,0,0,0,0,0,0,0,0,0,0,0,0,0,0,0,0,0,0,0,0,0,0,0,0,0,0,0,0,0,0,0,0,0,0,0,0,0,0,0,0,0,0,0,0,0,0,0,0,0,0,0,0,0,0,0,0,0,0,0,0,0,0,0,
0,0,0,0,0,0,0,0,0,0,0,0,0,0,0,0,0,0,0,0,0,0,0,0,0,0,0,0,0,0,0,0,0,0,0,0,0,0,0,0,0,0,0,0,0,0,0,0,0,0,0,0,0,0,0,0,0,0,0,0,0,0,0,0,0,0,0,0,0,0,0,0,0,0,0,0,0,0,0,0,
0,0,0,0,0,0,0,0,0,0,0,0,0,0,0,0,0,0,0,0,0,0,0,0,0,0,0,0,0,0,0,0,0,0,0,0,0,0,0,0,0,0,0,0,0,0,0,0,0,0,0,0,0,0,0,0,0,0,0,0,0,0,0,0,0,0,0,0,0,0,0,0,0,0,0,0,0,0,0,0,
0,0,0,0,0,0,0,0,0,0,0,0,0,0,0,0,0,0,0,0,0,0,0,0,0,0,0,0,0,0,0,0,0,0,0,0,0,0,0,0,0,0,0,0,0,0,0,0,0,0,0,0,0,0,0,0,0,0,0,0,0,0,0,0,0,0,0,0,0,0,0,0,0,0,0,0,0,0,0,0,
0,0,0,0,0,0,0,0,0,0,0,0,0,0,0,0,0,0,0,0,0,0,0,0,0,0,0,0,0,0,0,0,0,0,0,0,0,0,0,0,0,0,0,0,0,0,0,0,0,0,0,0,0,0,0,0,0,0,0,0,0,0,0,0,0,0,0,0,0,0,0,0,0,0,0,0,0,0,0,0,
0,0,0,0,0,0,0,0,0,0,0,0,0,0,0,0,0,0,0,0,0,0,0,0,0,0,0,0,0,0,0,0,0,0,0,0,0,0,0,0,0,0,0,0,0,0,0,0,0,0,0,0,0,0,0,0,0,0,0,0,0,0,0,0,0,0,0,0,0,0,0,0,0,0,0,0,0,0,0,0,
0,0,0,0,0,0,0,0,0,0,0,0,0,0,0,0,0,0,0,0,0,0,0,0,0,0,0,0,0,0,0,0,0,0,0,0,0,0,0,0,0,0,0,0,0,0,0,0,0,0,0,0,0,0,0,0,0,0,0,0,0,0,0,0,0,0,0,0,0,0,0,0,0,0,0,0,0,0,0,0,
0,0,0,0,0,0,0,0,0,0,0,0,0,0,0,0,0,0,0,0,0,0,0,0,0,0,0,0,0,0,0,0,0,0,0,0,0,0,0,0,0,0,0,0,0,0,0,0,0,0,0,0,0,0,0,0,0,0,0,0,0,0,0,0,0,0,0,0,0,0,0,0,0,0,0,0,0,0,0,0,
0,0,0,0,0,0,0,0,0,0,0,0,0,0,0,0,0,0,0,0,0,0,0,0,0,0,0,0,0,0,0,0,0,0,0,0,0,0,0,0,0,0,0,0,0,0,0,0,0,0,0,0,0,0,0,0,0,0,0,0,0,0,0,0,0,0,0,0,0,0,0,0,0,0,0,0,0,0,0,0,
0,0,0,0,0,0,0,0,0,0,0,0,0,0,0,0,0,0,0,0,0,0,0,0,0,0,0,0,0,0,0,0,0,0,0,0,0,0,0,0,0,0,0,0,0,0,0,0,0,0,0,0,0,0,0,0,0,0,0,0,0,0,0,0,0,0,0,0,0,0,0,0,0,0,0,0,0,0,0,0,
0,0,0,0,0,0,0,0,0,0,0,0,0,0,0,0,0,0,0,0,0,0,0,0,0,0,0,0,0,0,0,0,0,0,0,0,0,0,0,0,0,0,0,0,0,0,0,0,0,0,0,0,0,0,0,0,0,0,0,0,0,0,0,0,0,0,0,0,0,0,0,0,0,0,0,0,0,0,0,0,
0,0,0,0,0,0,0,0,0,0,0,0,0,0,0,0,0,0,0,0,0,0,0,0,0,0,0,0,0,0,0,0,0,0,0,0,0,0,0,0,0,0,0,0,0,0,0,0,0,0,0,0,0,0,0,0,0,0,0,0,0,0,0,0,0,0,0,0,0,0,0,0,0,0,0,0,0,0,0,0,
0,0,0,0,0,0,0,0,0,0,0,0,0,0,0,0,0,0,0,0,0,0,0,0,0,0,0,0,0,0,0,0,0,0,0,0,0,0,0,0,0,0,0,0,0,0,0,0,0,0,0,0,0,0,0,0,0,0,0,0,0,0,0,0,0,0,0,0,0,0,0,0,0,0,0,0,0,0,0,0,
0,0,0,0,0,0,0,0,0,0,0,0,0,0,0,0,0,0,0,0,0,0,0,0,0,0,0,0,0,0,0,0,0,0,0,0,0,0,0,0,0,0,0,0,0,0,0,0,0,0,0,0,0,0,0,0,0,0,0,0,0,0,0,0,0,0,0,0,0,0,0,0,0,0,0,0,0,0,0,0,
0,0,0,0,0,0,0,0,0,0,0,0,0,0,0,0,0,0,0,0,0,0,0,0,0,0,0,0,0,0,0,0,0,0,0,0,0,0,0,0,0,0,0,0,0,0,0,0,0,0,0,0,0,0,0,0,0,0,0,0,0,0,0,0,0,0,0,0,0,0,0,0,0,0,0,0,0,0,0,0,
0,0,0,0,0,0,0,0,0,0,0,0,0,0,0,0,0,0,0,0,0,0,0,0,0,0,0,0,0,0,0,0,0,0,0,0,0,0,0,0,0,0,0,0,0,0,0,0,0,0,0,0,0,0,0,0,0,0,0,0,0,0,0,0,0,0,0,0,0,0,0,0,0,0,0,0,0,0,0,0,
0,0,0,0,0,0,0,0,0,0,0,0,0,0,0,0,0,0,0,0,0,0,0,0,0,0,0,0,0,0,0,0,0,0,0,0,0,0,0,0,0,0,0,0,0,0,0,0,0,0,0,0,0,0,0,0,0,0,0,0,0,0,0,0,0,0,0,0,0,0,0,0,0,0,0,0,0,0,0,0,
0,0,0,0,0,0,0,0,0,0,0,0,0,0,0,0,0,0,0,0,0,0,0,0,0,0,0,0,0,0,0,0,0,0,0,0,0,0,0,0,0,0,0,0,0,0,0,0,0,0,0,0,0,0,0,0,0,0,0,0,0,0,0,0,0,0,0,0,0,0,0,0,0,0,0,0,0,0,0,0,
0,0,0,0,0,0,0,0,0,0,0,0,0,0,0,0,0,0,0,0,0,0,0,0,0,0,0,0,0,0,0,0,0,0,0,0,0,0,0,0,0,0,0,0,0,0,0,0,0,0,0,0,0,0,0,0,0,0,0,0,0,0,0,0,0,0,0,0,0,0,0,0,0,0,0,0,0,0,0,0,
0,0,0,0,0,0,0,0,0,0,0,0,0,0,0,0,0,0,0,0,0,0,0,0,0,0,0,0,0,0,0,0,0,0,0,0,0,0,0,0,0,0,0,0,0,0,0,0,0,0,0,0,0,0,0,0,0,0,0,0,0,0,0,0,0,0,0,0,0,0,0,0,0,0,0,0,0,0,0,0,
0,0,0,0,0,0,0,0,0,0,0,0,0,0,0,0,0,0,0,0,0,0,0,0,0,0,0,0,0,0,0,0,0,0,0,0,0,0,0,0,0,0,0,0,0,0,0,0,0,0,0,0,0,0,0,0,0,0,0,0,0,0,0,0,0,0,0,0,0,0,0,0,0,0,0,0,0,0,0,0,
0,0,0,0,0,0,0,0,0,0,0,0,0,0,0,0,0,0,0,0,0,0,0,0,0,0,0,0,0,0,0,0,0,0,0,0,0,0,0,0,0,0,0,0,0,0,0,0,0,0,0,0,0,0,0,0,0,0,0,0,0,0,0,0,0,0,0,0,0,0,0,0,0,0,0,0,0,0,0,0,
0,0,0,0,0,0,0,0,0,0,0,0,0,0,0,0,0,0,0,0,0,0,0,0,0,0,0,0,0,0,0,0,0,0,0,0,0,0,0,0,0,0,0,0,0,0,0,0,0,0,0,0,0,0,0,0,0,0,0,0,0,0,0,0,0,0,0,0,0,0,0,0,0,0,0,0,0,0,0,0
</data>
 </layer>
 <layer id="2" name="trees" width="80" height="60">
  <data encoding="csv">
17,5,17,5,0,5,0,0,0,0,0,0,0,0,0,0,0,0,0,0,0,0,0,0,0,95,0,0,0,0,0,0,0,0,2147483743,0,0,0,0,0,0,0,0,0,0,0,0,0,0,0,0,0,0,0,2147483653,0,2147483653,2147483665,2147483653,2147483665,17,5,17,5,0,5,0,2147483653,2147483665,2147483653,2147483665,2147483665,2147483653,2147483665,2147483653,0,2147483653,2147483665,2147483653,2147483665,
5,17,5,17,5,17,0,0,0,0,0,0,0,0,0,0,0,0,0,0,0,0,0,0,0,0,0,0,0,0,0,0,0,0,0,0,0,0,0,0,0,0,0,0,0,0,0,0,0,0,0,0,0,0,2147483665,2147483653,2147483665,2147483653,2147483665,2147483653,5,17,5,17,5,17,0,17,0,17,0,0,0,0,2147483665,2147483653,2147483665,2147483653,2147483665,2147483653,
17,5,17,5,17,95,0,0,0,0,0,0,0,0,0,0,0,0,0,0,0,0,0,0,0,0,0,0,0,0,0,0,0,0,0,0,0,0,0,0,0,0,0,0,0,0,0,0,0,0,0,0,0,0,2147483743,2147483665,2147483653,2147483665,2147483653,2147483665,17,5,17,5,17,95,0,5,0,0,0,0,0,0,2147483743,2147483665,2147483653,2147483665,2147483653,2147483665,
5,17,5,17,0,0,0,0,0,0,0,0,0,0,0,0,0,0,0,0,0,0,0,0,0,0,0,0,0,0,0,0,0,0,0,0,0,0,0,0,0,0,0,0,0,0,0,0,0,0,0,0,0,0,0,0,2147483665,2147483653,2147483665,2147483653,5,17,5,17,0,0,0,17,0,0,0,0,0,0,0,0,2147483665,2147483653,2147483665,2147483653,
17,5,17,5,0,0,0,0,0,0,0,0,0,0,0,0,0,0,0,0,0,0,0,0,0,0,0,0,0,0,0,0,0,0,0,0,0,0,0,0,0,0,0,0,0,0,0,0,0,0,0,0,0,0,0,0,2147483653,2147483665,2147483653,2147483665,17,5,17,5,0,0,0,0,0,0,0,0,0,0,0,0,2147483653,2147483665,2147483653,2147483665,
5,17,5,17,0,0,0,0,0,0,0,0,0,0,0,0,0,0,0,0,0,0,0,0,0,0,0,0,0,0,0,0,0,0,0,0,0,0,0,0,0,0,0,0,0,0,0,0,0,0,0,0,0,0,0,0,2147483665,2147483653,2147483665,2147483653,5,17,5,17,0,0,0,0,0,0,0,0,0,0,0,0,2147483665,2147483653,2147483665,2147483653,
17,5,17,0,0,0,0,0,0,0,0,0,0,0,0,0,0,0,0,0,0,0,0,0,0,0,0,0,0,0,0,0,0,0,0,0,0,0,0,0,0,0,0,0,0,0,0,0,0,0,0,0,0,0,0,0,0,2147483665,2147483653,2147483665,17,5,17,0,0,0,0,0,0,0,0,0,0,0,0,0,0,2147483665,2147483653,2147483665,
5,17,5,0,0,0,0,0,0,0,0,0,0,0,0,0,0,0,0,0,0,0,0,0,0,0,0,0,0,0,0,0,0,0,0,0,0,0,0,0,0,0,0,0,0,0,0,0,0,0,0,0,0,0,0,0,0,2147483653,2147483665,2147483653,5,17,5,0,0,0,0,0,0,0,0,0,0,0,0,0,0,2147483653,2147483665,2147483653,
17,0,17,0,0,0,0,0,0,0,0,0,0,0,0,0,0,0,0,0,0,0,0,0,0,0,0,0,0,0,0,0,0,0,0,0,0,0,0,0,0,0,0,0,0,0,0,0,0,0,0,0,0,0,0,0,0,2147483665,0,2147483665,17,0,17,0,0,0,0,0,0,0,0,0,0,0,0,0,0,2147483665,0,2147483665,
5,0,0,0,0,0,0,0,0,0,0,0,0,0,0,0,0,0,0,0,0,0,0,0,0,0,0,0,0,0,0,0,0,0,0,0,0,0,0,0,0,0,0,0,0,0,0,0,0,0,0,0,0,0,0,0,0,0,0,2147483653,0,0,0,0,0,0,0,0,0,0,0,0,0,0,0,0,0,0,0,0,
17,0,0,0,0,0,0,0,0,0,0,0,0,0,0,0,0,0,0,0,0,0,0,0,0,0,0,0,0,0,0,0,0,0,0,0,0,0,0,0,0,0,0,0,0,0,0,0,0,0,0,0,0,0,0,0,0,0,0,2147483665,0,0,0,0,0,0,0,0,0,0,0,0,0,0,2,0,0,0,0,0,
0,0,0,0,0,0,0,0,0,0,0,0,0,0,0,0,0,0,0,0,0,0,0,0,0,0,0,0,0,0,0,0,0,0,0,0,0,0,0,0,0,0,0,0,0,0,0,0,0,0,0,0,0,0,0,0,0,0,0,0,0,0,0,0,0,0,0,0,0,0,0,0,0,0,0,0,0,0,0,0,
0,0,0,0,0,0,0,0,0,0,0,0,0,0,0,0,0,0,0,0,0,0,0,0,0,0,0,0,0,0,0,0,0,0,0,0,0,0,0,0,0,0,0,0,0,0,0,0,0,0,0,0,0,0,0,0,0,0,0,0,0,0,0,0,0,0,0,0,0,0,0,0,0,0,0,0,0,0,0,0,
0,0,0,0,0,0,0,0,0,0,0,0,0,0,0,0,0,0,0,0,0,0,0,0,0,0,0,5,5,5,2147483653,2147483653,2147483653,0,0,0,0,0,0,0,0,0,0,0,0,0,0,0,0,0,0,0,0,0,0,0,0,0,0,0,0,0,0,0,0,0,0,0,0,0,0,0,0,0,0,0,0,0,0,0,
0,0,0,0,0,0,0,0,0,0,0,0,0,0,0,0,0,0,0,0,0,0,0,0,0,0,5,17,17,17,2147483665,2147483665,2147483665,2147483653,0,0,0,0,0,0,0,0,0,0,0,0,0,0,0,0,0,0,0,0,0,0,0,0,0,0,0,0,0,0,0,0,0,0,0,0,0,0,0,0,0,0,0,0,0,0,
0,0,0,0,0,0,0,0,0,0,0,0,0,0,0,0,0,0,0,0,0,0,0,0,0,5,17,5,5,18,2147483666,2147483653,2147483653,2147483665,2147483653,0,0,0,0,0,0,0,0,0,0,0,0,0,0,0,0,0,0,0,0,0,0,0,0,0,0,0,0,0,0,0,0,0,0,0,0,0,0,0,0,0,0,0,0,0,
0,0,0,0,0,0,0,0,0,0,0,0,0,0,0,0,0,0,0,0,0,0,0,0,5,17,5,17,17,18,2147483666,2147483665,2147483665,2147483653,2147483665,2147483653,0,0,0,0,0,0,0,0,0,0,0,0,0,0,0,0,0,0,0,0,0,0,0,0,0,0,0,0,0,0,0,0,0,0,0,0,0,0,0,0,0,0,0,0,
0,0,0,0,0,0,0,0,0,0,0,0,0,0,0,0,0,0,0,0,0,0,0,0,17,5,17,5,5,5,2147483653,2147483653,2147483653,2147483665,2147483653,2147483665,0,0,0,0,0,0,0,0,0,0,0,0,0,0,0,0,0,0,0,0,0,0,0,0,0,0,0,0,0,0,0,0,0,0,0,0,0,0,0,0,0,0,0,0,
0,0,0,0,0,0,0,0,0,0,0,0,0,0,0,0,0,0,0,0,0,0,0,0,5,17,18,17,5,17,2147483665,2147483653,2147483665,2147483666,2147483665,2147483653,0,0,0,0,0,0,0,0,0,0,0,0,0,0,0,0,0,0,0,0,0,0,0,0,0,0,0,0,0,0,0,0,0,0,0,0,0,0,0,0,0,0,0,0,
0,0,0,0,0,0,0,0,0,0,0,0,0,0,0,0,0,0,0,0,0,0,0,0,17,18,0,5,17,5,2147483653,2147483665,2147483653,0,2147483666,2147483665,0,0,0,0,0,0,0,0,0,0,0,0,0,0,0,0,0,0,0,0,0,0,0,0,0,0,0,0,0,0,0,0,0,0,0,0,0,0,0,0,0,0,0,0,
17,5,17,5,0,5,0,0,0,0,0,0,0,0,0,0,0,0,0,0,0,0,0,0,0,95,0,0,0,0,17,5,17,5,0,5,0,0,0,0,0,0,0,0,0,0,0,0,0,0,0,0,0,0,0,95,0,0,0,0,0,0,0,0,2147483743,0,0,0,0,0,0,0,0,0,0,0,0,0,0,0,
5,17,5,17,5,17,0,0,0,0,0,0,0,0,0,0,0,0,0,0,0,0,0,0,0,0,0,0,0,0,5,17,5,17,5,17,0,0,0,0,0,0,0,0,0,0,0,0,0,0,0,0,0,0,0,0,0,0,0,0,0,0,0,0,0,0,0,0,0,0,0,0,0,0,0,0,0,0,0,0,
17,5,17,5,17,95,0,0,0,0,0,0,0,0,0,0,0,0,0,0,0,0,0,0,0,0,0,0,0,0,17,5,17,5,17,95,0,0,0,0,0,0,0,0,0,0,0,0,0,0,0,0,0,0,0,0,0,0,0,0,0,0,0,0,0,0,0,0,0,0,0,0,0,0,0,0,0,0,0,0,
5,17,5,17,0,0,0,0,0,0,0,0,0,0,0,0,0,0,0,0,0,0,0,0,0,0,0,0,0,0,5,17,5,17,0,0,0,0,0,0,0,0,0,0,0,0,0,0,0,0,0,0,0,0,0,0,0,0,0,0,0,0,0,0,0,0,0,0,0,0,0,0,0,0,0,0,0,0,0,0,
17,5,17,5,0,0,0,0,0,0,0,0,0,0,0,0,0,0,0,0,0,0,0,0,0,0,0,0,0,0,17,0,0,0,0,0,0,0,0,0,0,0,0,0,0,0,0,0,0,0,0,0,0,0,0,0,0,0,0,0,0,0,0,0,0,0,0,0,0,0,0,0,0,0,0,0,0,0,0,0,
5,17,5,17,0,0,0,0,0,0,0,0,0,0,0,0,0,0,0,0,0,0,0,0,0,0,0,0,0,0,0,0,0,0,0,0,0,0,0,0,0,0,0,0,0,0,0,0,0,0,0,0,0,0,0,0,0,0,0,0,0,0,0,0,0,0,0,0,0,0,0,0,0,0,0,0,0,0,0,0,
17,5,17,0,0,0,0,0,0,0,0,0,0,0,0,0,0,0,0,0,0,0,0,0,0,0,0,0,0,0,0,0,0,0,0,0,0,0,0,0,0,0,0,0,0,0,0,0,0,0,0,0,0,0,0,0,0,0,0,0,0,0,0,0,0,0,0,0,0,0,0,0,0,0,0,0,0,0,0,0,
5,17,5,0,0,0,0,0,0,0,0,0,0,0,0,0,0,0,0,0,0,0,0,0,0,0,0,0,0,0,0,0,0,0,0,0,0,0,0,0,0,0,0,0,0,0,0,0,0,0,0,0,0,0,0,0,0,0,0,0,0,0,0,0,0,0,0,0,0,0,0,0,0,0,0,0,0,0,0,0,
17,0,17,0,0,0,0,0,0,0,0,0,0,0,0,0,0,0,0,0,0,0,0,0,0,0,0,0,0,0,0,0,0,0,0,0,0,0,0,0,0,0,0,0,0,0,0,0,0,0,0,0,0,0,0,0,0,0,0,0,0,0,0,0,0,0,0,0,0,0,0,0,0,0,0,0,0,0,0,0,
5,0,0,0,0,0,0,0,0,0,0,0,0,0,0,0,0,0,0,0,0,0,0,0,0,0,0,0,0,0,5,0,0,0,0,0,0,0,0,0,0,0,0,0,0,0,0,0,0,0,0,0,0,0,0,0,0,0,0,0,0,0,0,0,0,0,0,0,0,0,0,0,0,0,0,0,0,0,0,0,
17,0,0,0,0,0,0,0,0,0,0,0,0,0,0,0,0,0,0,0,0,0,0,0,0,0,0,0,0,0,17,0,0,0,0,0,0,0,0,0,0,0,0,0,0,0,0,0,0,0,0,0,0,0,0,0,0,0,0,0,0,0,0,0,0,0,0,0,0,0,0,0,0,0,0,0,0,0,0,0,
0,0,0,0,0,0,0,0,0,0,0,0,0,0,0,0,0,0,0,0,0,0,0,0,0,0,0,0,0,0,0,0,0,0,0,0,0,0,0,0,0,0,0,0,0,0,0,0,0,0,0,0,0,0,0,0,0,0,0,0,0,0,0,0,0,0,0,0,0,0,0,0,0,0,0,0,0,0,0,0,
0,0,0,0,0,0,0,0,0,0,0,0,0,0,0,0,0,0,0,0,0,0,0,0,0,0,0,0,0,0,0,0,0,0,0,0,0,0,0,0,0,0,0,0,0,0,0,0,0,0,0,0,0,0,0,0,0,0,0,0,0,0,0,0,0,0,0,0,0,0,0,0,0,0,0,0,0,0,0,0,
0,0,0,0,0,0,0,0,0,0,0,0,0,0,0,0,0,0,0,0,0,0,0,0,0,0,0,5,5,5,0,0,0,0,0,0,0,0,0,0,0,0,0,0,0,0,0,0,0,0,0,0,0,0,0,0,0,5,5,5,2147483653,2147483653,2147483653,0,0,0,0,0,0,0,0,0,0,0,0,0,0,0,0,0,
0,0,0,0,0,0,0,0,0,0,0,0,0,0,0,0,0,0,0,0,0,0,0,0,0,0,5,17,17,17,0,0,0,0,0,0,0,0,0,0,0,0,0,0,0,0,0,0,0,0,0,0,0,0,0,0,5,17,17,17,2147483665,2147483665,2147483665,2147483653,0,0,0,0,0,0,0,0,0,0,0,0,0,0,0,0,
0,0,0,0,0,0,0,0,0,0,0,0,0,0,0,0,0,0,0,0,0,0,0,0,0,5,17,5,5,18,0,0,0,0,0,0,0,0,0,0,0,0,0,0,0,0,0,0,0,0,0,0,0,0,0,5,17,5,5,18,2147483666,2147483653,2147483653,2147483665,2147483653,0,0,0,0,0,0,0,0,0,0,0,0,0,0,0,
0,0,0,0,0,0,0,0,0,0,0,0,0,0,0,0,0,0,0,0,0,0,0,0,5,17,5,17,17,18,0,0,0,0,0,0,0,0,0,0,0,0,0,0,0,0,0,0,0,0,0,0,0,0,5,17,5,17,17,18,2147483666,2147483665,2147483665,2147483653,2147483665,2147483653,0,0,0,0,0,0,0,0,0,0,0,0,0,0,
0,0,0,0,0,0,0,0,0,0,0,0,0,0,0,0,0,0,0,0,0,0,0,0,17,5,17,5,5,5,0,0,0,0,0,0,0,0,0,0,0,0,0,0,0,0,0,0,0,0,0,0,0,0,17,5,17,5,5,5,2147483653,2147483653,2147483653,2147483665,2147483653,2147483665,0,0,0,0,0,0,0,0,0,0,0,0,0,0,
0,0,0,0,0,0,0,0,0,0,0,0,0,0,0,0,0,0,0,0,0,0,0,0,5,17,18,17,5,17,0,0,0,0,0,0,0,0,0,0,0,0,0,0,0,0,0,0,0,0,0,0,0,0,5,17,18,17,5,17,2147483665,2147483653,2147483665,2147483666,2147483665,2147483653,0,0,0,0,0,0,0,0,0,0,0,0,0,0,
0,0,0,0,0,0,0,0,0,0,0,0,0,0,0,0,0,0,0,0,0,0,0,0,17,18,0,5,17,5,0,0,0,0,0,0,0,0,0,0,0,0,0,0,0,0,0,0,0,0,0,0,0,0,17,18,0,5,17,5,2147483653,2147483665,2147483653,0,2147483666,2147483665,0,0,0,0,0,0,0,0,0,0,0,0,0,0,
0,0,0,0,0,0,0,0,0,0,0,0,0,0,0,0,0,0,0,0,0,0,0,0,0,0,0,0,0,0,0,0,0,0,0,2147483743,0,0,0,0,0,0,0,0,0,0,0,0,0,0,0,0,0,0,0,2147483653,0,2147483653,2147483665,2147483653,2147483665,17,5,17,5,0,5,0,0,0,0,0,0,0,0,0,0,0,0,0,
0,0,0,0,0,0,0,0,17,0,0,0,0,2147483653,0,0,0,0,0,0,0,0,0,0,0,0,0,0,0,0,0,0,0,0,0,0,0,0,0,0,0,0,0,0,0,0,0,0,0,0,0,0,0,0,0,2147483665,2147483653,2147483665,2147483653,2147483665,2147483653,5,17,5,17,5,17,0,0,0,0,0,0,0,0,0,0,0,0,0,
0,0,0,0,0,0,0,0,0,0,0,0,0,2147483665,0,0,0,0,0,0,0,0,0,0,0,0,0,0,0,0,0,0,0,0,0,0,0,0,0,0,0,0,0,0,0,0,0,0,0,0,0,0,0,0,0,2147483743,2147483665,2147483653,2147483665,2147483653,2147483665,17,5,17,5,17,95,0,0,0,0,0,0,0,0,0,0,0,0,0,
0,0,0,0,0,0,17,0,0,0,0,0,0,0,0,0,0,0,0,0,0,0,0,0,0,0,0,0,0,0,0,0,0,0,0,0,0,0,0,0,0,0,0,0,0,0,0,0,0,0,0,0,0,0,0,0,0,2147483665,2147483653,2147483665,2147483653,5,17,5,17,0,0,0,0,0,0,0,0,0,0,0,0,0,0,0,
0,0,0,0,0,0,0,0,0,0,0,0,0,0,0,0,0,0,0,0,0,0,0,0,0,0,0,0,0,0,0,0,0,0,0,0,0,0,0,0,0,0,0,0,0,0,0,0,0,0,0,0,0,0,0,0,0,2147483653,2147483665,2147483653,2147483665,17,5,17,5,0,0,0,0,0,0,0,0,0,0,0,0,0,0,0,
0,0,0,0,0,0,0,0,0,0,0,0,0,0,0,0,0,0,0,0,0,0,0,0,0,0,0,0,0,0,0,0,0,0,0,0,0,0,0,0,0,0,0,0,0,0,0,0,0,0,0,0,0,0,0,0,0,2147483665,2147483653,2147483665,2147483653,5,17,5,17,0,0,0,0,0,0,0,0,0,0,0,0,0,0,0,
0,0,0,0,0,0,0,0,0,0,0,0,0,0,0,0,0,0,0,0,0,0,0,0,0,0,0,0,0,0,0,0,0,0,0,0,0,0,0,0,0,0,0,0,0,0,0,0,0,0,0,0,0,0,0,0,0,0,2147483665,2147483653,2147483665,17,5,17,0,0,0,0,0,0,0,0,0,0,0,0,0,0,0,0,
0,0,0,0,0,0,0,0,0,0,0,0,0,0,0,0,0,0,0,0,0,0,0,0,0,0,0,0,0,0,0,0,0,0,0,0,0,0,0,0,0,0,0,0,0,0,0,0,0,0,0,0,0,0,0,0,0,0,2147483653,2147483665,2147483653,5,17,5,0,0,0,0,0,0,0,0,0,0,0,0,0,0,0,0,
5,5,5,2147483653,2147483653,0,0,0,0,0,0,0,0,0,0,0,0,0,0,0,0,0,0,0,0,0,0,0,0,0,0,0,0,0,0,0,0,0,0,0,0,0,0,0,0,0,0,0,0,0,0,0,0,0,0,0,0,0,2147483665,0,2147483665,17,0,17,0,0,0,0,0,0,0,0,0,0,0,0,0,0,0,0,
17,17,17,2147483665,2147483665,2147483653,0,0,0,0,0,0,0,0,0,0,0,0,0,0,0,0,0,0,0,0,0,0,0,0,0,0,0,0,0,0,0,0,0,0,0,0,0,0,0,0,0,0,0,0,0,0,0,0,0,0,0,0,0,0,2147483653,0,0,0,0,0,0,0,0,0,0,0,0,0,0,0,0,0,0,0,
5,5,18,2147483653,2147483653,2147483665,2147483653,0,0,0,0,0,0,0,0,0,0,0,0,0,0,0,0,0,0,0,0,0,0,0,0,0,0,0,0,0,0,0,0,0,0,0,0,0,0,0,0,0,0,0,0,0,0,0,0,0,0,0,0,0,2147483665,0,0,0,0,0,0,0,0,0,0,0,0,0,0,0,0,0,5,5,
17,17,18,2147483665,2147483665,2147483653,2147483665,2147483653,0,0,0,0,0,0,0,0,0,0,0,0,0,0,0,0,0,0,0,0,0,0,0,0,0,0,0,0,0,0,0,0,0,0,0,0,0,0,0,0,0,0,0,0,0,0,0,0,0,0,0,0,0,0,0,0,0,0,0,0,0,0,0,0,0,0,0,0,0,5,17,17,
5,5,5,2147483653,2147483653,2147483665,2147483653,2147483665,0,0,0,0,0,0,0,0,0,0,0,0,0,0,0,0,0,0,0,0,0,0,0,0,0,0,0,0,0,0,0,0,0,0,0,0,0,0,0,0,0,0,0,0,0,0,0,0,0,0,0,0,0,0,0,0,0,0,0,0,0,0,0,0,0,0,0,0,5,17,5,5,
17,5,17,2147483653,2147483665,2147483666,2147483665,2147483653,0,0,0,0,0,0,0,0,0,0,0,0,0,0,0,0,0,0,0,0,0,5,5,5,2147483653,2147483653,0,0,0,0,0,0,0,0,0,0,0,0,0,0,0,0,0,0,0,0,0,0,0,0,0,0,0,0,0,0,0,0,0,0,0,0,0,0,0,0,0,5,17,5,17,17,
5,17,5,2147483665,2147483653,0,2147483666,2147483665,0,0,0,0,0,0,0,0,0,0,0,0,0,0,0,0,0,0,0,0,5,17,17,17,2147483665,2147483665,2147483653,0,0,0,0,0,0,0,0,0,0,0,0,0,0,0,0,0,0,0,0,0,0,0,0,0,0,0,0,0,0,0,0,0,0,0,0,0,0,0,0,17,5,17,5,5,
5,5,5,2147483653,2147483653,2147483665,2147483653,2147483665,0,0,0,0,0,0,0,0,0,0,0,0,0,0,0,0,0,0,0,5,17,5,5,18,2147483653,2147483653,2147483665,2147483653,0,0,0,0,0,0,0,0,0,0,0,0,0,0,0,0,0,0,0,0,0,0,0,0,0,0,0,0,0,0,0,0,0,0,0,0,0,0,0,5,17,18,17,5,
5,5,5,2147483653,2147483653,2147483665,2147483653,2147483665,0,0,0,0,0,0,0,0,0,0,0,0,0,0,0,0,0,0,5,17,5,17,17,18,2147483665,2147483665,2147483653,2147483665,2147483653,0,0,0,0,0,0,0,0,0,0,0,0,0,0,0,0,0,0,0,0,0,0,0,0,0,0,0,0,0,0,0,0,0,0,0,0,0,0,17,18,0,5,17,
5,5,5,2147483653,2147483653,2147483665,2147483653,2147483665,0,0,0,0,0,0,0,0,0,0,0,0,0,0,0,0,0,0,17,5,17,5,5,5,2147483653,2147483653,2147483665,2147483653,2147483665,0,0,0,0,0,0,0,0,0,0,0,0,0,0,0,0,0,0,0,0,0,0,0,0,0,0,0,0,0,0,0,0,0,0,0,0,0,0,17,5,17,5,5,
17,5,17,2147483653,2147483665,2147483666,2147483665,2147483653,0,0,0,0,0,0,0,0,0,0,0,0,0,0,0,0,0,0,5,17,18,17,5,17,2147483653,2147483665,2147483666,2147483665,2147483653,0,0,0,0,0,0,0,0,0,0,0,0,0,0,0,0,0,0,0,0,0,0,0,0,0,0,0,0,0,0,0,0,0,0,0,0,0,0,17,5,17,5,5,
5,17,5,2147483665,2147483653,0,2147483666,2147483665,0,0,0,0,0,0,0,0,0,0,0,0,0,0,0,0,0,0,17,18,0,5,17,5,2147483665,2147483653,0,2147483666,2147483665,0,0,0,0,0,0,0,0,0,0,0,0,0,0,0,0,0,0,0,0,0,0,0,0,0,0,0,0,0,0,0,0,0,0,0,0,0,0,17,5,17,5,5
</data>
 </layer>
 <layer id="8" name="house" width="80" height="60">
  <data encoding="csv">
0,0,0,0,0,0,0,0,0,0,0,0,0,0,0,0,0,0,0,0,0,0,0,0,0,0,0,0,0,0,0,0,0,0,0,0,0,0,0,0,0,0,0,0,0,0,0,0,0,0,0,0,0,0,0,0,0,0,0,0,0,0,0,0,0,0,0,0,0,0,0,0,0,0,0,0,0,0,0,0,
0,0,0,0,0,0,0,0,0,0,0,0,0,0,0,0,0,0,0,0,0,0,0,0,0,0,0,0,0,0,0,0,0,0,0,0,0,0,0,0,0,0,0,0,0,0,0,0,0,0,0,0,0,0,0,0,0,0,0,0,0,0,0,0,0,0,0,0,0,0,0,0,0,0,0,0,0,0,0,0,
0,0,0,0,0,0,0,45,46,46,49,52,50,50,51,0,0,0,0,0,0,0,0,0,0,0,0,0,0,0,0,0,0,0,0,0,0,0,0,0,0,0,0,0,0,2147483699,2147483698,2147483698,2147483700,2147483697,2147483694,2147483694,2147483693,0,0,0,0,0,0,0,0,0,0,0,0,0,0,0,0,0,0,0,0,0,0,0,0,0,0,0,
0,0,0,0,0,0,0,57,0,58,61,62,62,64,63,0,0,0,0,0,0,0,0,6,6,0,0,0,0,0,0,0,0,0,0,2147483654,2147483654,0,0,0,0,0,0,0,0,2147483711,2147483712,2147483710,2147483710,2147483709,2147483706,0,2147483705,0,0,0,0,0,0,0,0,0,0,0,0,0,0,0,0,0,0,0,0,0,0,0,0,0,0,0,
0,0,0,0,0,0,0,69,46,70,73,74,87,88,76,0,0,0,0,0,53,54,56,54,55,6,0,0,0,0,0,0,0,0,2147483654,2147483703,2147483702,2147483704,2147483702,2147483701,0,0,0,0,0,2147483724,2147483736,2147483735,2147483722,2147483721,2147483718,2147483694,2147483717,0,0,0,0,0,0,0,0,0,0,0,0,0,0,0,0,0,0,0,0,0,0,0,0,0,0,0,
0,0,0,0,0,0,0,0,0,0,0,0,44,44,0,0,0,0,0,0,65,66,66,66,67,0,0,0,0,0,0,0,0,0,0,2147483715,2147483714,2147483714,2147483714,2147483713,0,0,0,0,0,0,2147483692,2147483692,0,0,0,0,0,0,0,0,0,0,0,0,0,0,0,0,0,0,0,0,0,0,0,0,0,0,0,0,0,0,0,0,
0,0,0,0,0,0,0,0,0,0,0,0,44,0,0,0,0,0,0,0,77,89,78,90,80,0,0,0,0,0,0,0,0,0,0,2147483728,2147483738,2147483726,2147483737,2147483725,0,0,0,0,0,0,0,2147483692,0,0,0,0,0,0,0,0,0,0,0,0,0,0,0,0,0,0,0,0,0,0,0,0,0,0,0,0,0,0,0,0,
0,0,0,0,0,0,0,0,0,0,0,0,44,44,0,0,0,0,0,0,0,0,0,0,44,0,0,0,0,0,0,0,0,0,0,2147483692,0,0,0,0,0,0,0,0,0,0,2147483692,2147483692,0,0,0,0,0,0,0,0,0,0,0,0,0,0,0,0,0,0,0,0,0,0,44,44,0,0,0,0,0,0,0,0,
0,0,0,0,0,0,0,0,0,0,0,0,0,0,0,0,0,0,0,0,0,0,0,0,0,0,0,0,0,0,0,0,0,0,0,0,0,0,0,0,0,0,0,0,0,0,0,0,0,0,0,0,0,0,0,0,0,0,0,0,0,0,0,0,0,0,0,0,0,0,0,0,0,0,0,0,0,0,0,0,
0,0,0,0,0,0,0,0,0,0,0,0,0,0,0,0,0,0,0,0,0,0,0,0,0,0,0,0,0,0,0,0,0,0,0,0,0,0,0,0,0,0,0,0,0,0,0,0,0,0,0,0,0,0,0,0,0,0,0,0,0,0,0,0,0,0,0,0,0,0,0,0,0,0,0,0,0,0,0,0,
0,0,0,0,0,0,0,0,0,0,0,0,0,0,0,0,0,0,0,0,0,0,0,0,0,0,0,0,0,0,0,0,0,0,0,0,0,0,0,0,0,0,0,0,0,0,0,0,0,0,0,0,0,0,0,0,0,0,0,0,0,0,0,0,0,0,0,0,0,0,0,0,0,0,0,0,0,0,0,0,
0,0,0,0,0,0,0,0,0,0,0,0,0,0,0,0,0,0,0,0,0,0,0,0,0,0,0,0,0,0,0,0,0,0,0,0,0,0,0,0,0,0,0,0,0,0,0,0,0,0,0,0,0,0,0,0,0,0,0,0,0,0,0,0,0,0,0,0,0,0,0,0,0,0,0,0,0,0,0,0,
0,0,0,0,0,0,0,0,0,0,0,0,0,0,0,0,0,0,0,0,0,0,0,0,0,0,0,0,0,0,0,0,0,0,0,0,0,0,0,0,0,0,0,0,0,0,0,0,0,0,0,0,0,0,0,0,0,0,0,0,0,0,0,0,0,0,0,0,0,0,0,0,0,0,0,0,0,0,0,0,
0,0,0,0,0,0,0,0,0,0,0,0,0,0,0,0,0,0,0,0,0,0,0,0,0,0,0,0,0,0,0,0,0,0,0,0,0,0,0,0,0,0,0,0,0,0,0,0,0,0,0,0,0,0,0,0,0,0,0,0,0,0,0,0,0,0,0,0,0,0,0,0,0,0,0,0,0,0,0,0,
0,0,0,0,0,0,0,0,0,0,0,0,0,0,0,0,0,0,0,0,0,0,0,0,0,0,0,0,0,0,0,0,0,0,0,0,0,0,0,0,0,0,0,0,0,0,0,0,0,0,0,0,0,0,0,0,0,0,0,0,0,0,0,0,0,0,0,0,0,0,0,0,0,0,0,0,0,0,0,0,
0,0,0,0,0,0,0,0,0,0,0,0,0,0,0,0,0,0,0,0,0,0,0,0,0,0,0,0,0,0,0,0,0,0,0,0,0,0,0,0,0,0,0,0,0,0,0,0,0,0,0,0,0,0,0,0,0,0,0,0,0,0,0,0,0,0,0,0,0,0,0,0,0,0,0,0,0,0,0,0,
0,0,0,0,0,0,0,0,0,0,0,0,0,0,0,0,0,0,0,0,0,0,0,0,0,0,0,0,0,0,0,0,0,0,0,0,0,0,0,0,0,0,0,0,0,0,0,0,0,0,0,0,0,0,0,0,0,0,0,0,0,0,0,0,0,0,0,0,0,0,0,0,0,0,0,0,0,0,0,0,
0,0,0,0,0,0,0,0,0,0,0,0,0,0,0,0,0,0,0,0,0,0,0,0,0,0,0,0,0,0,0,0,0,0,0,0,0,0,0,0,0,0,0,0,0,0,0,0,0,0,0,0,0,0,0,0,0,0,0,0,0,0,0,0,0,0,0,0,0,0,0,0,0,0,0,0,0,0,0,0,
0,0,0,0,0,0,0,0,0,0,0,0,0,0,0,0,0,0,0,0,0,0,0,0,0,0,0,0,0,0,0,0,0,0,0,0,0,0,0,0,0,0,0,0,0,0,0,0,0,0,0,0,0,0,0,0,0,0,0,0,0,0,0,0,0,0,0,0,0,0,0,0,0,0,0,0,0,0,0,0,
0,0,0,0,0,0,0,0,0,0,0,0,0,0,0,0,0,0,0,0,0,0,0,0,0,0,0,0,0,0,0,0,0,0,0,0,0,0,0,0,0,0,0,0,0,0,0,0,0,0,0,0,0,0,0,0,0,0,0,0,0,0,0,0,0,0,0,0,0,0,0,0,0,0,0,0,0,0,0,0,
0,0,0,0,0,0,0,0,0,0,0,0,0,0,0,0,0,0,0,0,0,0,0,0,0,0,0,0,0,0,0,0,0,0,0,0,0,0,0,0,0,0,0,0,0,0,0,0,0,0,0,0,0,0,0,0,0,0,0,0,0,0,0,0,0,0,0,0,0,0,0,0,0,0,0,0,0,0,0,0,
0,0,0,0,0,0,0,0,0,0,0,0,0,0,0,0,0,0,0,0,0,0,0,0,0,0,0,0,0,0,0,0,0,0,0,0,0,0,0,0,0,0,0,0,0,0,0,0,0,0,0,0,0,0,0,0,0,0,0,0,0,0,0,0,0,0,0,0,0,0,0,0,0,0,0,0,0,0,0,0,
0,0,0,0,0,0,0,45,46,46,49,52,50,50,51,0,0,0,0,0,0,0,0,0,0,0,0,0,0,0,0,0,0,0,0,0,0,45,46,46,49,52,50,50,51,0,0,0,0,0,0,0,0,0,0,0,0,0,0,0,0,0,0,0,0,0,0,0,0,0,0,0,0,0,0,2147483699,2147483698,2147483698,2147483700,2147483697,
0,0,0,0,0,0,0,57,0,58,61,62,62,64,63,0,0,0,0,0,0,0,0,6,6,0,0,0,0,0,0,0,0,0,0,0,0,57,0,58,61,62,62,64,63,0,0,0,0,0,0,0,0,6,6,0,0,0,0,0,0,0,0,0,0,2147483654,2147483654,0,0,0,0,0,0,0,0,2147483711,2147483712,2147483710,2147483710,2147483709,
0,0,0,0,0,0,0,69,46,70,73,74,87,88,76,0,0,0,0,0,53,54,56,54,55,6,0,0,0,0,0,0,0,0,0,0,0,69,46,70,73,74,87,88,76,0,0,0,0,0,53,54,56,54,55,6,0,0,0,0,0,0,0,0,2147483654,2147483703,2147483702,2147483704,2147483702,2147483701,0,0,0,0,0,2147483724,2147483736,2147483735,2147483722,2147483721,
0,0,0,0,0,0,0,0,0,0,0,0,44,44,0,0,0,0,0,0,65,66,66,66,67,0,0,0,0,0,0,0,0,0,0,0,0,0,0,0,0,0,44,44,0,0,0,0,0,0,65,66,66,66,67,0,0,0,0,0,0,0,0,0,0,2147483715,2147483714,2147483714,2147483714,2147483713,0,0,0,0,0,0,2147483692,2147483692,0,0,
0,0,0,0,0,0,0,0,0,0,0,0,44,0,0,0,0,0,0,0,77,89,78,90,80,0,0,0,0,0,0,0,0,0,0,0,0,0,0,0,0,0,44,0,0,0,0,0,0,0,77,89,78,90,80,0,0,0,0,0,0,0,0,0,0,2147483728,2147483738,2147483726,2147483737,2147483725,0,0,0,0,0,0,0,2147483692,0,0,
0,0,0,0,0,0,0,0,0,0,0,0,44,44,0,0,0,0,0,0,0,0,0,0,44,0,0,0,0,0,0,0,0,0,0,0,0,0,0,0,0,0,44,44,0,0,0,0,0,0,0,0,0,0,44,0,0,0,0,0,0,0,0,0,0,2147483692,0,0,0,0,0,0,0,0,0,0,2147483692,2147483692,0,0,
0,0,0,0,0,0,0,0,0,0,0,0,0,0,0,0,0,0,0,0,0,0,0,0,0,0,0,0,0,0,0,0,0,0,0,0,0,0,0,0,0,0,0,0,0,0,0,0,0,0,0,0,0,0,0,0,0,0,0,0,0,0,0,0,0,0,0,0,0,0,0,0,0,0,0,0,0,0,0,0,
0,0,0,0,0,0,0,0,0,0,0,0,0,0,0,0,0,0,0,0,0,0,0,0,0,0,0,0,0,0,0,0,0,0,0,0,0,0,0,0,0,0,0,0,0,0,0,0,0,0,0,0,0,0,0,0,0,0,0,0,0,0,0,0,0,0,0,0,0,0,0,0,0,0,0,0,0,0,0,0,
0,0,0,0,0,0,0,0,0,0,0,0,0,0,0,0,0,0,0,0,0,0,0,0,0,0,0,0,0,0,0,0,0,0,0,0,0,0,0,0,0,0,0,0,0,0,0,0,0,0,0,0,0,0,0,0,0,0,0,0,0,0,0,0,0,0,0,0,0,0,0,0,0,0,0,0,0,0,0,0,
0,0,0,0,0,0,0,0,0,0,0,0,0,0,0,0,0,0,0,0,0,0,0,0,0,0,0,0,0,0,0,0,0,0,0,0,0,0,0,0,0,0,0,0,0,0,0,0,0,0,0,0,0,0,0,0,0,0,0,0,0,0,0,0,0,0,0,0,0,0,0,0,0,0,0,0,0,0,0,0,
0,0,0,0,0,0,0,0,0,0,0,0,0,0,0,0,0,0,0,0,0,0,0,0,0,0,0,0,0,0,0,0,0,0,0,0,0,0,0,0,0,0,0,0,0,0,0,0,0,0,0,0,0,0,0,0,0,0,0,0,0,0,0,0,0,0,0,0,0,0,0,0,0,0,0,0,0,0,0,0,
0,0,0,0,0,0,0,0,0,0,0,0,0,0,0,0,0,0,0,0,0,0,0,0,0,0,0,0,0,0,0,0,0,0,0,0,0,0,0,0,0,0,0,0,0,0,0,0,0,0,0,0,0,0,0,0,0,0,0,0,0,0,0,0,0,0,0,0,0,0,0,0,0,0,0,0,0,0,0,0,
0,0,0,0,0,0,0,0,0,0,0,0,0,0,0,0,0,0,0,0,0,0,0,0,0,0,0,0,0,0,0,0,0,0,0,0,0,0,0,0,0,0,0,0,0,0,0,0,0,0,0,0,0,0,0,0,0,0,0,0,0,0,0,0,0,0,0,0,0,0,0,0,0,0,0,0,0,0,0,0,
0,0,0,0,0,0,0,0,0,0,0,0,0,0,0,0,0,0,0,0,0,0,0,0,0,0,0,0,0,0,0,0,0,0,0,0,0,0,0,0,0,0,0,0,0,0,0,0,0,0,0,0,0,0,0,0,0,0,0,0,0,0,0,0,0,0,0,0,0,0,0,0,0,0,0,0,0,0,0,0,
0,0,0,0,0,0,0,0,0,0,0,0,0,0,0,0,0,0,0,0,0,0,0,0,0,0,0,0,0,0,0,0,0,0,0,0,0,0,0,0,0,0,0,0,0,0,0,0,0,0,0,0,0,0,0,0,0,0,0,0,0,0,0,0,0,0,0,0,0,0,0,0,0,0,0,0,0,0,0,0,
0,0,0,0,0,0,0,0,0,0,0,0,0,0,0,0,0,0,0,0,0,0,0,0,2147483699,2147483698,2147483698,2147483700,2147483697,2147483694,0,0,0,0,0,0,0,0,0,0,0,0,0,0,0,0,0,0,0,0,0,0,0,0,0,0,0,0,0,0,0,0,0,0,0,0,0,0,0,0,0,0,0,0,0,0,0,0,0,0,
0,0,0,0,0,0,0,0,0,0,0,0,0,0,0,0,0,0,0,0,0,0,0,0,2147483711,2147483712,2147483710,2147483710,2147483709,2147483706,0,0,0,0,0,0,0,0,0,0,0,0,0,0,0,0,0,0,0,0,0,0,0,0,0,0,0,0,0,0,0,0,0,0,0,0,0,0,0,0,0,0,0,0,0,0,0,0,0,0,
0,0,0,0,0,0,0,0,0,0,0,0,0,0,0,0,0,0,0,0,0,0,0,0,2147483724,2147483736,2147483735,2147483722,2147483721,2147483718,0,0,0,0,0,0,0,0,0,0,0,0,0,0,0,0,0,0,0,0,0,0,0,0,0,0,0,0,0,0,0,0,0,0,0,0,0,0,0,0,0,0,0,0,0,0,0,0,0,0,
0,0,0,0,0,0,0,0,0,0,0,0,0,0,0,0,0,0,0,0,0,0,0,0,0,0,0,0,0,0,0,0,0,0,0,0,0,0,0,0,0,0,0,0,0,0,0,0,0,0,0,0,0,0,0,0,0,0,0,0,0,0,0,0,0,0,0,0,0,0,0,0,0,0,0,0,0,0,0,0,
0,0,0,0,0,0,0,0,0,0,0,0,0,0,0,0,0,0,0,0,0,0,0,0,0,0,0,0,0,0,0,0,0,0,0,0,0,0,0,0,0,0,0,0,0,0,0,0,0,0,0,0,0,0,0,0,0,0,0,0,0,0,0,0,0,0,0,0,0,0,0,0,0,0,0,0,0,0,0,0,
0,0,0,0,0,0,0,0,0,0,0,0,0,0,0,0,0,0,0,0,0,0,0,0,0,0,0,0,0,0,0,0,0,0,0,0,0,0,0,0,0,0,0,0,0,0,2147483699,2147483698,2147483698,2147483700,2147483697,2147483694,2147483694,2147483693,0,0,0,0,0,0,0,0,0,0,0,0,0,0,0,0,0,0,0,0,0,0,0,0,0,0,
0,0,0,0,0,0,0,0,0,0,0,0,0,0,0,0,0,0,0,0,0,0,0,0,0,0,0,0,0,0,0,0,0,0,0,0,2147483654,2147483654,0,0,0,0,0,0,0,0,2147483711,2147483712,2147483710,2147483710,2147483709,2147483706,0,2147483705,0,0,0,0,0,0,0,0,0,0,0,0,0,0,0,0,0,0,0,0,0,0,0,0,0,0,
0,0,0,0,0,0,0,0,0,0,0,0,0,0,0,0,0,0,0,0,0,0,0,0,0,0,0,0,0,0,0,0,0,0,0,2147483654,2147483703,2147483702,2147483704,2147483702,2147483701,0,0,0,0,0,2147483724,2147483736,2147483735,2147483722,2147483721,2147483718,2147483694,2147483717,0,0,0,0,0,0,0,0,0,0,0,0,0,0,0,0,0,0,0,0,0,0,0,0,0,0,
0,0,0,0,0,0,0,0,0,0,0,0,0,0,0,0,0,0,0,0,0,0,0,0,0,0,0,0,0,0,0,0,0,0,0,0,2147483715,2147483714,2147483714,2147483714,2147483713,0,0,0,0,0,0,2147483692,2147483692,0,0,0,0,0,0,0,0,0,0,0,0,0,0,0,0,0,0,0,0,0,0,0,0,0,0,0,0,0,0,0,
0,0,0,0,0,0,0,0,0,0,0,0,0,0,0,0,0,0,0,0,0,0,0,0,0,0,0,0,0,0,0,0,0,0,0,0,2147483728,2147483738,2147483726,2147483737,2147483725,0,0,0,0,0,0,0,2147483692,0,0,0,0,0,0,0,0,0,0,0,0,0,0,0,0,0,0,0,0,0,0,0,0,0,0,0,0,0,0,0,
0,0,0,0,0,0,0,0,0,0,0,0,0,0,0,0,0,0,0,0,0,0,0,0,0,0,0,0,0,0,0,0,0,0,0,0,2147483692,0,0,0,0,0,0,0,0,0,0,2147483692,2147483692,0,0,0,0,0,0,0,0,0,0,0,0,0,0,0,0,0,0,0,0,0,0,0,0,0,0,0,0,0,0,0,
0,0,0,0,0,0,0,0,0,0,0,0,0,0,0,0,0,0,0,0,0,0,0,0,0,0,0,0,0,0,0,0,0,0,0,0,0,0,0,0,0,0,0,0,0,0,0,0,0,0,0,0,0,0,0,0,0,0,0,0,0,0,0,0,0,0,0,0,0,0,0,0,0,0,0,0,0,0,0,0,
0,0,0,0,0,0,0,0,0,0,0,0,0,0,0,0,0,0,0,0,0,0,0,0,0,0,0,0,0,0,0,0,0,0,0,0,0,0,0,0,0,0,0,0,0,0,0,0,0,0,0,0,0,0,0,0,0,0,0,0,0,0,0,0,0,0,0,0,0,0,0,0,0,0,0,0,0,0,0,0,
0,0,0,0,0,0,0,0,0,0,0,0,0,0,0,0,0,0,0,0,0,0,0,0,0,0,0,0,0,0,0,0,0,0,0,0,0,0,0,0,0,0,0,0,0,0,0,0,0,0,0,0,0,0,0,0,0,0,0,0,0,0,0,0,0,0,0,0,0,0,0,0,0,0,0,0,0,0,0,0,
0,0,0,0,0,0,0,0,0,0,0,0,0,0,0,0,0,0,0,0,0,0,0,0,0,0,0,0,0,0,0,0,0,0,0,0,0,0,0,0,0,0,0,0,0,0,0,0,0,0,0,0,0,0,0,0,0,0,0,0,0,0,0,0,0,0,0,0,0,0,0,0,0,0,0,0,0,0,0,0,
0,0,0,0,0,0,0,0,0,0,0,0,0,0,0,0,0,0,0,0,0,0,0,0,0,0,0,0,0,0,0,0,0,0,0,0,0,0,0,0,0,0,0,0,0,0,0,0,0,0,0,0,0,0,0,0,0,0,0,0,0,0,0,0,0,0,0,0,0,0,0,0,0,0,0,0,0,0,0,0,
0,0,0,0,0,0,0,0,0,0,0,0,0,0,0,0,0,0,0,0,0,0,0,0,0,0,0,0,0,0,0,0,0,0,0,0,0,0,0,0,0,0,0,0,0,0,0,0,0,0,0,0,0,0,0,0,0,0,0,0,0,0,0,0,0,0,0,0,0,0,0,0,0,0,0,0,0,0,0,0,
0,0,0,0,0,0,0,0,0,0,0,0,0,0,0,0,0,0,0,0,0,0,0,0,0,0,0,0,0,0,0,0,0,0,0,0,0,0,0,0,0,0,0,0,0,0,0,0,0,0,0,0,0,0,0,0,0,0,0,0,0,0,0,0,0,0,0,0,0,0,0,0,0,0,0,0,0,0,0,0,
0,0,0,0,0,0,0,0,0,0,0,0,0,0,0,0,0,0,0,0,0,0,0,0,0,0,0,0,0,0,0,0,0,0,0,0,0,0,0,0,0,0,0,0,0,0,0,0,0,0,0,0,0,0,0,0,0,0,0,0,0,0,0,0,0,0,0,0,0,0,0,0,0,0,0,0,0,0,0,0,
0,0,0,0,0,0,0,0,0,0,0,0,0,0,0,0,0,0,0,0,0,0,0,0,0,0,0,0,0,0,0,0,0,0,0,0,0,0,0,0,0,0,0,0,0,0,0,0,0,0,0,0,0,0,0,0,0,0,0,0,0,0,0,0,0,0,0,0,0,0,0,0,0,0,0,0,0,0,0,0,
0,0,0,0,0,0,0,0,0,0,0,0,0,0,0,0,0,0,0,0,0,0,0,0,0,0,0,0,0,0,0,0,0,0,0,0,0,0,0,0,0,0,0,0,0,0,0,0,0,0,0,0,0,0,0,0,0,0,0,0,0,0,0,0,0,0,0,0,0,0,0,0,0,0,0,0,0,0,0,0,
0,0,0,0,0,0,0,0,0,0,0,0,0,0,0,0,0,0,0,0,0,0,0,0,0,0,0,0,0,0,0,0,0,0,0,0,0,0,0,0,0,0,0,0,0,0,0,0,0,0,0,0,0,0,0,0,0,0,0,0,0,0,0,0,0,0,0,0,0,0,0,0,0,0,0,0,0,0,0,0,
0,0,0,0,0,0,0,0,0,0,0,0,0,0,0,0,0,0,0,0,0,0,0,0,0,0,0,0,0,0,0,0,0,0,0,0,0,0,0,0,0,0,0,0,0,0,0,0,0,0,0,0,0,0,0,0,0,0,0,0,0,0,0,0,0,0,0,0,0,0,0,0,0,0,0,0,0,0,0,0
</data>
 </layer>
 <layer id="9" name="palace" width="80" height="60">
  <data encoding="csv">
0,0,0,0,0,0,0,0,0,0,0,0,0,0,0,0,0,0,0,0,0,0,0,0,0,0,0,0,0,0,0,0,0,0,0,0,0,0,0,0,0,0,0,0,0,0,0,0,0,0,0,0,0,0,0,0,0,0,0,0,0,0,0,0,0,0,0,0,0,0,0,0,0,0,0,0,0,0,0,0,
0,0,0,0,0,0,0,0,0,0,0,0,0,0,0,0,0,0,0,0,0,0,0,0,0,0,0,0,0,0,0,0,0,0,0,0,0,0,0,0,0,0,0,0,0,0,0,0,0,0,0,0,0,0,0,0,0,0,0,0,0,0,0,0,0,0,0,0,0,0,0,0,0,0,0,0,0,0,0,0,
0,0,0,0,0,0,0,0,0,0,0,0,0,0,0,0,0,0,0,0,0,0,0,0,0,0,0,0,0,0,0,0,0,0,0,0,0,0,0,0,0,0,0,0,0,0,0,0,0,0,0,0,0,0,0,0,0,0,0,0,0,0,0,0,0,0,0,0,0,0,0,0,0,0,0,0,0,0,0,0,
0,0,0,0,0,0,0,0,0,0,0,0,0,0,0,0,0,0,0,0,0,0,0,0,0,0,0,0,0,0,0,0,0,0,0,0,0,0,0,0,0,0,0,0,0,0,0,0,0,0,0,0,0,0,0,0,0,0,0,0,0,0,0,0,0,0,0,0,0,0,0,0,0,0,0,0,0,0,0,0,
0,0,0,0,0,0,0,0,0,0,0,0,0,0,0,0,0,0,0,0,0,0,0,0,0,0,0,0,0,0,0,0,0,0,0,0,0,0,0,0,0,0,0,0,0,0,0,0,0,0,0,0,0,0,0,0,0,0,0,0,0,0,0,0,0,0,0,0,0,0,0,0,0,0,0,0,0,0,0,0,
0,0,0,0,0,0,0,0,0,0,0,0,0,0,0,0,0,0,0,0,0,0,0,0,0,0,0,0,0,0,0,0,0,0,0,0,0,0,0,0,0,0,0,0,0,0,0,0,0,0,0,0,0,0,0,0,0,0,0,0,0,0,0,0,0,0,0,0,0,0,0,0,0,0,0,0,0,0,0,0,
0,0,0,0,0,0,0,0,0,0,0,0,0,0,0,0,0,0,0,0,0,0,0,0,0,0,0,0,0,0,0,0,0,0,0,0,0,0,0,0,0,0,0,0,0,0,0,0,0,0,0,0,0,0,0,0,0,0,0,0,0,0,0,0,0,0,0,0,0,0,0,0,0,0,0,0,0,0,0,0,
0,0,0,0,0,0,0,0,0,0,0,0,0,0,0,0,0,0,0,0,0,0,0,0,0,0,0,0,0,0,0,0,0,0,0,0,0,0,0,0,0,0,0,0,0,0,0,0,0,0,0,0,0,0,0,0,0,0,0,0,0,0,0,0,0,0,0,0,0,0,0,0,0,0,0,0,0,0,0,0,
0,0,0,0,0,0,0,0,0,0,0,0,0,0,0,0,0,0,0,0,0,0,0,0,0,0,0,0,0,0,0,0,0,0,0,0,0,0,0,0,0,0,0,0,0,0,0,0,0,0,0,0,0,0,0,0,0,0,0,0,0,0,0,0,0,0,0,0,0,0,0,0,0,0,0,0,0,0,0,0,
0,0,0,0,0,0,0,0,0,0,0,0,0,0,0,0,0,0,0,0,0,0,0,0,0,0,0,0,0,0,0,0,0,0,0,0,0,0,0,0,0,0,0,0,0,0,0,0,0,0,0,0,0,0,0,0,0,0,0,0,0,0,0,0,0,0,0,0,0,0,0,0,0,0,0,0,0,0,0,0,
0,0,0,0,0,0,0,0,0,0,0,0,0,0,0,0,0,0,0,0,0,0,0,0,0,0,0,0,0,0,0,0,0,0,0,0,0,0,0,0,0,0,0,0,0,0,0,0,0,0,0,0,0,0,0,0,0,0,0,0,0,0,0,0,0,0,0,0,0,0,0,0,0,0,0,0,0,0,0,0,
0,0,0,0,0,0,0,0,0,0,0,0,0,0,0,0,0,0,0,0,0,0,0,0,0,0,0,0,0,0,0,0,0,0,0,0,0,0,0,0,0,0,0,0,0,0,0,0,0,0,0,0,0,0,0,0,0,0,0,0,0,0,0,0,0,0,0,0,0,0,0,0,0,0,0,0,0,0,0,0,
0,0,0,0,0,0,0,0,0,0,0,0,0,0,0,103,0,0,103,0,0,0,0,0,0,0,0,0,0,0,0,0,0,0,0,0,0,0,0,0,0,2147483751,0,0,2147483751,0,0,0,0,0,0,0,0,0,0,0,0,0,0,0,0,0,0,0,0,0,0,0,0,0,0,0,0,2147483751,0,0,2147483751,0,0,0,
0,0,0,0,0,0,0,0,0,0,0,0,0,0,0,127,104,119,127,0,0,0,0,0,0,0,0,0,0,0,0,0,0,0,0,0,0,0,0,0,0,2147483775,2147483767,2147483752,2147483775,0,0,0,0,0,0,0,0,0,0,0,0,0,0,0,0,0,0,0,0,0,0,0,0,0,0,0,0,2147483775,2147483767,2147483752,2147483775,0,0,0,
0,0,0,0,0,0,0,0,0,0,0,0,0,0,0,127,110,110,127,0,0,0,0,0,0,0,0,0,0,0,0,0,0,0,0,0,0,0,0,0,0,2147483775,2147483758,2147483758,2147483775,0,0,0,0,0,0,0,0,0,0,0,0,0,0,0,0,0,0,0,0,0,0,0,0,0,0,0,0,2147483775,2147483758,2147483758,2147483775,0,0,0,
0,0,0,0,0,0,0,0,0,0,0,0,0,0,97,127,100,102,127,99,0,0,0,0,0,0,0,0,0,0,0,0,0,0,0,0,0,0,0,0,2147483747,2147483775,2147483750,2147483748,2147483775,2147483745,0,0,0,0,0,0,0,0,0,0,0,0,0,0,0,0,0,0,0,0,0,0,0,0,0,0,2147483747,2147483775,2147483750,2147483748,2147483775,2147483745,0,0,
0,0,0,0,0,0,0,0,0,0,0,0,0,0,121,127,112,113,126,2147483757,0,0,0,0,0,0,0,0,0,0,0,0,0,0,0,0,0,0,0,0,109,2147483774,2147483761,2147483760,2147483775,2147483769,0,0,0,0,0,0,0,0,0,0,0,0,0,0,0,0,0,0,0,0,0,0,0,0,0,0,109,2147483774,2147483761,2147483760,2147483775,2147483769,0,0,
0,0,0,0,0,0,0,0,0,0,0,0,0,0,109,127,124,125,127,2147483757,0,0,0,0,0,0,0,0,0,0,0,0,0,0,0,0,0,0,0,0,109,2147483775,2147483773,2147483772,2147483775,2147483757,0,0,0,0,0,0,0,0,0,0,0,0,0,0,0,0,0,0,0,0,0,0,0,0,0,0,109,2147483775,2147483773,2147483772,2147483775,2147483757,0,0,
0,0,0,0,0,0,0,0,0,0,0,0,0,0,0,0,0,0,0,0,0,0,0,0,0,0,0,0,0,0,0,0,0,0,0,0,0,0,0,0,0,0,0,0,0,0,0,0,0,0,0,0,0,0,0,0,0,0,0,0,0,0,0,0,0,0,0,0,0,0,0,0,0,0,0,0,0,0,0,0,
0,0,0,0,0,0,0,0,0,0,0,0,0,0,0,0,0,0,0,0,0,0,0,0,0,0,0,0,0,0,0,0,0,0,0,0,0,0,0,0,0,0,0,0,0,0,0,0,0,0,0,0,0,0,0,0,0,0,0,0,0,0,0,0,0,0,0,0,0,0,0,0,0,0,0,0,0,0,0,0,
0,0,0,0,0,0,0,0,0,0,0,0,0,0,0,0,0,0,0,0,0,0,0,0,0,0,0,0,0,0,0,0,0,0,0,0,0,0,0,0,0,0,0,0,0,0,0,0,0,0,0,0,0,0,0,0,0,0,0,0,0,0,0,0,0,0,0,0,0,0,0,0,0,0,0,0,0,0,0,0,
0,0,0,0,0,0,0,0,0,0,0,0,0,0,0,0,0,0,0,0,0,0,0,0,0,0,0,0,0,0,0,0,0,0,0,0,0,0,0,0,0,0,0,0,0,0,0,0,0,0,0,0,0,0,0,0,0,0,0,0,0,0,0,0,0,0,0,0,0,0,0,0,0,0,0,0,0,0,0,0,
0,0,0,0,0,0,0,0,0,0,0,0,0,0,0,0,0,0,0,0,0,0,0,0,0,0,0,0,0,0,0,0,0,0,0,0,0,0,0,0,0,0,0,0,0,0,0,0,0,0,0,0,0,0,0,0,0,0,0,0,0,0,0,0,0,0,0,0,0,0,0,0,0,0,0,0,0,0,0,0,
0,0,0,0,0,0,0,0,0,0,0,0,0,0,0,0,0,0,0,0,0,0,0,0,0,0,0,0,0,0,0,0,0,0,0,0,0,0,0,0,0,0,0,0,0,0,0,0,0,0,0,0,0,0,0,0,0,0,0,0,0,0,0,0,0,0,0,0,0,0,0,0,0,0,0,0,0,0,0,0,
0,0,0,0,0,0,0,0,0,0,0,0,0,0,0,0,0,0,0,0,0,0,0,0,0,0,0,0,0,0,0,0,0,0,0,0,0,0,0,0,0,0,0,0,0,0,0,0,0,0,0,0,0,0,0,0,0,0,0,0,0,0,0,0,0,0,0,0,0,0,0,0,0,0,0,0,0,0,0,0,
0,0,0,0,0,0,0,0,0,0,0,0,0,0,0,0,0,0,0,0,0,0,0,0,0,0,0,0,0,0,0,0,0,0,0,0,0,0,0,0,0,0,0,0,0,0,0,0,0,0,0,0,0,0,0,0,0,0,0,0,0,0,0,0,0,0,0,0,0,0,0,0,0,0,0,0,0,0,0,0,
0,0,0,0,0,0,0,0,0,0,0,0,0,0,0,0,0,0,0,0,0,0,0,0,0,0,0,0,0,0,0,0,0,0,0,0,0,0,0,0,0,0,0,0,0,0,0,0,0,0,0,0,0,0,0,0,0,0,0,0,0,0,0,0,0,0,0,0,0,0,0,0,0,0,0,0,0,0,0,0,
0,0,0,0,0,0,0,0,0,0,0,0,0,0,0,0,0,0,0,0,0,0,0,0,0,0,0,0,0,0,0,0,0,0,0,0,0,0,0,0,0,0,0,0,0,0,0,0,0,0,0,0,0,0,0,0,0,0,0,0,0,0,0,0,0,0,0,0,0,0,0,0,0,0,0,0,0,0,0,0,
0,0,0,0,0,0,0,0,0,0,0,0,0,0,0,0,0,0,0,0,0,0,0,0,0,0,0,0,0,0,0,0,0,0,0,0,0,0,0,0,0,0,0,0,0,0,0,0,0,0,0,0,0,0,0,0,0,0,0,0,0,0,0,0,0,0,0,0,0,0,0,0,0,0,0,0,0,0,0,0,
0,0,0,0,0,0,0,0,0,0,0,0,0,0,0,0,0,0,0,0,0,0,0,0,0,0,0,0,0,0,0,0,0,0,0,0,0,0,0,0,0,0,0,0,0,0,0,0,0,0,0,0,0,0,0,0,0,0,0,0,0,0,0,0,0,0,0,0,0,0,0,0,0,0,0,0,0,0,0,0,
0,0,0,0,0,0,0,0,0,0,0,0,0,0,0,0,0,0,0,0,0,0,0,0,0,0,0,0,0,0,0,0,0,0,0,0,0,0,0,0,0,0,0,0,0,0,0,0,0,0,0,0,0,0,0,0,0,0,0,0,0,0,0,0,0,0,0,0,0,0,0,0,0,0,0,0,0,0,0,0,
0,0,0,0,0,0,0,0,0,0,0,0,0,0,0,0,0,0,0,0,0,0,0,0,0,0,0,0,0,0,0,0,0,0,0,0,0,0,0,0,0,0,0,0,0,0,0,0,0,0,0,0,0,0,0,0,0,0,0,0,0,0,0,0,0,0,0,0,0,0,0,0,0,0,0,0,0,0,0,0,
0,0,0,0,0,0,0,0,0,0,0,0,0,0,0,103,0,0,103,0,0,0,0,0,0,0,0,0,0,0,0,0,0,0,0,0,0,0,0,0,0,0,0,0,0,103,0,0,103,0,0,0,0,0,0,0,0,0,0,0,0,0,0,0,0,0,0,0,0,0,0,2147483751,0,0,2147483751,0,0,0,0,0,
0,0,0,0,0,0,0,0,0,0,0,0,0,0,0,127,104,119,127,0,0,0,0,0,0,0,0,0,0,0,0,0,0,0,0,0,0,0,0,0,0,0,0,0,0,127,104,119,127,0,0,0,0,0,0,0,0,0,0,0,0,0,0,0,0,0,0,0,0,0,0,2147483775,2147483767,2147483752,2147483775,0,0,0,0,0,
0,0,0,0,0,0,0,0,0,0,0,0,0,0,0,127,110,110,127,0,0,0,0,0,0,0,0,0,0,0,0,0,0,0,0,0,0,0,0,0,0,0,0,0,0,127,110,110,127,0,0,0,0,0,0,0,0,0,0,0,0,0,0,0,0,0,0,0,0,0,0,2147483775,2147483758,2147483758,2147483775,0,0,0,0,0,
0,0,0,0,0,0,0,0,0,0,0,0,0,0,97,127,100,102,127,99,0,0,0,0,0,0,0,0,0,0,0,0,0,0,0,0,0,0,0,0,0,0,0,0,97,127,100,102,127,99,0,0,0,0,0,0,0,0,0,0,0,0,0,0,0,0,0,0,0,0,2147483747,2147483775,2147483750,2147483748,2147483775,2147483745,0,0,0,0,
0,0,0,0,0,0,0,0,0,0,0,0,0,0,121,127,112,113,126,2147483757,0,0,0,0,0,0,0,0,0,0,0,0,0,0,0,0,0,0,0,0,0,0,0,0,121,127,112,113,126,2147483757,0,0,0,0,0,0,0,0,0,0,0,0,0,0,0,0,0,0,0,0,109,2147483774,2147483761,2147483760,2147483775,2147483769,0,0,0,0,
0,0,0,0,0,0,0,0,0,0,0,0,0,0,109,127,124,125,127,2147483757,0,0,0,0,0,0,0,0,0,0,0,0,0,0,0,0,0,0,0,0,0,0,0,0,109,127,124,125,127,2147483757,0,0,0,0,0,0,0,0,0,0,0,0,0,0,0,0,0,0,0,0,109,2147483775,2147483773,2147483772,2147483775,2147483757,0,0,0,0,
0,0,0,0,0,0,0,0,0,0,0,0,0,0,0,0,0,0,0,0,0,0,0,0,0,0,0,0,0,0,0,0,0,0,0,0,0,0,0,0,0,0,0,0,0,0,0,0,0,0,0,0,0,0,0,0,0,0,0,0,0,0,0,0,0,0,0,0,0,0,0,0,0,0,0,0,0,0,0,0,
0,0,0,0,0,0,0,0,0,0,0,0,0,0,0,0,0,0,0,0,0,0,0,0,0,0,0,0,0,0,0,0,0,0,0,0,0,0,0,0,0,0,0,0,0,0,0,0,0,0,0,0,0,0,0,0,0,0,0,0,0,0,0,0,0,0,0,0,0,0,0,0,0,0,0,0,0,0,0,0,
0,0,0,0,0,0,0,0,0,0,0,0,0,0,0,0,0,0,0,0,0,0,0,0,0,0,0,0,0,0,0,0,0,0,0,0,0,0,0,0,0,0,0,0,0,0,0,0,0,0,0,0,0,0,0,0,0,0,0,0,0,0,0,0,0,0,0,0,0,0,0,0,0,0,0,0,0,0,0,0,
0,0,0,0,0,0,0,0,0,0,0,0,0,0,0,0,0,0,0,0,0,0,0,0,0,0,0,0,0,0,0,0,0,0,0,0,0,0,0,0,0,0,0,0,0,0,0,0,0,0,0,0,0,0,0,0,0,0,0,0,0,0,0,0,0,0,0,0,0,0,0,0,0,0,0,0,0,0,0,0,
0,0,0,0,0,0,0,0,0,0,0,0,0,0,0,0,0,0,0,0,0,0,0,0,0,0,0,0,0,0,0,0,0,0,0,0,0,0,0,0,0,0,0,0,0,0,0,0,0,0,0,0,0,0,0,0,0,0,0,0,0,0,0,0,0,0,0,0,0,0,0,0,0,0,0,0,0,0,0,0,
0,0,0,0,0,0,0,0,0,0,0,0,0,0,0,0,0,0,0,0,0,0,0,0,0,0,0,0,0,0,0,0,0,0,0,0,0,0,0,0,0,0,0,0,0,0,0,0,0,0,0,0,0,0,0,0,0,0,0,0,0,0,0,0,0,0,0,0,0,0,0,0,0,0,0,0,0,0,0,0,
0,0,0,0,0,0,0,0,0,0,0,0,0,0,0,0,0,0,0,0,0,0,0,0,0,0,0,0,0,0,0,0,0,0,0,0,0,0,0,0,0,0,0,0,0,0,0,0,0,0,0,0,0,0,0,0,0,0,0,0,0,0,0,0,0,0,0,0,0,0,0,0,0,0,0,0,0,0,0,0,
0,0,0,0,0,0,0,0,0,0,0,0,0,0,0,0,0,0,0,0,0,0,0,0,0,0,0,0,0,0,0,0,0,0,0,0,0,0,0,0,0,0,0,0,0,0,0,0,0,0,0,0,0,0,0,0,0,0,0,0,0,0,0,0,0,0,0,0,0,0,0,0,0,0,0,0,0,0,0,0,
0,0,0,0,0,0,0,0,0,0,0,0,0,0,0,0,0,0,0,0,0,0,0,0,0,0,0,0,0,0,0,0,0,0,0,0,0,0,0,0,0,0,0,0,0,0,0,0,0,0,0,0,0,0,0,0,0,0,0,0,0,0,0,0,0,0,0,0,0,0,0,0,0,0,0,0,0,0,0,0,
0,0,0,0,0,0,0,0,0,0,0,0,0,0,0,0,0,0,0,0,0,0,0,0,0,0,0,0,0,0,0,0,0,0,0,0,0,0,0,0,0,0,0,0,0,0,0,0,0,0,0,0,0,0,0,0,0,0,0,0,0,0,0,0,0,0,0,0,0,0,0,0,0,0,0,0,0,0,0,0,
0,0,0,0,0,0,0,0,0,0,0,0,0,0,0,0,0,0,0,0,0,0,0,0,0,0,0,0,0,0,0,0,0,0,0,0,0,0,0,0,0,0,0,0,0,0,0,0,0,0,0,0,0,0,0,0,0,0,0,0,0,0,0,0,0,0,0,0,0,0,0,0,0,0,0,0,0,0,0,0,
0,0,0,0,0,0,0,0,0,0,0,0,0,0,0,0,0,0,0,0,0,0,0,0,0,0,0,0,0,0,0,0,0,0,0,0,0,0,0,0,0,0,0,0,0,0,0,0,0,0,0,0,0,0,0,0,0,0,0,0,0,0,0,0,0,0,0,0,0,0,0,0,0,0,0,0,0,0,0,0,
0,0,0,0,0,0,0,0,0,0,0,0,0,0,0,0,0,0,0,0,0,0,0,0,0,0,0,0,0,0,0,0,0,0,0,0,0,0,0,0,0,0,0,0,0,0,0,0,0,0,0,0,0,0,0,0,0,0,0,0,0,0,0,0,0,0,0,0,0,0,0,0,0,0,0,0,0,0,0,0,
0,0,0,0,0,0,0,0,0,0,0,0,0,0,0,0,0,0,0,0,0,0,0,0,0,0,0,0,0,0,0,0,0,0,0,0,0,0,0,0,0,0,0,0,0,0,0,0,0,0,0,0,0,0,0,0,0,0,0,0,0,0,0,0,0,0,0,0,0,0,0,0,0,0,0,0,0,0,0,0,
0,0,0,0,0,0,0,0,0,0,0,0,0,0,0,0,0,0,0,0,0,0,0,0,0,0,0,0,0,0,0,0,0,0,0,0,0,0,0,0,0,0,2147483751,0,0,2147483751,0,0,0,0,0,0,0,0,0,0,0,0,0,0,0,0,0,0,0,0,0,0,0,0,0,0,0,0,0,0,0,0,0,0,
0,0,0,0,0,0,0,0,0,0,0,0,0,0,0,0,0,0,0,0,0,0,0,0,0,0,0,0,0,0,0,0,0,0,0,0,0,0,0,0,0,0,2147483775,2147483767,2147483752,2147483775,0,0,0,0,0,0,0,0,0,0,0,0,0,0,0,0,0,0,0,0,0,0,0,0,0,0,0,0,0,0,0,0,0,0,
0,0,0,0,0,0,0,0,0,0,0,0,0,0,0,0,0,0,0,0,0,0,0,0,0,0,0,0,0,0,0,0,0,0,0,0,0,0,0,0,0,0,2147483775,2147483758,2147483758,2147483775,0,0,0,0,0,0,0,0,0,0,0,0,0,0,0,0,0,0,0,0,0,0,0,0,0,0,0,0,0,0,0,0,0,0,
0,0,0,0,0,0,0,0,0,0,0,0,0,0,0,0,0,0,0,0,0,0,0,0,0,0,0,0,0,0,0,0,0,0,0,0,0,0,0,0,0,2147483747,2147483775,2147483750,2147483748,2147483775,2147483745,0,0,0,0,0,0,0,0,0,0,0,0,0,0,0,0,0,0,0,0,0,0,0,0,0,0,0,0,0,0,0,0,0,
0,0,0,0,0,0,0,0,0,0,0,0,0,0,0,0,0,0,0,0,0,0,0,0,0,0,0,0,0,0,0,0,0,0,0,0,0,0,0,0,0,109,2147483774,2147483761,2147483760,2147483775,2147483769,0,0,0,0,0,0,0,0,0,0,0,0,0,0,0,0,0,0,0,0,0,0,0,0,0,0,0,0,0,0,0,0,0,
0,0,0,0,0,0,0,0,0,0,0,0,0,0,0,0,0,0,0,0,0,0,0,0,0,0,0,0,0,0,0,0,0,0,0,0,0,0,0,0,0,109,2147483775,2147483773,2147483772,2147483775,2147483757,0,0,0,0,0,0,0,0,0,0,0,0,0,0,0,0,0,0,0,0,0,0,0,0,0,0,0,0,0,0,0,0,0,
0,0,0,0,0,0,0,0,0,0,0,0,0,0,0,0,0,0,0,0,0,0,0,0,0,0,0,0,0,0,0,0,0,0,0,0,0,0,0,0,0,0,0,0,0,0,0,0,0,0,0,0,0,0,0,0,0,0,0,0,0,0,0,0,0,0,0,0,0,0,0,0,0,0,0,0,0,0,0,0,
0,0,0,0,0,0,0,0,0,0,0,0,0,0,0,0,0,0,0,0,0,0,0,0,0,0,0,0,0,0,0,0,0,0,0,0,0,0,0,0,0,0,0,0,0,0,0,0,0,0,0,0,0,0,0,0,0,0,0,0,0,0,0,0,0,0,0,0,0,0,0,0,0,0,0,0,0,0,0,0
</data>
 </layer>
 <layer id="10" name="house2" width="80" height="60" visible="0">
  <data encoding="csv">
0,0,0,0,0,0,18,0,0,0,0,0,0,0,0,0,0,0,0,0,0,0,0,0,0,0,0,0,0,0,0,0,0,0,0,0,0,0,0,0,0,0,0,0,0,0,0,0,0,0,0,0,0,2147483666,0,0,0,0,0,0,0,0,0,0,0,0,18,0,0,0,0,0,0,2147483666,0,0,0,0,0,0,
0,0,0,0,0,0,0,0,18,0,0,0,0,0,0,0,0,0,0,0,0,0,0,0,0,0,0,0,0,0,0,0,0,0,0,0,0,0,0,0,0,0,0,0,0,0,0,0,0,0,0,2147483666,0,0,0,0,0,0,0,0,0,0,0,0,0,0,0,0,0,0,0,0,0,0,0,0,0,0,0,0,
0,0,0,0,0,0,0,0,0,0,0,0,0,0,0,0,0,0,0,0,0,0,0,0,0,0,0,0,0,0,0,0,0,0,0,0,0,0,0,0,0,0,0,0,0,0,0,0,0,0,0,0,0,0,0,0,0,0,0,0,0,0,0,0,0,0,0,0,0,45,46,46,47,0,0,0,0,0,0,0,
0,0,0,0,0,0,0,0,0,0,0,0,0,0,0,93,0,0,0,0,0,0,0,0,0,18,0,0,0,0,0,0,0,0,2147483666,0,0,0,0,0,0,0,0,0,2147483741,0,0,0,0,0,0,0,0,0,0,0,0,0,0,0,0,0,0,0,0,0,0,0,0,57,131,58,59,0,0,0,0,0,0,0,
0,0,0,0,0,0,0,0,0,0,0,0,0,0,0,105,131,0,0,0,0,0,0,0,0,0,0,0,0,0,0,0,0,0,0,0,0,0,0,0,0,0,0,2147483779,2147483753,0,0,0,0,0,0,0,0,0,0,0,0,0,0,0,0,0,0,0,0,0,0,30,49,52,50,50,51,0,0,0,0,0,0,0,
0,0,0,0,0,0,0,0,0,0,0,0,0,0,44,0,0,0,18,93,0,0,0,0,0,0,0,0,0,0,0,0,0,0,0,0,0,0,0,0,2147483741,2147483666,0,0,0,2147483692,0,0,0,0,0,0,0,0,0,0,0,0,0,0,0,0,0,0,0,0,0,93,61,62,64,64,63,0,0,0,0,0,0,0,
0,0,0,0,0,0,0,0,0,0,0,0,0,13,14,15,0,0,132,105,0,0,0,0,0,0,0,0,13,14,2147483662,2147483661,0,0,0,0,0,0,0,0,2147483753,2147483780,0,0,2147483663,2147483662,2147483661,0,0,0,0,0,0,0,0,0,0,0,0,0,0,0,0,0,0,0,0,105,77,89,91,92,80,0,0,0,0,0,0,0,
0,0,0,0,0,0,0,0,0,0,0,0,0,25,40,27,13,14,14,14,13,14,14,15,0,0,13,14,26,40,2147483688,2147483674,2147483662,2147483661,0,0,2147483663,2147483662,2147483662,2147483661,2147483662,2147483662,2147483662,2147483661,2147483675,2147483688,2147483673,0,0,0,0,0,0,0,0,0,0,0,0,0,0,0,0,0,0,0,0,0,0,0,0,25,40,0,0,0,0,0,0,0,
0,0,0,0,0,0,0,0,0,0,0,13,14,26,26,26,26,38,26,40,26,26,26,26,14,14,26,40,26,38,2147483686,2147483674,2147483688,2147483674,2147483662,2147483662,2147483674,2147483674,2147483674,2147483674,2147483688,2147483674,2147483686,2147483674,2147483674,2147483674,2147483674,2147483662,2147483661,0,0,0,0,0,0,0,0,0,0,0,0,0,0,0,0,0,0,0,0,13,14,26,26,0,0,0,0,0,0,0,
0,0,45,46,46,47,0,0,0,13,14,26,40,26,26,38,39,0,37,38,26,40,40,26,38,38,38,38,39,0,0,2147483687,2147483686,2147483686,2147483686,2147483686,2147483674,2147483688,2147483688,2147483674,2147483686,2147483685,0,2147483687,2147483686,2147483674,2147483674,2147483688,2147483674,2147483662,2147483661,0,0,0,2147483695,2147483694,2147483694,2147483693,0,0,0,0,0,0,0,0,0,13,14,26,40,26,26,0,0,0,0,0,0,0,
0,0,57,131,58,59,0,0,0,25,26,26,26,38,39,0,0,38,0,0,37,38,38,39,0,0,0,0,0,0,0,0,0,0,0,0,2147483687,2147483686,2147483686,2147483685,0,0,2147483686,0,0,2147483687,2147483686,2147483674,2147483674,2147483674,2147483673,0,0,0,2147483707,2147483706,2147483779,2147483705,0,0,0,0,0,0,0,0,0,25,26,26,26,38,39,0,0,0,0,0,0,0,
30,49,52,50,50,51,0,13,14,0,0,0,39,0,0,0,0,0,0,0,0,18,30,0,0,0,0,0,0,0,0,0,0,0,0,0,0,2147483678,2147483666,0,0,0,0,0,0,0,0,2147483687,0,0,0,2147483662,2147483661,0,2147483699,2147483698,2147483698,2147483700,2147483697,2147483678,0,0,0,0,0,13,14,0,0,0,39,0,0,0,0,0,0,0,0,0,
93,61,62,64,64,63,13,0,0,26,26,27,0,0,0,0,0,0,0,0,0,30,18,0,0,0,0,0,0,0,0,0,0,0,0,0,0,2147483666,2147483678,0,0,0,0,0,0,0,0,0,2147483675,2147483674,2147483674,0,0,2147483661,2147483711,2147483712,2147483712,2147483710,2147483709,2147483741,0,0,0,13,13,0,0,26,26,27,0,0,0,0,0,0,0,0,0,0,
105,77,89,91,92,80,25,26,26,40,38,39,0,0,0,0,0,0,0,0,0,0,30,0,0,0,0,0,0,0,0,0,0,0,0,0,0,2147483678,0,0,0,0,0,0,0,0,0,0,2147483687,2147483686,2147483688,2147483674,2147483674,2147483673,2147483728,2147483740,2147483739,2147483737,2147483725,2147483753,0,13,14,26,25,26,26,40,38,39,0,0,0,0,0,0,0,0,0,0,
0,0,0,13,14,14,26,26,38,39,0,0,0,0,0,0,0,0,0,0,0,0,0,0,0,0,0,0,0,0,0,0,0,0,0,0,0,0,0,0,0,0,0,0,0,0,0,0,0,0,2147483687,2147483686,2147483674,2147483674,2147483662,2147483662,2147483661,0,0,0,0,13,14,26,26,26,38,39,0,0,0,0,0,0,0,0,0,0,0,0,
0,0,0,25,40,0,26,39,0,0,0,0,0,0,0,0,0,0,0,0,0,0,0,0,0,0,0,0,0,0,0,0,0,0,0,0,0,0,0,0,0,0,0,0,0,0,0,0,0,0,0,0,2147483687,2147483674,0,2147483688,2147483673,0,0,0,0,0,0,25,40,0,26,39,0,0,0,0,0,0,0,0,0,0,0,0,
0,13,14,26,0,40,27,3,0,0,0,0,0,30,0,0,0,0,0,0,0,0,0,0,0,0,0,0,0,0,0,0,0,0,0,0,0,0,0,0,0,0,0,0,0,0,2147483678,0,0,0,0,0,2147483651,2147483675,2147483688,0,2147483674,2147483662,2147483661,0,0,13,14,26,0,40,27,3,0,0,0,0,0,0,0,0,0,0,2147483678,0,
13,26,26,41,0,38,39,0,0,0,0,0,0,93,0,0,0,0,0,0,0,18,0,0,0,0,0,0,0,0,0,0,0,0,0,0,0,0,2147483666,0,0,0,0,0,0,0,2147483741,0,0,0,0,0,0,2147483687,2147483686,0,2147483689,2147483674,2147483674,2147483661,13,26,26,41,0,38,39,0,0,0,0,0,0,0,0,0,0,0,2147483741,0,
26,41,1073741850,1073741850,1073741850,0,1073741839,0,0,0,0,0,0,105,18,0,0,0,0,0,0,0,0,0,0,0,0,0,0,0,0,0,0,0,0,0,0,0,0,0,0,0,0,0,0,2147483666,2147483753,0,0,0,0,0,0,0,0,0,0,2147483674,2147483689,2147483674,26,41,26,0,0,0,0,0,0,0,0,0,0,0,0,0,0,2147483666,2147483753,0,
26,26,1073741850,1073741865,1073741850,0,0,0,0,0,0,0,0,0,0,0,0,0,0,0,0,0,0,0,0,0,0,0,0,0,0,0,0,0,0,0,0,0,0,0,0,0,0,0,0,0,0,0,0,0,0,0,0,0,0,2147483663,0,2147483674,2147483674,2147483674,26,26,26,26,41,0,0,0,0,0,0,0,0,0,0,0,0,0,0,0,
1073741850,1073741850,1073741837,1073741850,1073741850,1073741865,18,0,0,0,0,0,0,0,0,0,0,0,0,0,0,0,0,0,0,0,0,0,0,0,0,0,0,0,0,0,18,0,0,0,0,0,0,0,0,0,0,0,0,0,0,0,0,0,0,0,2147483687,2147483687,2147483674,2147483688,2147483688,41,41,26,0,0,0,0,0,0,0,0,0,0,0,0,0,0,0,0,
1073741850,1073741865,1073741850,1073741837,1073741838,1073741850,1073741839,0,18,0,0,0,0,0,0,0,0,0,0,0,0,0,0,0,0,0,0,0,0,0,0,0,0,0,0,0,0,0,18,0,0,0,0,0,0,0,0,0,0,0,0,0,0,0,0,0,2147483651,2147483651,2147483675,2147483688,2147483674,26,26,26,0,0,0,0,0,0,0,0,0,0,0,0,0,0,0,0,
1073741837,1073741850,1073741850,1073741850,1073741850,1073741849,1073741864,0,0,0,0,0,0,0,0,0,0,0,0,0,0,0,0,0,0,0,0,0,0,0,0,0,0,0,0,0,0,0,0,0,0,0,0,0,0,0,0,0,0,0,0,0,0,0,0,0,2147483687,2147483674,2147483687,2147483688,2147483673,2147483689,2147483674,2147483674,2147483661,0,0,0,0,0,0,0,0,0,0,0,0,0,0,0,
0,1073741837,1073741850,1073741850,1073741850,1073741865,1073741839,0,0,0,0,0,0,0,0,93,0,0,0,0,0,0,0,0,0,18,0,0,0,0,0,0,0,0,0,0,0,0,0,0,0,0,0,0,0,93,0,0,0,0,0,0,0,0,0,18,2147483651,2147483675,2147483688,2147483688,2147483674,2147483662,2147483661,2147483689,2147483674,0,0,0,0,0,0,0,0,0,2147483741,0,0,0,0,0,
0,0,1073741850,1073741850,1073741850,1073741850,1073741839,1073741839,0,0,0,0,0,0,0,105,131,0,0,0,0,0,0,0,0,0,0,0,0,0,0,0,0,0,0,0,0,0,0,0,0,0,0,0,0,105,131,0,0,0,0,0,0,0,0,0,2147483651,2147483687,2147483686,2147483663,2147483689,2147483674,2147483674,2147483661,2147483674,0,0,0,0,0,0,0,0,2147483779,2147483753,0,0,0,0,0,
0,0,1073741850,1073741850,1073741850,1073741850,1073741850,0,1073741839,0,0,0,0,0,44,0,0,0,18,93,0,0,0,0,0,0,0,0,0,0,0,0,0,0,0,0,0,0,0,0,0,0,0,0,44,0,0,0,18,93,0,0,0,0,0,0,0,2147483687,2147483686,0,2147483689,2147483674,2147483689,2147483674,0,0,0,0,0,0,2147483741,2147483666,0,0,0,2147483692,0,0,0,0,
0,0,1073741837,1073741837,1073741850,1073741865,1073741850,1073741850,1073741850,0,1073741839,0,0,13,14,15,0,0,132,105,0,0,0,0,0,0,0,0,13,14,0,0,0,0,0,0,0,0,0,0,0,0,0,13,14,15,0,0,132,105,0,0,0,0,0,0,0,0,13,2147483663,2147483662,2147483674,2147483674,2147483674,0,0,0,0,0,0,2147483753,2147483780,0,0,2147483663,2147483662,2147483661,0,0,0,
0,0,0,1073741837,1073741837,1073741850,1073741850,1073741865,1073741850,0,0,0,0,25,40,27,13,14,14,14,13,14,14,15,0,0,13,14,26,40,0,0,0,0,0,0,0,0,0,0,0,0,0,25,40,27,13,14,14,14,13,14,14,15,0,0,13,14,26,2147483663,2147483688,2147483674,2147483674,2147483674,0,0,2147483663,2147483662,2147483662,2147483661,2147483662,2147483662,2147483662,2147483661,2147483675,2147483688,2147483673,0,0,0,
0,0,0,0,0,1073741837,1073741837,1073741850,1073741850,1073741865,0,13,14,26,26,26,26,38,26,40,26,26,26,26,14,14,26,40,26,38,0,0,0,0,0,0,0,0,0,0,0,13,14,26,26,26,26,38,26,40,26,26,26,26,14,14,26,40,26,38,2147483686,2147483674,2147483688,2147483674,2147483662,2147483662,2147483674,2147483674,2147483674,2147483674,2147483688,2147483674,2147483686,2147483674,2147483674,2147483674,2147483674,2147483662,2147483661,0,
0,0,45,46,46,47,0,1073741837,1073741838,1073741850,14,26,40,26,26,38,39,0,37,38,26,40,40,26,38,38,38,38,39,0,0,0,45,46,46,47,0,0,0,13,14,26,40,26,26,38,39,0,37,38,26,40,40,26,38,38,38,38,39,0,0,2147483687,2147483686,2147483686,2147483686,2147483686,2147483674,2147483688,2147483688,2147483674,2147483686,2147483685,0,2147483687,2147483686,2147483674,2147483674,2147483688,2147483674,2147483662,
0,0,57,131,58,59,0,0,0,1073741849,1073741864,26,26,38,39,0,0,38,0,0,38,38,38,39,0,0,0,0,0,0,0,0,57,131,58,59,0,0,0,25,26,26,26,38,39,0,0,38,0,0,37,38,38,39,0,0,0,0,0,0,0,0,0,0,0,0,2147483687,2147483686,2147483686,2147483685,0,0,2147483686,0,0,2147483687,2147483686,2147483674,2147483674,2147483674,
30,49,52,50,50,51,0,13,14,0,0,0,39,0,0,0,0,0,0,0,0,18,30,0,0,0,0,0,0,0,30,49,52,50,50,51,0,13,14,0,0,0,39,0,0,0,0,0,0,0,0,18,30,0,0,0,0,0,0,0,0,0,0,0,0,0,0,2147483678,2147483666,0,0,0,0,0,0,0,0,2147483687,0,0,
93,61,62,64,64,63,13,0,0,26,26,27,0,0,0,0,0,0,0,0,0,30,18,0,0,0,0,0,0,0,93,61,62,64,64,63,13,0,0,26,26,27,0,0,0,0,0,0,0,0,0,30,18,0,0,0,0,0,0,0,0,0,0,0,0,0,0,2147483666,2147483678,0,0,0,0,0,0,0,0,0,2147483675,2147483674,
105,77,89,91,92,80,25,26,26,40,38,39,0,0,0,0,0,0,0,0,0,0,30,0,0,0,0,0,0,0,105,77,89,91,92,80,25,26,26,40,38,39,0,0,0,0,0,0,0,0,0,0,30,0,0,0,0,0,0,0,0,0,0,0,0,0,0,2147483678,0,0,0,0,0,0,0,0,0,0,2147483687,2147483686,
0,0,0,13,14,14,26,26,38,39,0,0,0,0,0,0,0,0,0,0,0,0,0,0,0,0,0,0,0,0,0,0,0,13,14,14,26,26,38,39,0,0,0,0,0,0,0,0,0,0,0,0,0,0,0,0,0,0,0,0,0,0,0,0,0,0,0,0,0,0,0,0,0,0,0,0,0,0,0,0,
0,0,0,25,40,0,26,39,0,0,0,0,0,0,0,0,0,0,0,0,0,0,0,0,0,0,0,0,0,0,0,0,0,25,40,0,26,39,0,0,0,0,0,0,0,0,0,0,0,0,0,0,0,0,0,0,0,0,0,0,0,0,0,0,0,0,0,0,0,0,0,0,0,0,0,0,0,0,0,0,
0,13,14,26,0,40,27,3,0,0,0,0,0,30,0,0,0,0,0,0,0,0,0,0,0,0,0,0,0,0,2147483666,13,14,26,0,40,27,3,0,0,0,0,0,30,0,0,0,0,0,0,0,0,0,0,0,0,0,0,0,0,0,0,0,0,0,0,0,0,0,0,0,0,0,0,0,0,2147483678,0,0,0,
13,26,26,41,0,38,39,0,0,0,0,0,0,93,0,0,0,0,0,0,0,18,0,0,0,0,0,0,0,0,13,26,26,41,0,38,39,0,0,0,0,0,0,93,0,0,0,0,0,0,0,18,0,0,0,0,0,0,0,0,0,0,0,0,0,0,0,0,2147483666,0,0,0,0,0,0,0,2147483741,0,0,0,
26,41,26,0,0,0,0,0,0,0,0,0,0,105,18,0,0,0,0,0,0,0,0,2147483741,0,0,0,0,0,0,26,41,26,0,0,0,0,0,0,0,0,0,0,105,18,0,0,0,0,0,0,0,0,0,0,0,0,0,0,0,0,0,0,0,0,0,0,0,0,0,0,0,0,0,0,2147483666,2147483753,0,0,0,
26,26,26,0,15,0,0,0,0,0,0,0,0,0,0,0,0,0,0,0,0,0,2147483779,2147483753,0,0,0,0,0,0,26,26,26,0,15,0,0,0,0,0,0,0,0,0,0,0,0,0,0,0,0,0,0,0,0,0,0,0,0,0,0,0,0,0,0,0,0,0,0,0,0,0,0,0,0,0,0,0,0,0,
2147483674,2147483662,2147483661,0,0,0,0,0,0,0,0,0,0,0,0,0,0,0,0,0,0,0,0,0,0,0,0,0,0,0,0,0,0,0,0,0,0,0,0,0,0,0,0,0,0,0,0,0,0,0,0,0,0,0,2147483666,0,0,0,0,0,0,0,0,0,0,0,0,18,0,0,0,0,0,0,0,0,0,0,0,0,
2147483674,2147483688,2147483674,2147483662,2147483661,0,0,0,2147483695,2147483694,2147483694,2147483693,0,0,0,0,0,0,0,0,0,0,0,0,0,0,0,0,0,0,0,0,0,0,0,0,0,0,0,0,0,0,0,0,0,0,0,0,0,0,0,0,2147483666,0,0,0,0,0,0,0,0,0,0,0,0,0,0,0,0,0,0,0,0,0,0,0,0,0,0,0,
2147483686,2147483674,2147483674,2147483674,2147483673,0,0,0,2147483707,2147483706,2147483779,2147483705,0,0,0,0,0,0,0,0,0,0,0,0,0,0,0,0,0,0,0,0,0,0,0,0,0,0,0,0,0,0,0,0,0,0,0,0,0,0,0,0,0,0,0,0,0,0,0,0,0,0,0,0,0,0,0,0,0,0,0,0,0,0,0,0,0,0,0,0,
0,2147483687,0,0,0,2147483662,2147483661,0,2147483699,2147483698,2147483698,2147483700,2147483697,2147483678,0,0,0,0,0,0,0,0,0,0,0,0,0,0,0,0,0,0,0,0,0,2147483666,0,0,0,0,0,0,0,0,0,2147483741,0,0,0,0,0,0,0,0,0,0,0,0,0,0,0,0,0,0,0,0,0,0,0,0,0,45,46,46,47,0,0,0,13,14,
0,0,2147483675,2147483674,2147483674,0,30,2147483662,2147483661,2147483712,2147483712,2147483710,2147483709,2147483741,0,0,0,0,0,0,0,0,0,0,0,0,0,0,0,0,0,0,0,0,0,0,0,0,0,0,0,0,0,0,2147483779,2147483753,0,0,0,0,0,0,0,0,0,0,0,0,0,0,0,0,0,0,0,0,0,0,0,0,0,57,131,58,59,0,0,0,25,26,
0,0,2147483687,2147483686,2147483688,2147483674,2147483674,2147483688,2147483674,2147483662,2147483661,2147483737,2147483725,2147483753,0,0,0,0,0,0,0,0,0,0,0,0,0,0,0,0,0,0,0,0,0,0,0,0,0,0,0,2147483741,2147483666,0,0,0,2147483692,0,0,0,0,0,0,0,0,0,0,0,0,0,0,0,0,0,0,0,0,0,0,30,49,52,50,50,51,0,13,14,0,0,
0,0,0,0,0,0,2147483674,2147483674,2147483674,2147483674,2147483673,80,0,0,0,0,0,0,0,0,0,0,0,0,0,0,0,0,0,0,0,2147483662,2147483661,0,0,0,0,0,0,0,0,2147483753,2147483780,0,0,2147483663,2147483662,2147483661,0,0,0,0,0,0,0,0,0,0,0,0,0,0,0,0,0,0,0,0,0,93,61,62,64,64,13,0,2147483678,0,26,26,
0,0,0,0,0,0,2147483687,2147483687,0,2147483666,2147483662,2147483661,0,0,0,0,0,0,0,0,0,0,0,0,0,0,0,0,0,0,0,2147483688,2147483674,2147483662,2147483661,0,0,2147483663,2147483662,2147483662,2147483661,2147483662,2147483662,2147483662,2147483661,2147483675,2147483688,2147483673,0,0,0,0,0,0,0,0,0,0,0,0,0,0,0,0,0,0,0,0,0,105,77,89,13,14,26,0,26,26,40,38,
0,0,0,0,0,0,0,0,2147483675,2147483674,2147483688,2147483674,2147483662,2147483661,0,0,0,0,0,0,0,0,0,0,0,0,0,0,0,0,0,2147483686,2147483674,2147483688,2147483674,2147483662,2147483662,2147483674,2147483674,2147483674,2147483674,2147483688,2147483674,2147483686,2147483674,2147483674,2147483674,2147483674,2147483662,2147483661,0,0,0,0,0,0,0,0,0,0,0,0,0,0,0,0,0,0,0,0,0,2147483728,25,26,0,0,26,38,39,0,
0,0,0,0,0,0,0,0,2147483687,2147483686,2147483674,2147483674,2147483674,2147483673,0,0,0,0,0,0,0,0,0,0,0,0,0,0,0,0,0,0,2147483687,2147483686,2147483686,2147483686,2147483686,2147483674,2147483688,2147483688,2147483674,2147483686,2147483685,0,2147483687,2147483686,2147483674,2147483674,2147483688,2147483674,2147483662,2147483661,0,0,0,2147483695,2147483694,2147483694,2147483693,0,0,0,0,0,0,0,0,0,0,0,0,13,0,18,0,0,39,0,0,0,
0,0,0,0,0,0,0,0,0,0,2147483687,0,0,0,2147483662,0,0,0,0,0,0,0,38,38,38,39,0,0,0,0,0,0,0,0,0,0,0,2147483687,2147483686,2147483686,2147483685,0,0,2147483686,0,0,2147483687,2147483686,2147483674,2147483674,2147483674,2147483673,0,0,0,2147483707,2147483706,2147483779,2147483705,0,0,0,0,0,0,0,0,0,0,0,0,0,0,26,0,0,0,0,0,0,
0,0,0,0,0,0,0,0,0,0,0,2147483675,2147483662,2147483662,2147483661,0,0,0,0,0,0,0,0,18,30,0,0,0,0,0,0,0,0,0,0,0,0,0,2147483678,2147483666,0,0,0,0,0,0,0,0,2147483687,0,0,0,2147483662,2147483661,0,2147483699,2147483698,2147483698,2147483700,2147483697,2147483678,0,0,0,0,0,0,0,0,0,0,0,0,0,0,0,0,0,0,0,
0,0,0,0,0,0,0,0,0,0,0,2147483687,2147483688,2147483688,2147483674,2147483662,2147483661,0,0,0,0,0,0,30,18,0,0,0,0,0,0,0,0,0,0,0,0,0,2147483666,2147483678,0,0,0,0,0,0,0,0,0,2147483675,2147483674,2147483674,0,0,2147483661,2147483711,2147483712,2147483712,2147483710,2147483709,2147483741,0,0,0,0,0,0,0,0,0,0,0,0,0,0,0,0,0,0,0,
0,0,0,0,0,0,0,0,0,0,0,0,2147483674,2147483674,2147483674,2147483674,2147483673,0,0,0,0,0,0,0,30,0,0,0,0,0,0,0,0,0,0,0,0,0,2147483678,0,0,0,0,0,0,0,0,0,0,2147483687,2147483686,2147483688,2147483674,2147483674,2147483673,2147483728,2147483740,2147483739,2147483737,2147483725,2147483753,0,0,0,0,0,0,0,0,0,0,0,0,0,0,0,0,0,0,0,
0,0,0,0,0,0,0,0,0,0,0,2147483662,2147483661,2147483687,0,0,2147483662,2147483662,0,0,0,0,0,0,0,0,0,0,0,0,0,0,0,0,0,0,0,0,0,0,0,0,0,0,0,0,0,0,0,0,0,2147483687,2147483686,2147483674,2147483674,2147483662,2147483662,2147483661,0,0,0,0,0,0,0,0,13,14,0,0,0,0,0,0,0,0,0,0,0,0,
0,0,0,0,0,0,0,0,0,0,0,2147483688,2147483674,2147483662,2147483662,2147483661,2147483674,0,0,0,0,0,0,0,0,0,0,0,0,0,0,0,0,0,0,0,0,0,0,0,0,0,0,0,0,0,0,0,0,0,0,0,0,2147483687,2147483674,0,2147483688,2147483673,0,0,0,0,0,0,0,0,25,26,0,0,0,0,0,0,0,0,0,0,0,0,
0,0,0,0,0,0,0,0,0,0,0,2147483674,2147483674,2147483674,2147483688,2147483674,2147483662,2147483661,0,0,0,0,0,0,0,0,0,0,0,0,0,0,0,0,0,0,0,0,0,0,0,0,0,0,0,0,0,2147483678,0,0,0,0,0,2147483651,2147483675,2147483688,0,2147483674,2147483662,2147483661,0,0,0,0,0,0,14,0,0,0,0,0,0,0,0,0,0,0,0,0,
0,0,0,0,0,0,0,0,0,0,0,2147483687,0,0,2147483674,2147483674,2147483674,2147483673,0,0,0,0,0,18,0,0,0,0,0,0,0,0,0,0,0,0,0,0,0,2147483666,0,0,0,0,0,0,0,2147483741,0,0,0,0,0,0,2147483687,2147483686,0,2147483689,2147483674,2147483674,2147483661,0,0,0,0,0,26,13,0,0,0,0,0,0,0,0,0,0,0,0,
0,0,0,0,0,0,0,0,0,0,0,0,2147483675,2147483674,2147483687,0,0,0,2147483662,0,0,0,0,0,0,0,0,0,0,0,0,0,0,0,0,0,0,0,0,0,0,0,0,0,0,0,2147483666,2147483753,0,0,0,0,0,0,0,0,0,0,2147483674,2147483689,2147483674,0,0,0,0,0,14,26,0,0,0,0,0,0,0,0,0,0,0,0,
0,0,0,0,0,0,0,0,0,0,0,0,2147483687,2147483686,2147483688,2147483675,2147483674,2147483674,0,0,0,0,0,0,0,0,0,0,0,0,0,0,0,0,0,0,0,0,0,0,0,0,0,0,0,0,0,0,0,0,0,0,0,0,0,0,2147483663,0,2147483674,2147483674,2147483674,0,0,0,0,0,26,26,0,0,0,0,0,0,0,0,0,0,0,0
</data>
 </layer>
 <layer id="22" name="Tile Layer 10" width="80" height="60" visible="0">
  <data encoding="csv">
0,0,0,0,0,0,0,0,0,0,0,0,0,0,0,0,0,0,0,0,0,0,0,0,0,0,0,0,0,0,0,0,0,0,0,0,0,0,0,0,0,0,0,0,0,0,0,0,0,0,0,0,0,0,0,0,0,0,0,0,0,0,0,0,0,0,0,0,0,0,0,0,0,0,0,0,0,0,0,0,
0,0,0,0,0,0,0,0,0,0,0,0,0,0,0,0,0,0,0,0,0,0,0,0,0,0,0,0,0,0,0,0,0,0,0,0,0,0,0,0,0,0,0,0,0,0,0,0,0,0,0,0,0,0,0,0,0,0,0,0,0,0,0,0,0,0,0,0,0,0,0,0,0,0,0,0,0,0,0,0,
0,0,0,0,0,0,0,0,0,0,0,0,0,0,0,0,0,0,0,0,0,0,0,0,0,0,0,0,0,0,0,0,0,0,0,0,0,0,0,0,0,0,0,0,0,0,0,0,0,0,0,0,0,0,0,0,0,0,0,0,0,0,0,0,0,0,0,0,0,0,0,0,0,0,0,0,0,0,0,0,
0,0,0,0,0,0,0,0,0,0,0,0,0,0,0,0,0,0,0,0,0,0,0,0,0,0,0,0,0,0,0,0,0,0,0,0,0,0,0,0,0,0,0,0,0,0,0,0,0,0,0,0,0,0,0,0,0,0,0,0,0,0,0,0,0,0,0,0,0,0,0,0,0,0,0,0,0,0,0,0,
0,0,0,0,0,0,0,0,0,0,0,0,0,0,0,0,0,0,0,0,0,0,0,0,0,0,0,0,0,0,0,0,0,0,0,0,0,0,0,0,0,0,0,0,0,0,0,0,0,0,0,0,0,0,0,0,0,0,0,0,0,0,0,0,0,0,0,0,0,0,0,0,0,0,0,0,0,0,0,0,
0,0,0,0,0,0,0,0,0,0,0,0,0,0,0,0,0,0,0,0,0,0,0,0,0,0,0,0,0,0,0,0,0,0,0,0,0,0,0,0,0,0,0,0,0,0,0,0,0,0,0,0,0,0,0,0,0,0,0,0,0,0,0,0,0,0,0,0,0,0,0,0,0,0,0,0,0,0,0,0,
0,0,0,0,0,0,0,0,0,0,0,0,0,0,0,0,0,0,0,0,0,0,0,0,0,0,0,0,0,0,0,0,0,0,0,0,0,0,0,0,0,0,0,0,0,0,0,0,0,0,0,0,0,0,0,0,0,0,0,0,0,0,0,0,0,0,0,0,0,0,0,0,0,0,0,0,0,0,0,0,
0,0,0,0,0,0,0,0,0,0,0,0,0,0,0,0,0,0,0,0,0,0,0,0,0,0,0,0,0,0,0,0,0,0,0,0,0,0,0,0,0,0,0,0,0,0,0,0,0,0,0,0,0,0,0,0,0,0,0,0,0,0,0,0,0,0,0,0,0,0,0,0,0,0,0,0,0,0,0,0,
0,0,0,0,0,0,0,0,0,0,0,0,0,0,0,0,0,0,0,0,0,0,0,0,0,0,0,0,0,0,0,0,0,0,0,0,0,0,0,0,0,0,0,0,0,0,0,0,0,0,0,0,0,0,0,0,0,0,0,0,0,0,0,0,0,0,0,0,0,0,0,0,0,2,0,0,0,0,0,0,
0,0,0,0,0,0,0,0,0,0,0,0,0,0,0,0,0,0,0,0,0,0,0,0,0,0,0,0,0,0,0,0,0,0,0,0,0,0,0,0,0,0,0,0,0,0,0,0,0,0,0,0,0,0,0,0,0,0,0,0,0,0,0,0,0,0,0,0,0,0,0,0,0,2,2,2,2,2,2,2,
0,0,0,0,0,0,0,0,0,0,0,0,0,0,0,0,0,0,0,0,0,0,0,0,0,0,0,0,0,0,0,0,0,0,0,0,0,0,0,0,0,0,0,0,0,0,0,0,0,0,0,0,0,0,0,0,0,0,0,0,0,0,0,0,0,0,0,0,0,0,0,0,0,2,0,2,2,3,2,2,
0,0,0,0,0,0,0,0,0,0,0,0,0,0,0,0,0,0,0,0,0,0,0,0,0,0,0,0,0,0,0,0,0,0,0,0,0,0,0,0,0,0,0,0,0,0,0,0,0,0,0,0,0,0,0,0,0,0,0,0,0,0,0,0,0,0,0,0,0,0,0,0,0,2,2,2,2,2,2,2,
0,0,0,0,0,0,0,0,0,0,0,0,0,0,0,0,0,0,0,0,0,0,0,0,0,0,0,0,0,0,0,0,0,0,0,0,0,0,0,0,0,0,0,0,0,0,0,0,0,0,0,0,0,0,0,0,0,0,0,0,0,0,0,0,0,0,0,0,0,0,0,0,0,0,0,0,0,0,0,2,
0,0,0,0,0,0,0,0,0,0,0,0,0,0,0,0,0,0,0,0,0,0,0,0,0,0,0,0,0,0,0,0,0,0,0,0,0,0,0,0,0,0,0,0,0,0,0,0,0,0,0,0,0,0,0,0,0,0,0,0,0,0,0,0,0,0,0,0,0,0,0,0,0,0,0,0,0,0,0,3,
0,0,0,0,0,0,0,0,0,0,0,0,0,0,0,0,0,0,0,0,0,0,0,0,0,0,0,0,0,0,0,0,0,0,0,0,0,0,0,0,0,0,0,0,0,0,0,0,0,0,0,0,0,0,0,0,0,0,0,0,0,25,26,26,0,0,0,0,0,0,0,0,0,0,0,0,0,0,0,2,
0,0,0,0,0,0,0,0,0,0,0,0,0,0,0,0,0,0,0,0,0,0,0,0,0,0,0,0,0,0,0,0,0,0,0,0,0,0,0,0,0,0,0,0,0,0,0,0,0,0,0,0,0,0,0,0,0,0,0,0,0,25,26,26,0,0,0,44,44,44,2,2,0,0,0,0,0,0,0,2,
0,0,0,0,0,0,0,0,0,0,0,0,0,0,0,0,0,0,0,0,0,0,0,0,0,0,0,0,0,0,0,0,0,0,0,0,0,0,0,0,0,0,0,0,0,0,0,0,0,0,0,0,0,0,0,0,0,0,0,0,0,25,0,26,0,0,0,2,2,44,44,2,109,0,0,0,0,0,0,2,
0,0,0,0,0,0,0,0,0,0,0,0,0,0,0,0,0,0,0,0,0,0,0,0,0,0,0,0,0,0,0,0,0,0,0,0,0,0,0,0,0,0,0,0,0,0,0,0,0,0,0,0,0,0,0,0,0,0,0,0,0,0,0,0,0,0,0,2,2,2,44,44,109,0,0,0,0,0,0,2,
0,0,0,0,0,0,0,0,0,0,0,0,0,0,0,0,0,0,0,0,0,0,0,0,0,0,0,0,0,0,0,0,0,0,0,0,0,0,0,0,0,0,0,0,0,0,0,0,0,0,0,0,0,0,0,0,0,0,0,0,0,0,0,0,0,0,0,2,2,2,2,44,44,44,44,0,0,0,0,2,
0,0,0,0,0,0,0,0,0,0,0,0,0,0,0,0,0,0,0,0,0,0,0,0,0,0,0,0,0,0,0,0,0,0,0,0,0,0,0,0,0,0,0,0,0,0,0,0,0,0,0,0,0,0,0,0,0,0,0,0,0,0,0,0,0,0,0,2,2,2,2,2,44,44,44,44,44,44,44,44,
0,0,0,0,0,0,0,0,0,0,0,0,0,0,0,0,0,0,0,0,0,0,0,0,0,0,0,0,0,0,0,0,0,0,0,0,0,0,0,0,0,0,0,0,0,0,0,0,0,0,0,0,0,0,0,0,0,0,0,0,0,0,0,0,0,0,0,0,0,0,2,2,0,0,0,0,0,0,0,0,
0,0,0,0,0,0,0,0,0,0,0,0,0,0,0,0,0,0,0,0,0,0,0,0,0,0,0,0,0,0,0,0,0,0,0,0,0,0,0,0,0,0,0,0,0,0,0,0,0,0,0,0,0,0,0,0,0,0,0,0,26,0,0,0,0,0,0,0,0,0,0,0,0,0,0,0,0,0,0,0,
0,0,0,0,0,0,0,0,0,0,0,0,0,0,0,0,0,0,0,0,0,0,0,0,0,0,0,0,0,0,0,0,0,0,0,0,0,0,0,0,0,0,0,0,0,0,0,0,0,0,0,0,0,0,0,0,0,0,0,26,26,26,0,0,0,0,0,0,0,0,0,0,0,0,0,0,0,0,0,0,
0,0,0,0,0,0,0,0,0,0,0,0,0,0,0,0,0,0,0,0,0,0,0,0,0,0,0,0,0,0,0,0,0,0,0,0,0,0,0,0,0,0,0,0,0,0,0,0,0,0,0,0,0,0,0,0,0,0,0,26,26,26,26,0,0,0,0,0,0,0,0,0,0,0,0,0,0,0,0,0,
0,0,0,0,0,0,0,0,0,0,0,0,0,0,0,0,0,0,0,0,0,0,0,0,0,0,0,0,0,0,0,0,0,0,0,0,0,0,0,0,0,0,0,0,0,0,0,0,0,0,0,0,0,0,0,0,0,0,26,26,26,0,0,0,0,0,0,0,0,0,0,0,0,0,0,0,0,0,0,0,
0,0,0,0,0,0,0,0,0,0,0,0,0,0,0,0,0,0,0,0,0,0,0,0,0,0,0,0,0,0,0,0,0,2,2,14,0,0,0,0,0,0,0,0,0,0,0,0,0,0,0,0,0,0,0,0,0,0,26,0,26,26,0,0,0,0,0,0,0,0,0,0,0,0,0,0,0,0,0,0,
0,0,0,0,0,0,0,0,0,0,0,0,0,0,0,0,0,0,0,0,0,0,0,0,0,0,0,0,0,0,14,14,14,14,14,14,26,15,0,0,0,0,0,0,0,0,0,0,0,0,0,0,0,0,0,0,0,0,26,26,26,0,0,0,0,0,0,0,0,0,0,0,0,0,0,0,0,0,0,0,
0,0,0,0,0,0,0,0,0,0,0,0,0,0,0,0,0,0,0,0,0,0,0,0,0,0,0,0,0,26,26,43,26,26,26,43,26,26,15,0,0,0,0,0,0,0,0,0,0,0,0,0,0,0,0,0,0,0,0,26,0,0,0,0,0,0,0,0,0,0,0,0,0,0,0,0,0,0,0,0,
0,0,0,0,0,0,0,0,0,0,0,0,0,0,0,0,0,0,0,0,0,0,0,0,0,0,0,0,0,38,38,38,38,38,38,38,38,43,26,15,15,0,0,0,0,0,0,0,0,0,0,0,0,0,0,0,0,0,0,0,0,0,0,0,0,0,0,0,0,0,0,0,0,0,0,0,0,0,0,0,
0,0,0,0,0,0,0,0,0,0,0,0,0,0,0,0,0,0,0,0,0,0,0,0,0,0,0,0,0,0,0,0,0,2,3,0,38,26,43,26,15,0,0,0,0,0,0,0,0,0,0,0,0,0,0,0,0,0,0,0,0,0,0,0,0,0,0,0,0,0,0,0,0,0,0,0,0,0,0,0,
0,0,0,0,0,0,0,0,0,0,0,0,0,0,0,0,0,0,0,0,0,0,0,0,0,0,0,0,0,0,0,0,0,0,0,0,0,37,26,43,43,0,0,0,0,0,0,0,0,0,0,0,0,0,0,0,0,0,0,0,0,0,0,0,0,0,0,0,0,0,0,0,0,0,0,0,0,0,0,0,
0,0,0,0,0,0,0,0,0,0,0,0,0,0,0,0,0,0,0,0,0,0,0,0,0,0,0,0,0,0,0,0,0,0,0,0,0,0,0,0,0,0,0,0,0,0,0,0,0,0,0,0,0,0,0,0,0,0,0,0,0,0,0,0,0,0,0,0,0,0,0,0,0,0,0,0,0,0,0,0,
0,0,0,0,0,0,0,0,0,0,0,0,0,0,0,0,0,0,0,0,0,0,0,0,0,0,0,0,0,0,0,0,0,0,0,0,0,0,0,0,0,0,0,0,0,0,0,0,0,0,0,0,0,0,0,0,0,0,0,0,0,0,0,0,0,0,0,0,0,0,0,0,0,0,0,0,0,0,0,0,
0,0,0,0,0,0,0,0,0,0,0,0,0,0,0,0,0,0,0,0,0,0,0,0,0,0,0,0,0,0,0,0,0,0,0,0,0,0,0,0,0,0,0,0,0,0,0,0,0,0,0,0,0,0,0,0,0,0,0,0,0,0,0,0,0,0,0,0,0,0,0,0,0,0,0,0,0,0,0,0,
0,0,0,0,0,0,0,0,0,0,0,0,0,0,0,0,0,0,0,0,0,0,0,0,0,0,0,0,0,0,5,0,0,0,0,0,0,0,0,0,0,0,0,0,0,0,0,0,0,0,0,0,0,0,0,0,0,0,0,0,0,0,0,0,0,0,0,0,0,0,0,0,0,0,0,0,0,0,0,0,
0,0,0,0,0,0,0,0,0,0,0,0,0,0,0,0,0,0,0,0,0,0,0,0,0,0,0,0,0,0,17,0,0,0,0,0,0,0,0,0,0,0,0,0,0,0,0,0,0,0,0,0,0,0,0,0,0,0,0,0,0,0,0,0,0,0,0,0,0,0,0,0,0,0,0,0,0,0,0,0,
0,0,0,0,0,0,0,0,0,0,0,0,0,0,0,0,0,0,0,0,0,0,0,0,0,0,0,0,0,0,0,0,0,0,0,0,0,0,0,0,0,0,0,0,0,0,0,0,0,0,0,0,0,0,0,0,0,0,0,0,0,0,0,0,0,0,0,0,0,0,0,0,0,0,0,0,0,0,0,0,
0,0,0,0,0,0,0,0,0,0,0,0,0,0,0,0,0,0,0,0,0,0,0,0,0,0,0,0,0,0,0,0,0,0,0,0,0,0,0,0,0,0,0,0,0,0,0,0,0,0,0,0,0,0,0,0,0,0,0,0,0,0,0,0,0,0,0,0,0,0,0,0,0,0,0,0,0,0,0,0,
0,0,0,26,0,0,0,0,0,0,0,0,0,0,0,0,0,0,0,0,0,0,0,0,0,0,0,0,0,0,25,0,0,0,0,0,0,0,0,0,0,0,0,0,0,0,0,0,0,0,0,0,0,0,0,0,0,0,0,0,0,0,0,0,0,0,0,0,0,0,0,0,0,0,0,0,0,0,0,0,
0,26,26,26,0,0,0,0,0,0,0,0,0,0,0,0,0,0,0,0,0,0,0,0,0,0,0,0,0,0,25,0,26,27,0,0,0,0,0,0,0,0,0,0,0,0,0,0,0,0,0,0,0,0,0,0,0,0,0,0,0,0,0,0,0,0,0,0,0,0,0,0,0,0,0,0,0,0,0,0,
0,26,26,26,0,0,0,0,0,0,0,0,0,0,0,29,30,0,0,5,5,5,0,0,0,0,0,0,0,13,26,26,27,0,0,0,0,0,0,0,0,0,0,0,0,0,0,0,0,0,0,0,0,0,0,0,0,0,0,0,0,0,0,0,0,0,0,0,2,3,2,2,2,2,2,2,2,2,2,2,
0,26,0,26,0,0,0,0,0,0,0,0,0,0,0,0,0,29,30,17,17,17,5,0,0,0,0,0,13,26,26,26,39,0,0,0,0,0,0,0,0,0,0,0,0,0,0,0,0,0,0,0,0,0,0,0,0,0,0,0,0,0,0,0,0,0,0,0,2,2,2,2,2,3,3,3,2,3,3,3,
0,0,0,0,0,0,0,0,0,0,0,0,0,0,0,0,0,0,5,5,5,17,5,5,5,5,0,0,25,26,26,27,0,0,0,0,0,0,0,0,0,0,0,0,0,0,0,0,0,0,0,0,0,0,0,0,0,0,0,0,0,0,0,0,0,0,0,0,2,3,3,2,2,2,2,2,3,2,3,3,
0,0,0,0,0,0,0,0,0,0,0,0,0,0,0,29,30,0,17,17,17,17,17,17,17,17,0,0,25,26,26,27,0,0,0,0,0,0,0,0,0,0,0,0,0,0,0,0,0,0,0,0,0,0,0,0,0,0,0,0,0,0,0,0,0,0,0,0,0,0,0,0,0,0,0,0,0,0,0,2147483674,
0,0,0,0,0,0,0,27,61,0,0,0,0,0,0,0,0,0,5,5,17,5,0,5,17,0,0,0,25,26,26,27,0,0,0,0,0,0,0,0,0,0,0,0,0,0,0,0,0,0,0,0,0,0,0,0,0,0,0,0,0,0,0,0,0,0,0,0,0,0,0,0,0,0,0,0,0,0,0,0,
0,0,0,0,0,0,0,27,77,78,78,90,80,0,0,0,0,0,17,5,5,17,5,17,0,0,0,0,25,26,26,26,15,0,0,0,0,0,0,0,0,0,0,0,0,0,0,0,0,0,0,0,0,0,0,0,0,0,0,0,0,0,0,0,0,0,2147483678,2147483677,0,0,0,0,0,0,0,0,0,0,0,0,
0,0,0,0,0,0,0,0,14,14,14,44,0,0,0,0,0,0,0,17,5,17,17,0,0,0,0,0,37,38,26,26,26,15,0,0,0,0,0,0,0,0,0,0,0,0,0,0,0,0,0,0,0,0,0,0,0,0,0,0,0,0,0,0,0,0,0,0,0,0,0,0,0,0,2147483709,2147483675,0,0,0,0,
0,0,0,0,0,0,0,0,0,0,26,0,0,0,0,0,0,0,29,30,17,5,5,0,0,0,0,0,0,0,37,26,0,26,0,0,0,0,0,0,0,0,0,0,0,0,0,0,0,0,0,0,0,0,0,0,0,0,0,0,0,0,0,0,0,0,0,0,0,0,2147483728,2147483738,2147483726,2147483726,2147483725,2147483675,0,0,0,0,
0,0,0,0,0,0,0,0,0,0,0,0,0,0,0,0,0,0,0,0,17,17,17,0,0,0,0,0,0,0,0,37,26,0,0,0,0,0,0,0,0,0,0,0,0,0,0,0,0,0,0,0,0,0,0,0,0,0,0,0,0,0,0,0,0,0,0,0,0,0,0,2147483692,2147483662,2147483662,2147483662,0,0,0,0,0,
0,0,0,0,0,0,0,0,0,0,0,0,0,0,0,0,0,0,0,0,0,0,0,0,0,0,0,0,0,0,0,0,0,0,0,0,0,0,0,0,0,0,0,0,0,0,0,0,0,0,0,0,0,0,0,0,0,0,0,0,0,2,2,2,2,2,0,0,0,0,0,0,2147483674,0,0,0,0,0,0,0,
0,0,0,0,0,0,0,0,0,0,0,0,0,0,0,0,0,0,0,0,0,0,0,0,0,0,0,0,0,0,0,0,0,0,0,0,0,0,0,0,0,0,0,0,0,0,0,0,0,0,0,0,0,0,0,0,0,0,0,0,0,2,2,2,3,3,0,0,0,0,0,0,41,0,0,0,0,0,0,0,
0,0,0,0,0,0,0,0,0,0,0,0,0,0,0,0,0,0,0,0,0,0,0,0,0,0,0,0,0,0,0,0,0,0,0,0,0,0,0,0,0,0,0,0,0,0,0,0,0,0,0,0,0,0,0,0,0,0,0,0,0,2,2,2,2,2,0,0,0,0,0,0,0,0,0,0,0,0,0,0,
0,0,0,0,0,0,0,0,0,0,0,0,0,0,0,0,0,0,0,0,0,0,0,0,0,0,0,0,0,0,0,0,0,0,0,0,0,0,0,0,0,0,0,0,0,0,0,0,0,0,0,0,0,0,0,0,0,0,0,0,2,2,3,3,2,2,2,2,0,26,26,41,0,0,0,0,0,0,0,0,
0,0,0,0,0,0,0,0,0,0,0,0,0,0,0,0,0,0,0,0,0,0,0,0,0,0,0,0,0,0,0,0,0,0,0,0,0,0,0,0,0,0,0,0,0,0,0,0,0,0,0,0,0,0,0,0,0,0,0,0,2,2,2,2,3,3,2,2,0,41,41,0,0,0,0,0,0,0,0,0,
0,0,0,0,0,0,0,0,0,0,0,0,0,0,0,0,0,0,0,0,0,0,0,0,0,0,0,0,0,0,0,0,0,0,0,0,0,0,0,0,0,0,0,0,0,0,0,0,0,0,0,0,0,0,0,0,0,0,0,0,0,2,2,2,2,3,2,2,0,26,26,0,0,0,0,0,0,0,0,0,
0,0,0,0,0,0,0,0,0,0,0,0,0,0,0,0,0,0,0,0,0,0,0,0,0,0,0,0,0,0,0,0,0,0,0,0,0,0,0,0,0,0,0,0,0,0,0,0,0,0,0,0,0,0,0,0,0,0,0,0,0,3,2,2,2,2,2,0,0,26,0,0,0,0,0,0,0,0,0,0,
0,0,0,0,0,0,0,0,0,0,0,0,0,0,0,0,0,0,0,0,0,0,0,0,0,0,0,0,0,0,0,0,0,0,0,0,0,0,0,0,0,0,0,0,0,0,0,0,0,0,0,0,0,0,0,0,0,0,0,0,0,2,2,26,43,2,2,0,41,26,0,0,0,0,0,0,0,0,0,0,
0,0,0,0,0,0,0,0,0,0,0,0,0,0,0,0,0,0,0,0,0,0,0,0,0,0,0,0,0,0,0,0,0,0,0,0,0,0,0,0,0,0,0,0,0,0,0,0,0,0,0,0,0,0,0,0,0,0,0,26,26,43,43,43,43,2,43,26,26,26,0,0,0,0,0,0,0,0,0,0,
0,0,0,0,0,0,0,0,0,0,0,0,0,0,0,0,0,0,0,0,0,0,0,0,0,0,0,0,0,0,0,0,0,0,0,0,0,0,0,0,0,0,0,0,0,0,0,0,0,0,0,0,0,0,0,0,0,0,43,26,26,43,43,26,43,26,26,0,0,0,0,0,0,0,0,0,0,0,0,0,
0,0,0,0,0,0,0,0,0,0,0,0,0,0,0,0,0,0,0,0,0,0,0,0,0,0,0,0,0,0,0,0,0,0,0,0,0,0,0,0,0,0,0,0,0,0,0,0,0,0,0,0,0,0,0,0,0,0,0,26,26,26,43,26,26,26,26,0,0,0,0,0,0,0,0,0,0,0,0,0
</data>
 </layer>
</map>
